ncols 100
nrows 100
xllcorner 0.0
yllcorner 0.0
cellsize 50.0
NODATA_value -9999.0
0.000000 0.000000 0.000000 0.000000 0.000000 0.000000 0.000000 0.000000 0.000000 0.000000 0.000000 0.000000 0.000000 0.000000 0.000000 0.000000 0.000000 0.000000 0.000000 0.000000 0.000000 0.000000 0.000000 0.000000 0.000000 0.000000 0.000000 0.000000 0.000000 0.000000 0.000000 0.000000 0.000000 0.000000 0.000000 0.000000 0.000000 0.000000 0.000000 0.000000 0.000000 0.000000 0.000000 0.000000 0.000000 0.000000 0.000000 0.000000 0.000000 0.000000 0.000000 0.000000 0.000000 0.000000 0.000000 0.000000 0.000000 0.000000 0.000000 0.000000 0.000000 0.000000 0.000000 0.000000 0.000000 0.000000 0.000000 0.000000 0.000000 0.000000 0.000000 0.000000 0.000000 0.000000 0.000000 0.000000 0.000000 0.000000 0.000000 0.000000 0.000000 0.000000 0.000000 0.000000 0.000000 0.000000 0.000000 0.000000 0.000000 0.000000 0.000000 0.000000 0.000000 0.000000 0.000000 0.000000 0.000000 0.000000 0.000000 0.000000
0.000000 0.000000 0.000000 0.000000 0.000000 0.000000 0.000000 0.000000 0.000000 0.000000 0.000000 0.000000 0.000000 0.000000 0.000000 0.000000 0.000000 0.000000 0.000000 0.000000 0.000000 0.000000 0.000000 0.000000 0.000000 0.000000 0.000000 0.000000 0.000000 0.000000 0.000000 0.000000 0.000000 0.000000 0.000000 0.000000 0.000000 0.000000 0.000000 0.000000 0.000000 0.000000 0.000000 0.000000 0.000000 0.000000 0.000000 0.000000 0.000000 0.000000 0.000000 0.000000 0.000000 0.000000 0.000000 0.000000 0.000000 0.000000 0.000000 0.000000 0.000000 0.000000 0.000000 0.000000 0.000000 0.000000 0.000000 0.000000 0.000000 0.000000 0.000000 0.000000 0.000000 0.000000 0.000000 0.000000 0.000000 0.000000 0.000000 0.000000 0.000000 0.000000 0.000000 0.000000 0.000000 0.000000 0.000000 0.000000 0.000000 0.000000 0.000000 0.000000 0.000000 0.000000 0.000000 0.000000 0.000000 0.000000 0.000000 0.000000
0.000000 0.000000 0.000000 0.000000 0.000000 0.000000 0.000000 0.000000 0.000000 0.000000 0.000000 0.000000 0.000000 0.000000 0.000000 0.000000 0.000000 0.000000 0.000000 0.000000 0.000000 0.000000 0.000000 0.000000 0.000000 0.000000 0.000000 0.000000 0.000000 0.000000 0.000000 0.000000 0.000000 0.000000 0.000000 0.000000 0.000000 0.000000 0.000000 0.000000 0.000000 0.000000 0.000000 0.000000 0.000000 0.000000 0.000000 0.000000 0.000000 0.000000 0.000000 0.000000 0.000000 0.000000 0.000000 0.000000 0.000000 0.000000 0.000000 0.000000 0.000000 0.000000 0.000000 0.000000 0.000000 0.000000 0.000000 0.000000 0.000000 0.000000 0.000000 0.000000 0.000000 0.000000 0.000000 0.000000 0.000000 0.000000 0.000000 0.000000 0.000000 0.000000 0.000000 0.000000 0.000000 0.000000 0.000000 0.000000 0.000000 0.000000 0.000000 0.000000 0.000000 0.000000 0.000000 0.000000 0.000000 0.000000 0.000000 0.000000
0.000000 0.000000 0.000000 0.000000 0.000000 0.000000 0.000000 0.000000 0.000000 0.000000 0.000000 0.000000 0.000000 0.000000 0.000000 0.000000 0.000000 0.000000 0.000000 0.000000 0.000000 0.000000 0.000000 0.000000 0.000000 0.000000 0.000000 0.000000 0.000000 0.000000 0.000000 0.000000 0.000000 0.000000 0.000000 0.000000 0.000000 0.000000 0.000000 0.000000 0.000000 0.000000 0.000000 0.000000 0.000000 0.000000 0.000000 0.000000 0.000000 0.000000 0.000000 0.000000 0.000000 0.000000 0.000000 0.000000 0.000000 0.000000 0.000000 0.000000 0.000000 0.000000 0.000000 0.000000 0.000000 0.000000 0.000000 0.000000 0.000000 0.000000 0.000000 0.000000 0.000000 0.000000 0.000000 0.000000 0.000000 0.000000 0.000000 0.000000 0.000000 0.000000 0.000000 0.000000 0.000000 0.000000 0.000000 0.000000 0.000000 0.000000 0.000000 0.000000 0.000000 0.000000 0.000000 0.000000 0.000000 0.000000 0.000000 0.000000
0.000000 0.000000 0.000000 0.000000 0.000000 0.000000 0.000000 0.000000 0.000000 0.000000 0.000000 0.000000 0.000000 0.000000 0.000000 0.000000 0.000000 0.000000 0.000000 0.000000 0.000000 0.000000 0.000000 0.000000 0.000000 0.000000 0.000000 0.000000 0.000000 0.000000 0.000000 0.000000 0.000000 0.000000 0.000000 0.000000 0.000000 0.000000 0.000000 0.000000 0.000000 0.000000 0.000000 0.000000 0.000000 0.000000 0.000000 0.000000 0.000000 0.000000 0.000000 0.000000 0.000000 0.000000 0.000000 0.000000 0.000000 0.000000 0.000000 0.000000 0.000000 0.000000 0.000000 0.000000 0.000000 0.000000 0.000000 0.000000 0.000000 0.000000 0.000000 0.000000 0.000000 0.000000 0.000000 0.000000 0.000000 0.000000 0.000000 0.000000 0.000000 0.000000 0.000000 0.000000 0.000000 0.000000 0.000000 0.000000 0.000000 0.000000 0.000000 0.000000 0.000000 0.000000 0.000000 0.000000 0.000000 0.000000 0.000000 0.000000
0.000000 0.000000 0.000000 0.000000 0.000000 0.000000 0.000000 0.000000 0.000000 0.000000 0.000000 0.000000 0.000000 0.000000 0.000000 0.000000 0.000000 0.000000 0.000000 0.000000 0.000000 0.000000 0.000000 0.000000 0.000000 0.000000 0.000000 0.000000 0.000000 0.000000 0.000000 0.000000 0.000000 0.000000 0.000000 0.000000 0.000000 0.000000 0.000000 0.000000 0.000000 0.000000 0.000000 0.000000 0.000000 0.000000 0.000000 0.000000 0.000000 0.000000 0.000000 0.000000 0.000000 0.000000 0.000000 0.000000 0.000000 0.000000 0.000000 0.000000 0.000000 0.000000 0.000000 0.000000 0.000000 0.000000 0.000000 0.000000 0.000000 0.000000 0.000000 0.000000 0.000000 0.000000 0.000000 0.000000 0.000000 0.000000 0.000000 0.000000 0.000000 0.000000 0.000000 0.000000 0.000000 0.000000 0.000000 0.000000 0.000000 0.000000 0.000000 0.000000 0.000000 0.000000 0.000000 0.000000 0.000000 0.000000 0.000000 0.000000
0.000000 0.000000 0.000000 0.000000 0.000000 0.000000 0.000000 0.000000 0.000000 0.000000 0.000000 0.000000 0.000000 0.000000 0.000000 0.000000 0.000000 0.000000 0.000000 0.000000 0.000000 0.000000 0.000000 0.000000 0.000000 0.000000 0.000000 0.000000 0.000000 0.000000 0.000000 0.000000 0.000000 0.000000 0.000000 0.000000 0.000000 0.000000 0.000000 0.000000 0.000000 0.000000 0.000000 0.000000 0.000000 0.000000 0.000000 0.000000 0.000000 0.000000 0.000000 0.000000 0.000000 0.000000 0.000000 0.000000 0.000000 0.000000 0.000000 0.000000 0.000000 0.000000 0.000000 0.000000 0.000000 0.000000 0.000000 0.000000 0.000000 0.000000 0.000000 0.000000 0.000000 0.000000 0.000000 0.000000 0.000000 0.000000 0.000000 0.000000 0.000000 0.000000 0.000000 0.000000 0.000000 0.000000 0.000000 0.000000 0.000000 0.000000 0.000000 0.000000 0.000000 0.000000 0.000000 0.000000 0.000000 0.000000 0.000000 0.000000
0.000000 0.000000 0.000000 0.000000 0.000000 0.000000 0.000000 0.000000 0.000000 0.000000 0.000000 0.000000 0.000000 0.000000 0.000000 0.000000 0.000000 0.000000 0.000000 0.000000 0.000000 0.000000 0.000000 0.000000 0.000000 0.000000 0.000000 0.000000 0.000000 0.000000 0.000000 0.000000 0.000000 0.000000 0.000000 0.000000 0.000000 0.000000 0.000000 0.000000 0.000000 0.000000 0.000000 0.000000 0.000000 0.000000 0.000000 0.000000 0.000000 0.000000 0.000000 0.000000 0.000000 0.000000 0.000000 0.000000 0.000000 0.000000 0.000000 0.000000 0.000000 0.000000 0.000000 0.000000 0.000000 0.000000 0.000000 0.000000 0.000000 0.000000 0.000000 0.000000 0.000000 0.000000 0.000000 0.000000 0.000000 0.000000 0.000000 0.000000 0.000000 0.000000 0.000000 0.000000 0.000000 0.000000 0.000000 0.000000 0.000000 0.000000 0.000000 0.000000 0.000000 0.000000 0.000000 0.000000 0.000000 0.000000 0.000000 0.000000
0.000000 0.000000 0.000000 0.000000 0.000000 0.000000 0.000000 0.000000 0.000000 0.000000 0.000000 0.000000 0.000000 0.000000 0.000000 0.000000 0.000000 0.000000 0.000000 0.000000 0.000000 0.000000 0.000000 0.000000 0.000000 0.000000 0.000000 0.000000 0.000000 0.000000 0.000000 0.000000 0.000000 0.000000 0.000000 0.000000 0.000000 0.000000 0.000000 0.000000 0.000000 0.000000 0.000000 0.000000 0.000000 0.000000 0.000000 0.000000 0.000000 0.000000 0.000000 0.000000 0.000000 0.000000 0.000000 0.000000 0.000000 0.000000 0.000000 0.000000 0.000000 0.000000 0.000000 0.000000 0.000000 0.000000 0.000000 0.000000 0.000000 0.000000 0.000000 0.000000 0.000000 0.000000 0.000000 0.000000 0.000000 0.000000 0.000000 0.000000 0.000000 0.000000 0.000000 0.000000 0.000000 0.000000 0.000000 0.000000 0.000000 0.000000 0.000000 0.000000 0.000000 0.000000 0.000000 0.000000 0.000000 0.000000 0.000000 0.000000
0.000000 0.000000 0.000000 0.000000 0.000000 0.000000 0.000000 0.000000 0.000000 0.000000 0.000000 0.000000 0.000000 0.000000 0.000000 0.000000 0.000000 0.000000 0.000000 0.000000 0.000000 0.000000 0.000000 0.000000 0.000000 0.000000 0.000000 0.000000 0.000000 0.000000 0.000000 0.000000 0.000000 0.000000 0.000000 0.000000 0.000000 0.000000 0.000000 0.000000 0.000000 0.000000 0.000000 0.000000 0.000000 0.000000 0.000000 0.000000 0.000000 0.000000 0.000000 0.000000 0.000000 0.000000 0.000000 0.000000 0.000000 0.000000 0.000000 0.000000 0.000000 0.000000 0.000000 0.000000 0.000000 0.000000 0.000000 0.000000 0.000000 0.000000 0.000000 0.000000 0.000000 0.000000 0.000000 0.000000 0.000000 0.000000 0.000000 0.000000 0.000000 0.000000 0.000000 0.000000 0.000000 0.000000 0.000000 0.000000 0.000000 0.000000 0.000000 0.000000 0.000000 0.000000 0.000000 0.000000 0.000000 0.000000 0.000000 0.000000
0.000000 0.000000 0.000000 0.000000 0.000000 0.000000 0.000000 0.000000 0.000000 0.000000 0.000000 0.000000 0.000000 0.000000 0.000000 0.000000 0.000000 0.000000 0.000000 0.000000 0.000000 0.000000 0.000000 0.000000 0.000000 0.000000 0.000000 0.000000 0.000000 0.000000 0.000000 0.000000 0.000000 0.000000 0.000000 0.000000 0.000000 0.000000 0.000000 0.000000 0.000000 0.000000 0.000000 0.000000 0.000000 0.000000 0.000000 0.000000 0.000000 0.000000 0.000000 0.000000 0.000000 0.000000 0.000000 0.000000 0.000000 0.000000 0.000000 0.000000 0.000000 0.000000 0.000000 0.000000 0.000000 0.000000 0.000000 0.000000 0.000000 0.000000 0.000000 0.000000 0.000000 0.000000 0.000000 0.000000 0.000000 0.000000 0.000000 0.000000 0.000000 0.000000 0.000000 0.000000 0.000000 0.000000 0.000000 0.000000 0.000000 0.000000 0.000000 0.000000 0.000000 0.000000 0.000000 0.000000 0.000000 0.000000 0.000000 0.000000
0.000000 0.000000 0.000000 0.000000 0.000000 0.000000 0.000000 0.000000 0.000000 0.000000 0.000000 0.000000 0.000000 0.000000 0.000000 0.000000 0.000000 0.000000 0.000000 0.000000 0.000000 0.000000 0.000000 0.000000 0.000000 0.000000 0.000000 0.000000 0.000000 0.000000 0.000000 0.000000 0.000000 0.000000 0.000000 0.000000 0.000000 0.000000 0.000000 0.000000 0.000000 0.000000 0.000000 0.000000 0.000000 0.000000 0.000000 0.000000 0.000000 0.000000 0.000000 0.000000 0.000000 0.000000 0.000000 0.000000 0.000000 0.000000 0.000000 0.000000 0.000000 0.000000 0.000000 0.000000 0.000000 0.000000 0.000000 0.000000 0.000000 0.000000 0.000000 0.000000 0.000000 0.000000 0.000000 0.000000 0.000000 0.000000 0.000000 0.000000 0.000000 0.000000 0.000000 0.000000 0.000000 0.000000 0.000000 0.000000 0.000000 0.000000 0.000000 0.000000 0.000000 0.000000 0.000000 0.000000 0.000000 0.000000 0.000000 0.000000
0.000000 0.000000 0.000000 0.000000 0.000000 0.000000 0.000000 0.000000 0.000000 0.000000 0.000000 0.000000 0.000000 0.000000 0.000000 0.000000 0.000000 0.000000 0.000000 0.000000 0.000000 0.000000 0.000000 0.000000 0.000000 0.000000 0.000000 0.000000 0.000000 0.000000 0.000000 0.000000 0.000000 0.000000 0.000000 0.000000 0.000000 0.000000 0.000000 0.000000 0.000000 0.000000 0.000000 0.000000 0.000000 0.000000 0.000000 0.000000 0.000000 0.000000 0.000000 0.000000 0.000000 0.000000 0.000000 0.000000 0.000000 0.000000 0.000000 0.000000 0.000000 0.000000 0.000000 0.000000 0.000000 0.000000 0.000000 0.000000 0.000000 0.000000 0.000000 0.000000 0.000000 0.000000 0.000000 0.000000 0.000000 0.000000 0.000000 0.000000 0.000000 0.000000 0.000000 0.000000 0.000000 0.000000 0.000000 0.000000 0.000000 0.000000 0.000000 0.000000 0.000000 0.000000 0.000000 0.000000 0.000000 0.000000 0.000000 0.000000
0.000000 0.000000 0.000000 0.000000 0.000000 0.000000 0.000000 0.000000 0.000000 0.000000 0.000000 0.000000 0.000000 0.000000 0.000000 0.000000 0.000000 0.000000 0.000000 0.000000 0.000000 0.000000 0.000000 0.000000 0.000000 0.000000 0.000000 0.000000 0.000000 0.000000 0.000000 0.000000 0.000000 0.000000 0.000000 0.000000 0.000000 0.000000 0.000000 0.000000 0.000000 0.000000 0.000000 0.000000 0.000000 0.000000 0.000000 0.000000 0.000000 0.000000 0.000000 0.000000 0.000000 0.000000 0.000000 0.000000 0.000000 0.000000 0.000000 0.000000 0.000000 0.000000 0.000000 0.000000 0.000000 0.000000 0.000000 0.000000 0.000000 0.000000 0.000000 0.000000 0.000000 0.000000 0.000000 0.000000 0.000000 0.000000 0.000000 0.000000 0.000000 0.000000 0.000000 0.000000 0.000000 0.000000 0.000000 0.000000 0.000000 0.000000 0.000000 0.000000 0.000000 0.000000 0.000000 0.000000 0.000000 0.000000 0.000000 0.000000
0.000000 0.000000 0.000000 0.000000 0.000000 0.000000 0.000000 0.000000 0.000000 0.000000 0.000000 0.000000 0.000000 0.000000 0.000000 0.000000 0.000000 0.000000 0.000000 0.000000 0.000000 0.000000 0.000000 0.000000 0.000000 0.000000 0.000000 0.000000 0.000000 0.000000 0.000000 0.000000 0.000000 0.000000 0.000000 0.000000 0.000000 0.000000 0.000000 0.000000 0.000000 0.000000 0.000000 0.000000 0.000000 0.000000 0.000000 0.000000 0.000000 0.000000 0.000000 0.000000 0.000000 0.000000 0.000000 0.000000 0.000000 0.000000 0.000000 0.000000 0.000000 0.000000 0.000000 0.000000 0.000000 0.000000 0.000000 0.000000 0.000000 0.000000 0.000000 0.000000 0.000000 0.000000 0.000000 0.000000 0.000000 0.000000 0.000000 0.000000 0.000000 0.000000 0.000000 0.000000 0.000000 0.000000 0.000000 0.000000 0.000000 0.000000 0.000000 0.000000 0.000000 0.000000 0.000000 0.000000 0.000000 0.000000 1.000000 2.750000
6.000000 3.750000 1.000000 0.000000 0.000000 0.000000 0.000000 0.000000 0.000000 0.000000 0.000000 0.000000 0.000000 0.000000 0.000000 0.000000 0.000000 0.000000 0.000000 0.000000 0.000000 0.000000 0.000000 0.000000 0.000000 0.000000 0.000000 0.000000 0.000000 0.000000 0.000000 0.000000 0.000000 0.000000 0.000000 0.000000 0.000000 0.000000 0.000000 0.000000 0.000000 0.000000 0.000000 0.000000 0.000000 0.000000 0.000000 0.000000 0.000000 0.000000 0.000000 0.000000 0.000000 0.000000 0.000000 0.000000 0.000000 0.000000 0.000000 0.000000 0.000000 0.000000 0.000000 0.000000 0.000000 0.000000 0.000000 0.000000 0.000000 0.000000 0.000000 0.000000 0.000000 0.000000 0.000000 0.000000 0.000000 0.000000 0.000000 0.000000 0.000000 0.000000 0.000000 0.000000 0.000000 0.000000 0.000000 0.000000 0.000000 0.000000 0.000000 0.000000 0.000000 0.000000 0.000000 0.000000 0.000000 2.750000 3.500000 6.250000
7.750000 7.250000 6.000000 2.250000 1.000000 0.000000 0.000000 0.000000 0.000000 0.000000 0.000000 0.000000 0.000000 0.000000 0.000000 0.000000 0.000000 0.000000 0.000000 0.000000 0.000000 0.000000 0.000000 0.000000 0.000000 0.000000 0.000000 0.000000 0.000000 0.000000 0.000000 0.000000 0.000000 0.000000 0.000000 0.000000 0.000000 0.000000 0.000000 0.000000 0.000000 0.000000 0.000000 0.000000 0.000000 0.000000 0.000000 0.000000 0.000000 0.000000 0.000000 0.000000 0.000000 0.000000 0.000000 0.000000 0.000000 0.000000 0.000000 0.000000 0.000000 0.000000 0.000000 0.000000 0.000000 0.000000 0.000000 0.000000 0.000000 0.000000 0.000000 0.000000 0.000000 0.000000 0.000000 0.000000 0.000000 0.000000 0.000000 0.000000 0.000000 0.000000 0.000000 0.000000 0.000000 0.000000 0.000000 0.000000 0.000000 0.000000 0.000000 0.000000 0.000000 0.000000 0.000000 2.500000 3.750000 4.000000 8.000000 9.250000
7.500000 8.750000 8.500000 7.750000 5.000000 2.500000 0.250000 0.000000 0.000000 0.000000 0.000000 0.000000 0.000000 0.000000 0.000000 0.000000 0.000000 0.000000 0.000000 0.000000 0.000000 0.000000 0.000000 0.000000 0.000000 0.000000 0.000000 0.000000 0.000000 0.000000 0.000000 0.000000 0.000000 0.000000 0.000000 0.000000 0.000000 0.000000 0.000000 0.000000 0.000000 0.000000 0.000000 0.000000 0.000000 0.000000 0.000000 0.000000 0.000000 0.000000 0.000000 0.000000 0.000000 0.000000 0.000000 0.000000 0.000000 0.000000 0.000000 0.000000 0.000000 0.000000 0.000000 0.000000 0.000000 0.000000 0.000000 0.000000 0.000000 0.000000 0.000000 0.000000 0.000000 0.000000 0.000000 0.000000 0.000000 0.000000 0.000000 0.000000 0.000000 0.000000 0.000000 0.000000 0.000000 0.000000 0.000000 0.000000 0.000000 0.000000 0.000000 0.000000 0.000000 1.250000 3.750000 4.500000 7.000000 9.000000 10.000000 10.250000
10.000000 9.500000 9.500000 9.500000 9.000000 7.500000 3.500000 2.500000 0.000000 0.000000 0.000000 0.000000 0.000000 0.000000 0.000000 0.000000 0.000000 0.000000 0.000000 0.000000 0.000000 0.000000 0.000000 0.000000 0.000000 0.000000 0.000000 0.000000 0.000000 0.000000 0.000000 0.000000 0.000000 0.000000 0.000000 0.000000 0.000000 0.000000 0.000000 0.000000 0.000000 0.000000 0.000000 0.000000 0.000000 0.000000 0.000000 0.000000 0.000000 0.000000 0.000000 0.000000 0.000000 0.000000 0.000000 0.000000 0.000000 0.000000 0.000000 0.000000 0.000000 0.000000 0.000000 0.000000 0.000000 0.000000 0.000000 0.000000 0.000000 0.000000 0.000000 0.000000 0.000000 0.000000 0.000000 0.000000 0.000000 0.000000 0.000000 0.000000 0.000000 0.000000 0.000000 0.000000 0.000000 0.000000 0.000000 0.000000 0.000000 0.000000 0.000000 0.000000 3.000000 4.500000 5.000000 8.750000 10.000000 10.500000 10.250000 10.000000
9.250000 10.000000 10.750000 10.000000 10.250000 9.750000 8.750000 6.750000 3.750000 2.250000 0.000000 0.000000 0.000000 0.000000 0.000000 0.000000 0.000000 0.000000 0.000000 0.000000 0.000000 0.000000 0.000000 0.000000 0.000000 0.000000 0.000000 0.000000 0.000000 0.000000 0.000000 0.000000 0.000000 0.000000 0.000000 0.000000 0.000000 0.000000 0.000000 0.000000 0.000000 0.000000 0.000000 0.000000 0.000000 0.000000 0.000000 0.000000 0.000000 0.000000 0.000000 0.000000 0.000000 0.000000 0.000000 0.000000 0.000000 0.000000 0.000000 0.000000 0.000000 0.000000 0.000000 0.000000 0.000000 0.000000 0.000000 0.000000 0.000000 0.000000 0.000000 0.000000 0.000000 0.000000 0.000000 0.000000 0.000000 0.000000 0.000000 0.000000 0.000000 0.000000 0.000000 0.000000 0.000000 0.000000 0.000000 0.000000 0.000000 0.000000 2.000000 4.250000 5.000000 8.250000 10.000000 11.000000 11.250000 11.000000 12.250000 9.250000
8.500000 9.000000 9.500000 11.750000 12.250000 11.000000 10.750000 10.250000 8.750000 4.500000 3.500000 0.750000 0.000000 0.000000 0.000000 0.000000 0.000000 0.000000 0.000000 0.000000 0.000000 0.000000 0.000000 0.000000 0.000000 0.000000 0.000000 0.000000 0.000000 0.000000 0.000000 0.000000 0.000000 0.000000 0.000000 0.000000 0.000000 0.000000 0.000000 0.000000 0.000000 0.000000 0.000000 0.000000 0.000000 0.000000 0.000000 0.000000 0.000000 0.000000 0.000000 0.000000 0.000000 0.000000 0.000000 0.000000 0.000000 0.000000 0.000000 0.000000 0.000000 0.000000 0.000000 0.000000 0.000000 0.000000 0.000000 0.000000 0.000000 0.000000 0.000000 0.000000 0.000000 0.000000 0.000000 0.000000 0.000000 0.000000 0.000000 0.000000 0.000000 0.000000 0.000000 0.000000 0.000000 0.000000 0.000000 0.000000 0.000000 3.750000 5.000000 6.000000 10.250000 11.000000 11.750000 11.500000 12.250000 11.500000 8.500000 7.250000
6.000000 8.000000 9.250000 9.500000 10.750000 13.750000 11.750000 11.500000 11.500000 10.250000 7.750000 4.750000 3.250000 0.000000 0.000000 0.000000 0.000000 0.000000 0.000000 0.000000 0.000000 0.000000 0.000000 0.000000 0.000000 0.000000 0.000000 0.000000 0.000000 0.000000 0.000000 0.000000 0.000000 0.000000 0.000000 0.000000 0.000000 0.000000 0.000000 0.000000 0.000000 0.000000 0.000000 0.000000 0.000000 0.000000 0.000000 0.000000 0.000000 0.000000 0.000000 0.000000 0.000000 0.000000 0.000000 0.000000 0.000000 0.000000 0.000000 0.000000 0.000000 0.000000 0.000000 0.000000 0.000000 0.000000 0.000000 0.000000 0.000000 0.000000 0.000000 0.000000 0.000000 0.000000 0.000000 0.000000 0.000000 0.000000 0.000000 0.000000 0.000000 0.000000 0.000000 0.000000 0.000000 0.000000 0.000000 2.500000 4.750000 6.000000 9.500000 11.250000 12.250000 11.750000 12.000000 13.500000 9.500000 8.750000 7.250000 7.000000
6.250000 4.750000 7.250000 8.750000 9.500000 10.000000 13.500000 14.500000 12.500000 12.500000 11.500000 10.000000 5.500000 4.500000 2.000000 0.000000 0.000000 0.000000 0.000000 0.000000 0.000000 0.000000 0.000000 0.000000 0.000000 0.000000 0.000000 0.000000 0.000000 0.000000 0.000000 0.000000 0.000000 0.000000 0.000000 0.000000 0.000000 0.000000 0.000000 0.000000 0.000000 0.000000 0.000000 0.000000 0.000000 0.000000 0.000000 0.000000 0.000000 0.000000 0.000000 0.000000 0.000000 0.000000 0.000000 0.000000 0.000000 0.000000 0.000000 0.000000 0.000000 0.000000 0.000000 0.000000 0.000000 0.000000 0.000000 0.000000 0.000000 0.000000 0.000000 0.000000 0.000000 0.000000 0.000000 0.000000 0.000000 0.000000 0.000000 0.000000 0.000000 0.000000 0.000000 0.000000 0.000000 0.000000 4.000000 5.750000 6.750000 11.000000 12.250000 13.000000 12.500000 14.500000 11.000000 9.500000 8.250000 7.500000 6.750000 4.750000
6.750000 6.500000 6.250000 5.750000 8.000000 9.250000 10.000000 12.750000 16.000000 14.250000 13.000000 12.750000 11.500000 8.500000 5.500000 4.000000 0.000000 0.000000 0.000000 0.000000 0.000000 0.000000 0.000000 0.000000 0.000000 0.000000 0.000000 0.000000 0.000000 0.000000 0.000000 0.000000 0.000000 0.000000 0.000000 0.000000 0.000000 0.000000 0.000000 0.000000 0.000000 0.000000 0.000000 0.000000 0.000000 0.000000 0.000000 0.000000 0.000000 0.000000 0.000000 0.000000 0.000000 0.000000 0.000000 0.000000 0.000000 0.000000 0.000000 0.000000 0.000000 0.000000 0.000000 0.000000 0.000000 0.000000 0.000000 0.000000 0.000000 0.000000 0.000000 0.000000 0.000000 0.000000 0.000000 0.000000 0.000000 0.000000 0.000000 0.000000 0.000000 0.000000 0.000000 0.000000 2.750000 5.250000 6.750000 10.500000 12.500000 13.250000 13.250000 13.500000 15.250000 9.500000 9.250000 7.750000 7.000000 6.000000 5.000000 6.000000
6.000000 6.750000 7.000000 6.750000 6.250000 7.250000 8.750000 9.500000 12.000000 15.500000 16.250000 13.500000 13.500000 13.000000 11.250000 6.250000 5.250000 2.500000 0.000000 0.000000 0.000000 0.000000 0.000000 0.000000 0.000000 0.000000 0.000000 0.000000 0.000000 0.000000 0.000000 0.000000 0.000000 0.000000 0.000000 0.000000 0.000000 0.000000 0.000000 0.000000 0.000000 0.000000 0.000000 0.000000 0.000000 0.000000 0.000000 0.000000 0.000000 0.000000 0.000000 0.000000 0.000000 0.000000 0.000000 0.000000 0.000000 0.000000 0.000000 0.000000 0.000000 0.000000 0.000000 0.000000 0.000000 0.000000 0.000000 0.000000 0.000000 0.000000 0.000000 0.000000 0.000000 0.000000 0.000000 0.000000 0.000000 0.000000 0.000000 0.000000 0.000000 0.000000 0.000000 5.250000 6.250000 8.250000 12.250000 13.500000 13.750000 13.500000 15.500000 10.250000 9.750000 9.250000 7.750000 7.000000 5.000000 6.250000 6.500000 7.000000
4.500000 5.750000 6.750000 7.000000 7.000000 7.000000 7.250000 8.250000 9.500000 11.750000 14.000000 18.250000 16.500000 14.500000 14.000000 13.250000 9.750000 6.250000 4.250000 0.000000 0.000000 0.000000 0.000000 0.000000 0.000000 0.000000 0.000000 0.000000 0.000000 0.000000 0.000000 0.000000 0.000000 0.000000 0.000000 0.000000 0.000000 0.000000 0.000000 0.000000 0.000000 0.000000 0.000000 0.000000 0.000000 0.000000 0.000000 0.000000 0.000000 0.000000 0.000000 0.000000 0.000000 0.000000 0.000000 0.000000 0.000000 0.000000 0.000000 0.000000 0.000000 0.000000 0.000000 0.000000 0.000000 0.000000 0.000000 0.000000 0.000000 0.000000 0.000000 0.000000 0.000000 0.000000 0.000000 0.000000 0.000000 0.000000 0.000000 0.000000 1.000000 5.500000 8.500000 9.250000 11.500000 14.000000 14.250000 14.250000 15.500000 16.250000 10.000000 10.250000 9.000000 7.250000 6.750000 6.000000 7.000000 6.750000 6.500000 6.250000
1.250000 3.250000 5.000000 6.250000 7.000000 7.500000 7.750000 6.750000 8.750000 8.750000 11.000000 13.250000 17.250000 18.750000 15.000000 15.000000 14.500000 12.500000 7.250000 6.750000 4.000000 0.000000 0.000000 0.000000 0.000000 0.000000 0.000000 0.000000 0.000000 0.000000 0.000000 0.000000 0.000000 0.000000 0.000000 0.000000 0.000000 0.000000 0.000000 0.000000 0.000000 0.000000 0.000000 0.000000 0.000000 0.000000 0.000000 0.000000 0.000000 0.000000 0.000000 0.000000 0.000000 0.000000 0.000000 0.000000 0.000000 0.000000 0.000000 0.000000 0.000000 0.000000 0.000000 0.000000 0.000000 0.000000 0.000000 0.000000 0.000000 0.000000 0.000000 0.000000 0.000000 0.000000 0.000000 0.000000 0.000000 0.000000 0.000000 3.500000 8.500000 10.500000 11.500000 13.500000 15.250000 15.000000 14.500000 17.000000 9.000000 10.500000 10.250000 7.500000 6.500000 6.250000 7.000000 6.750000 6.750000 6.250000 5.750000 4.500000
4.500000 3.750000 2.000000 4.000000 6.000000 6.500000 7.500000 7.500000 7.500000 7.750000 9.500000 10.250000 13.000000 14.250000 20.250000 18.750000 15.750000 15.750000 14.500000 11.750000 10.000000 8.000000 2.500000 0.000000 0.000000 0.000000 0.000000 0.000000 0.000000 0.000000 0.000000 0.000000 0.000000 0.000000 0.000000 0.000000 0.000000 0.000000 0.000000 0.000000 0.000000 0.000000 0.000000 0.000000 0.000000 0.000000 0.000000 0.000000 0.000000 0.000000 0.000000 0.000000 0.000000 0.000000 0.000000 0.000000 0.000000 0.000000 0.000000 0.000000 0.000000 0.000000 0.000000 0.000000 0.000000 0.000000 0.000000 0.000000 0.000000 0.000000 0.000000 0.000000 0.000000 0.000000 0.000000 0.000000 0.000000 3.500000 7.500000 11.500000 12.500000 16.250000 16.000000 15.750000 15.750000 17.250000 13.750000 9.000000 11.000000 9.750000 7.500000 7.750000 6.750000 7.250000 7.000000 6.750000 6.000000 4.750000 3.000000 1.500000
5.500000 5.250000 5.000000 4.000000 3.750000 4.500000 6.250000 7.000000 7.750000 8.000000 7.750000 9.750000 8.750000 12.500000 14.250000 19.750000 20.750000 18.000000 16.750000 16.250000 16.250000 12.500000 11.000000 6.250000 2.500000 0.000000 0.000000 0.000000 0.000000 0.000000 0.000000 0.000000 0.000000 0.000000 0.000000 0.000000 0.000000 0.000000 0.000000 0.000000 0.000000 0.000000 0.000000 0.000000 0.000000 0.000000 0.000000 0.000000 0.000000 0.000000 0.000000 0.000000 0.000000 0.000000 0.000000 0.000000 0.000000 0.000000 0.000000 0.000000 0.000000 0.000000 0.000000 0.000000 0.000000 0.000000 0.000000 0.000000 0.000000 0.000000 0.000000 0.000000 0.000000 0.000000 0.000000 2.250000 5.250000 10.750000 13.500000 14.000000 18.500000 18.250000 16.500000 16.750000 17.000000 10.000000 11.250000 11.250000 9.500000 8.500000 7.000000 7.250000 7.500000 7.250000 6.250000 5.250000 3.750000 2.250000 4.000000 4.750000
5.750000 6.000000 5.750000 5.750000 5.250000 4.000000 5.500000 5.250000 6.500000 7.750000 8.250000 8.250000 7.750000 10.750000 11.750000 13.750000 15.250000 22.250000 20.750000 17.750000 17.500000 19.500000 16.000000 13.500000 10.500000 4.500000 0.000000 0.000000 0.000000 0.000000 0.000000 0.000000 0.000000 0.000000 0.000000 0.000000 0.000000 0.000000 0.000000 0.000000 0.000000 0.000000 0.000000 0.000000 0.000000 0.000000 0.000000 0.000000 0.000000 0.000000 0.000000 0.000000 0.000000 0.000000 0.000000 0.000000 0.000000 0.000000 0.000000 0.000000 0.000000 0.000000 0.000000 0.000000 0.000000 0.000000 0.000000 0.000000 0.000000 0.000000 0.000000 0.000000 0.000000 0.000000 4.500000 8.250000 13.500000 15.250000 19.500000 21.000000 19.500000 16.250000 18.250000 14.250000 10.250000 11.750000 11.000000 9.250000 8.250000 7.750000 7.500000 7.250000 6.750000 5.750000 4.250000 3.750000 4.250000 5.000000 5.500000 5.500000
4.750000 5.500000 5.500000 6.000000 6.000000 6.000000 5.500000 4.500000 6.750000 5.750000 7.000000 8.000000 8.500000 8.500000 11.000000 13.250000 13.500000 15.000000 19.250000 22.750000 20.250000 20.250000 22.000000 20.250000 15.500000 13.500000 6.250000 3.750000 0.000000 0.000000 0.000000 0.000000 0.000000 0.000000 0.000000 0.000000 0.000000 0.000000 0.000000 0.000000 0.000000 0.000000 0.000000 0.000000 0.000000 0.000000 0.000000 0.000000 0.000000 0.000000 0.000000 0.000000 0.000000 0.000000 0.000000 0.000000 0.000000 0.000000 0.000000 0.000000 0.000000 0.000000 0.000000 0.000000 0.000000 0.000000 0.000000 0.000000 0.000000 0.000000 0.000000 0.000000 2.500000 6.250000 12.250000 16.000000 17.250000 22.500000 23.000000 20.000000 18.750000 17.500000 10.500000 12.000000 12.000000 11.500000 9.750000 8.000000 8.000000 7.750000 7.250000 6.250000 4.750000 5.500000 4.500000 5.000000 6.000000 6.000000 5.750000 5.500000
2.500000 4.000000 5.000000 5.500000 6.000000 6.250000 6.250000 6.250000 5.500000 7.000000 7.500000 6.500000 7.750000 8.250000 8.750000 8.500000 12.750000 14.500000 14.750000 15.500000 24.250000 23.000000 21.500000 24.250000 23.750000 18.500000 16.000000 11.750000 5.750000 0.000000 0.000000 0.000000 0.000000 0.000000 0.000000 0.000000 0.000000 0.000000 0.000000 0.000000 0.000000 0.000000 0.000000 0.000000 0.000000 0.000000 0.000000 0.000000 0.000000 0.000000 0.000000 0.000000 0.000000 0.000000 0.000000 0.000000 0.000000 0.000000 0.000000 0.000000 0.000000 0.000000 0.000000 0.000000 0.000000 0.000000 0.000000 0.000000 0.000000 0.000000 2.000000 9.000000 11.000000 15.250000 18.000000 22.250000 25.000000 24.250000 20.250000 19.000000 15.750000 10.750000 13.000000 12.750000 12.250000 8.250000 8.500000 8.000000 7.750000 6.750000 5.250000 6.750000 4.750000 5.500000 6.000000 6.000000 5.750000 5.500000 5.000000 4.250000
3.500000 2.000000 2.750000 4.250000 5.000000 5.750000 6.000000 6.500000 6.750000 6.250000 6.000000 8.500000 9.000000 7.250000 8.250000 9.000000 9.000000 11.500000 15.500000 14.500000 15.500000 20.250000 24.500000 25.000000 25.750000 26.500000 23.750000 18.500000 17.000000 11.750000 7.750000 0.000000 0.000000 0.000000 0.000000 0.000000 0.000000 0.000000 0.000000 0.000000 0.000000 0.000000 0.000000 0.000000 0.000000 0.000000 0.000000 0.000000 0.000000 0.000000 0.000000 0.000000 0.000000 0.000000 0.000000 0.000000 0.000000 0.000000 0.000000 0.000000 0.000000 0.000000 0.000000 0.000000 0.000000 0.000000 0.000000 0.000000 0.000000 5.000000 13.000000 17.750000 20.750000 20.500000 25.750000 27.000000 25.000000 22.750000 18.500000 11.750000 13.250000 13.000000 14.500000 10.500000 8.500000 8.500000 8.250000 7.000000 6.000000 8.000000 5.500000 6.000000 6.500000 6.500000 6.250000 5.500000 5.000000 4.250000 3.250000 1.500000
5.000000 4.500000 4.000000 3.250000 3.500000 4.250000 5.250000 5.750000 6.250000 6.750000 6.750000 6.750000 6.250000 10.000000 10.000000 7.750000 8.750000 9.500000 9.250000 15.000000 17.250000 16.000000 16.250000 22.250000 26.500000 27.250000 28.750000 27.500000 21.000000 22.500000 17.250000 12.500000 4.750000 0.000000 0.000000 0.000000 0.000000 0.000000 0.000000 0.000000 0.000000 0.000000 0.000000 0.000000 0.000000 0.000000 0.000000 0.000000 0.000000 0.000000 0.000000 0.000000 0.000000 0.000000 0.000000 0.000000 0.000000 0.000000 0.000000 0.000000 0.000000 0.000000 0.000000 0.000000 0.000000 0.000000 0.000000 4.500000 11.500000 16.250000 23.000000 24.750000 26.000000 28.500000 29.250000 26.000000 22.750000 17.250000 12.750000 14.000000 15.750000 14.000000 9.000000 9.000000 8.500000 7.500000 8.250000 9.000000 7.000000 6.250000 6.500000 6.500000 6.250000 6.000000 5.000000 4.250000 3.250000 2.250000 3.000000 4.000000
5.000000 5.500000 5.000000 5.000000 4.500000 4.000000 5.500000 4.250000 5.250000 6.000000 6.750000 6.750000 7.250000 7.250000 8.750000 11.250000 11.000000 8.500000 9.250000 10.000000 13.750000 17.500000 18.500000 17.000000 21.250000 26.250000 30.500000 31.250000 30.750000 29.500000 26.750000 23.750000 16.250000 7.000000 1.750000 0.000000 0.000000 0.000000 0.000000 0.000000 0.000000 0.000000 0.000000 0.000000 0.000000 0.000000 0.000000 0.000000 0.000000 0.000000 0.000000 0.000000 0.000000 0.000000 0.000000 0.000000 0.000000 0.000000 0.000000 0.000000 0.000000 0.000000 0.000000 0.000000 0.000000 2.500000 10.750000 16.250000 20.250000 27.250000 28.750000 31.000000 31.250000 30.250000 26.750000 21.750000 15.250000 14.750000 17.000000 16.250000 12.250000 9.500000 9.000000 8.000000 9.750000 10.250000 8.000000 7.000000 7.000000 7.000000 6.500000 6.000000 5.000000 4.250000 4.500000 3.500000 4.000000 4.250000 4.750000 4.750000
4.750000 5.000000 5.250000 5.500000 5.250000 5.500000 5.250000 4.500000 6.500000 6.750000 5.500000 6.250000 6.750000 7.250000 7.500000 7.500000 10.500000 12.750000 12.000000 9.000000 9.750000 10.250000 17.250000 19.250000 19.250000 19.750000 24.500000 31.000000 34.000000 33.750000 36.000000 31.000000 28.750000 21.000000 19.000000 10.750000 1.250000 0.000000 0.000000 0.000000 0.000000 0.000000 0.000000 0.000000 0.000000 0.000000 0.000000 0.000000 0.000000 0.000000 0.000000 0.000000 0.000000 0.000000 0.000000 0.000000 0.000000 0.000000 0.000000 0.000000 0.000000 0.000000 0.000000 0.000000 10.000000 15.750000 24.500000 27.250000 32.250000 35.500000 35.750000 33.500000 33.000000 26.500000 20.000000 14.750000 17.750000 18.000000 15.500000 9.750000 9.500000 8.750000 10.750000 11.500000 10.000000 7.000000 7.000000 7.000000 7.000000 6.000000 5.250000 4.250000 5.750000 4.250000 4.750000 5.000000 5.250000 5.250000 5.250000 5.000000
3.250000 4.000000 4.750000 5.250000 5.500000 5.750000 5.750000 5.500000 5.500000 5.000000 7.250000 8.250000 7.250000 6.500000 7.000000 7.750000 7.750000 7.750000 12.500000 14.000000 13.750000 10.000000 10.250000 16.000000 19.500000 21.000000 18.750000 24.250000 30.250000 38.750000 36.500000 41.250000 38.500000 33.750000 31.000000 26.000000 15.750000 8.000000 0.000000 0.000000 0.000000 0.000000 0.000000 0.000000 0.000000 0.000000 0.000000 0.000000 0.000000 0.000000 0.000000 0.000000 0.000000 0.000000 0.000000 0.000000 0.000000 0.000000 0.000000 0.000000 0.000000 0.000000 9.750000 18.500000 25.000000 30.500000 36.750000 36.000000 41.750000 40.000000 35.250000 29.750000 25.500000 17.500000 18.500000 19.750000 18.000000 13.750000 9.750000 9.000000 12.500000 13.000000 11.250000 7.250000 7.500000 7.500000 7.000000 6.500000 5.500000 7.250000 6.750000 4.750000 5.500000 5.750000 5.250000 5.500000 5.500000 5.000000 4.750000 4.250000
2.750000 3.000000 3.250000 3.750000 4.500000 5.000000 5.500000 5.750000 6.000000 6.250000 6.000000 6.000000 7.500000 9.250000 9.250000 6.500000 7.500000 8.000000 8.250000 9.750000 14.000000 15.500000 14.750000 10.500000 12.750000 19.250000 21.750000 22.250000 25.000000 29.000000 35.000000 40.750000 46.000000 45.500000 41.500000 40.750000 32.250000 26.000000 15.750000 5.250000 0.000000 0.000000 0.000000 0.000000 0.000000 0.000000 0.000000 0.000000 0.000000 0.000000 0.000000 0.000000 0.000000 0.000000 0.000000 0.000000 0.000000 0.000000 0.000000 0.000000 7.750000 16.000000 27.250000 34.750000 37.500000 43.750000 42.750000 47.000000 42.500000 41.000000 30.000000 25.000000 19.250000 21.000000 20.250000 17.250000 10.500000 10.000000 13.500000 14.000000 13.000000 8.500000 8.000000 7.500000 7.500000 6.500000 8.250000 8.500000 7.250000 5.500000 5.750000 5.750000 5.750000 5.750000 5.250000 5.000000 4.500000 4.000000 3.000000 2.750000
4.250000 3.750000 4.250000 4.000000 3.500000 4.500000 4.500000 5.000000 5.250000 5.750000 6.000000 6.250000 6.500000 6.500000 7.250000 10.250000 10.750000 10.250000 8.000000 8.250000 8.750000 12.750000 15.250000 16.500000 16.000000 11.000000 18.000000 22.250000 23.750000 26.250000 29.750000 33.750000 47.750000 50.000000 51.750000 50.000000 49.000000 44.250000 36.500000 30.500000 18.750000 4.750000 0.000000 0.000000 0.000000 0.000000 0.000000 0.000000 0.000000 0.000000 0.000000 0.000000 0.000000 0.000000 0.000000 0.000000 0.000000 0.000000 7.500000 16.000000 28.250000 34.500000 45.500000 47.750000 51.250000 51.250000 52.500000 47.750000 36.750000 29.500000 25.750000 22.250000 22.000000 20.000000 15.500000 11.250000 15.500000 15.250000 14.250000 10.750000 8.500000 8.000000 7.500000 9.000000 10.250000 9.750000 7.500000 6.000000 6.000000 6.250000 6.000000 5.500000 5.250000 4.750000 4.000000 4.250000 3.250000 3.500000 3.500000 3.250000
4.750000 4.750000 4.500000 4.250000 4.500000 5.000000 4.750000 4.500000 5.500000 5.750000 5.500000 6.000000 6.250000 6.750000 7.000000 7.000000 8.250000 11.000000 11.750000 12.000000 10.750000 8.750000 9.250000 15.000000 17.000000 18.250000 17.500000 16.750000 21.750000 24.250000 25.250000 34.250000 33.500000 50.500000 55.250000 58.500000 62.500000 58.000000 54.500000 52.250000 43.250000 34.500000 17.000000 8.250000 0.000000 0.000000 0.000000 0.000000 0.000000 0.000000 0.000000 0.000000 0.000000 0.000000 0.000000 0.000000 6.500000 21.000000 32.000000 40.500000 49.000000 55.250000 61.250000 59.000000 60.250000 57.250000 53.000000 33.500000 28.750000 30.000000 24.250000 22.500000 19.000000 13.750000 16.750000 17.000000 15.750000 13.250000 8.750000 8.500000 9.250000 11.250000 11.500000 10.000000 8.000000 6.750000 6.500000 6.500000 6.500000 5.750000 5.250000 5.750000 5.500000 4.000000 4.250000 4.250000 4.000000 4.000000 4.250000 4.500000
4.250000 4.750000 4.750000 4.750000 5.000000 5.000000 5.000000 5.000000 6.000000 6.000000 5.750000 6.750000 7.000000 7.000000 6.250000 7.000000 7.250000 7.250000 8.750000 12.000000 13.250000 13.750000 13.250000 9.750000 10.750000 16.250000 18.500000 19.750000 19.250000 22.000000 24.500000 26.750000 36.750000 36.500000 46.250000 61.000000 68.750000 73.000000 72.250000 69.750000 68.000000 62.000000 53.250000 38.500000 25.250000 11.500000 0.000000 0.000000 0.000000 0.000000 0.000000 0.000000 0.000000 0.000000 11.000000 28.000000 40.000000 52.750000 61.500000 66.250000 69.250000 74.250000 71.250000 68.750000 59.500000 49.250000 33.500000 35.750000 29.500000 25.250000 22.000000 21.250000 18.500000 18.500000 17.500000 14.750000 9.250000 10.000000 12.500000 13.250000 12.750000 10.500000 8.500000 7.250000 7.000000 6.500000 6.250000 6.750000 6.500000 6.000000 5.000000 5.750000 5.750000 4.750000 4.750000 4.750000 4.750000 4.750000 4.750000 4.250000
3.250000 3.250000 3.750000 4.250000 4.750000 4.750000 5.000000 5.000000 5.250000 5.500000 6.250000 6.750000 7.000000 7.750000 8.500000 8.250000 8.500000 8.250000 7.750000 8.000000 9.500000 12.500000 14.250000 15.250000 15.750000 14.000000 14.500000 18.750000 20.500000 21.750000 27.500000 27.250000 27.750000 37.750000 43.000000 45.250000 60.750000 81.000000 84.500000 86.250000 91.250000 88.500000 83.000000 76.750000 63.500000 55.000000 40.000000 30.000000 18.250000 12.000000 12.000000 17.500000 30.000000 40.750000 53.750000 65.750000 77.500000 85.250000 89.250000 89.500000 87.500000 83.000000 78.500000 60.000000 48.500000 38.750000 38.250000 27.500000 25.250000 26.750000 21.000000 20.500000 19.250000 16.500000 11.000000 13.750000 14.500000 14.250000 13.500000 10.750000 9.000000 7.500000 7.250000 8.000000 8.500000 7.500000 6.750000 6.500000 6.750000 6.750000 5.750000 5.250000 5.500000 5.250000 5.000000 5.000000 4.500000 4.250000 3.750000 3.500000
4.250000 4.500000 4.500000 4.500000 4.000000 4.750000 5.250000 4.750000 5.250000 5.250000 5.500000 5.750000 5.750000 7.500000 8.250000 8.250000 9.000000 9.750000 9.750000 10.000000 9.750000 8.750000 10.250000 12.750000 15.750000 16.500000 17.500000 16.500000 20.000000 20.500000 23.250000 25.250000 32.750000 32.250000 37.500000 45.250000 53.750000 59.750000 89.250000 99.750000 107.750000 112.500000 113.250000 111.000000 110.750000 100.000000 93.750000 82.000000 69.500000 70.250000 71.500000 75.000000 81.750000 91.250000 99.500000 110.000000 114.250000 112.500000 111.000000 106.750000 97.750000 86.500000 60.000000 50.000000 44.750000 39.750000 28.500000 32.250000 28.500000 22.250000 21.000000 18.500000 16.750000 16.500000 16.500000 15.750000 14.250000 11.000000 9.000000 8.750000 9.500000 9.750000 8.750000 9.250000 8.000000 8.000000 7.750000 6.750000 5.500000 5.500000 5.500000 5.250000 4.750000 4.500000 4.750000 4.750000 4.000000 4.250000 4.250000 4.250000
4.000000 4.000000 4.500000 4.750000 4.750000 5.000000 5.250000 5.000000 5.000000 6.000000 6.750000 6.750000 6.500000 6.250000 6.000000 7.500000 8.500000 9.000000 9.500000 11.000000 12.250000 12.250000 11.250000 11.500000 13.250000 12.750000 16.000000 18.250000 19.250000 21.500000 25.750000 25.000000 25.750000 34.000000 38.750000 41.500000 48.000000 59.000000 65.750000 86.250000 116.000000 132.500000 142.250000 149.250000 152.500000 156.750000 154.750000 150.500000 145.250000 140.250000 143.000000 142.750000 150.250000 155.000000 152.250000 155.500000 150.250000 141.750000 133.000000 110.000000 86.250000 61.500000 60.000000 47.750000 40.000000 37.500000 34.750000 26.750000 23.500000 24.250000 22.250000 18.750000 18.250000 16.750000 15.000000 12.750000 12.250000 11.250000 11.000000 11.500000 11.250000 9.500000 9.000000 8.750000 7.750000 6.750000 5.750000 5.750000 6.500000 6.500000 6.250000 5.750000 4.750000 5.000000 5.000000 5.000000 4.500000 4.750000 4.250000 4.000000
3.250000 3.500000 4.000000 4.500000 4.250000 4.500000 4.750000 5.250000 5.250000 5.500000 5.500000 5.750000 6.000000 7.250000 8.000000 8.000000 8.500000 8.500000 9.750000 9.500000 10.250000 11.000000 12.750000 13.750000 14.750000 14.250000 16.000000 17.250000 19.750000 19.750000 21.750000 26.250000 31.250000 32.000000 33.500000 41.250000 46.250000 56.500000 62.750000 75.750000 90.500000 124.750000 156.500000 172.500000 199.250000 215.500000 224.000000 231.500000 237.250000 236.750000 238.000000 237.750000 229.500000 225.000000 216.250000 198.000000 181.500000 156.750000 122.750000 90.750000 74.750000 64.750000 52.750000 48.500000 41.250000 35.250000 29.500000 30.750000 27.000000 22.750000 20.250000 19.250000 17.750000 16.000000 14.000000 13.750000 14.000000 13.250000 10.500000 10.500000 9.500000 9.250000 8.500000 8.000000 8.000000 8.000000 7.250000 6.750000 5.750000 5.750000 5.500000 5.500000 5.500000 5.000000 4.750000 4.500000 4.250000 4.000000 3.750000 3.500000
2.750000 3.250000 3.750000 3.500000 3.750000 4.750000 5.250000 5.500000 5.750000 6.250000 6.250000 5.500000 6.250000 6.250000 6.500000 6.750000 7.250000 8.500000 9.250000 10.000000 11.750000 12.250000 13.500000 13.250000 12.250000 14.500000 16.000000 16.750000 21.000000 21.000000 23.500000 25.500000 28.750000 30.250000 37.000000 41.750000 46.500000 48.750000 64.000000 74.750000 84.250000 109.500000 133.750000 185.750000 234.000000 267.750000 306.500000 338.000000 360.250000 371.000000 370.500000 356.250000 338.000000 311.500000 267.500000 225.250000 190.500000 133.500000 107.500000 85.750000 75.500000 65.000000 51.500000 47.000000 41.250000 37.000000 32.000000 28.250000 25.750000 23.500000 19.750000 20.250000 17.750000 16.500000 15.000000 12.500000 13.000000 13.000000 12.750000 11.750000 10.000000 9.500000 8.750000 8.000000 6.500000 6.250000 6.250000 6.000000 5.750000 5.500000 6.000000 5.750000 5.500000 5.500000 4.750000 4.000000 3.500000 3.500000 3.250000 3.250000
4.250000 4.250000 4.250000 4.000000 4.000000 4.250000 5.250000 5.500000 5.250000 6.500000 7.000000 6.250000 7.000000 7.250000 7.500000 7.750000 8.250000 7.750000 7.250000 7.500000 8.500000 9.750000 11.750000 13.750000 15.000000 16.000000 16.750000 17.000000 19.750000 22.250000 23.500000 25.500000 28.000000 30.000000 36.500000 41.250000 47.250000 53.000000 62.250000 74.500000 87.750000 108.250000 131.250000 173.000000 223.500000 320.000000 392.000000 480.500000 528.000000 572.500000 573.250000 529.500000 466.250000 396.750000 313.750000 225.500000 170.750000 131.250000 108.000000 87.000000 75.000000 63.000000 52.750000 47.250000 41.250000 36.500000 30.500000 28.250000 25.250000 23.500000 22.250000 20.250000 17.250000 16.750000 16.000000 15.250000 13.750000 12.250000 10.250000 9.250000 7.750000 7.250000 7.000000 7.500000 7.750000 7.750000 7.250000 7.250000 6.500000 6.500000 6.750000 5.750000 5.500000 5.000000 4.750000 4.250000 4.250000 4.250000 4.250000 4.250000
4.500000 4.500000 5.000000 5.000000 5.000000 5.000000 5.000000 5.250000 5.500000 5.500000 5.500000 5.250000 7.000000 8.250000 9.250000 9.500000 10.250000 11.250000 11.000000 11.500000 11.250000 11.000000 10.750000 10.750000 11.250000 13.500000 16.000000 17.750000 19.500000 20.750000 21.250000 26.750000 31.500000 33.750000 35.500000 43.500000 46.750000 51.750000 65.000000 77.250000 91.250000 108.500000 139.750000 172.250000 233.500000 314.000000 441.250000 640.750000 818.250000 949.750000 946.250000 819.000000 639.250000 441.750000 314.500000 233.500000 172.500000 139.250000 108.750000 90.000000 77.750000 64.750000 51.500000 46.000000 43.750000 35.500000 33.750000 31.750000 27.750000 21.250000 20.250000 19.250000 17.750000 16.000000 14.250000 10.500000 10.000000 10.000000 11.250000 11.500000 11.000000 11.250000 10.500000 10.000000 9.750000 9.250000 8.250000 7.000000 6.000000 5.250000 5.250000 5.250000 5.250000 5.000000 5.000000 5.000000 5.000000 5.000000 5.000000 5.000000
4.250000 4.750000 4.750000 4.750000 5.000000 5.000000 5.000000 5.500000 5.750000 6.000000 6.000000 6.000000 6.250000 6.250000 6.500000 6.500000 7.750000 8.750000 10.500000 11.500000 12.250000 13.500000 14.250000 14.750000 15.250000 16.000000 16.000000 18.500000 21.250000 23.750000 26.000000 26.500000 27.000000 30.750000 36.500000 41.500000 47.000000 58.500000 66.500000 82.000000 95.750000 116.500000 149.250000 194.250000 265.000000 379.000000 590.250000 812.750000 1096.000000 1357.500000 1355.000000 1093.250000 813.500000 586.500000 379.250000 264.750000 194.500000 148.250000 117.250000 95.250000 82.250000 66.750000 58.000000 46.750000 41.250000 36.500000 31.000000 27.000000 26.750000 25.500000 24.000000 21.500000 18.000000 16.250000 16.000000 15.500000 14.750000 14.250000 13.250000 12.500000 11.750000 10.500000 8.750000 7.500000 6.750000 6.500000 6.500000 6.500000 6.000000 5.750000 5.500000 5.500000 5.500000 5.250000 5.250000 5.000000 5.000000 4.750000 4.500000 4.500000
2.750000 3.250000 3.250000 4.000000 4.000000 4.500000 4.500000 4.500000 4.750000 5.500000 5.750000 5.750000 6.000000 6.250000 6.250000 6.500000 6.500000 7.000000 7.250000 7.750000 9.250000 10.250000 11.000000 12.500000 14.500000 15.500000 16.750000 18.000000 19.250000 20.500000 24.500000 26.750000 30.500000 34.250000 37.500000 45.000000 50.000000 59.000000 70.250000 82.250000 104.500000 132.750000 169.000000 247.750000 353.500000 451.500000 569.500000 734.000000 939.250000 1132.250000 1134.500000 940.750000 734.000000 577.000000 458.250000 353.250000 245.750000 169.500000 130.750000 104.500000 80.250000 70.500000 59.000000 50.750000 44.750000 38.000000 34.250000 30.000000 26.500000 23.750000 20.250000 19.000000 18.250000 16.500000 15.250000 13.750000 11.500000 10.750000 10.000000 9.000000 7.500000 7.500000 7.000000 7.000000 6.750000 6.500000 6.000000 6.000000 5.750000 5.250000 5.000000 5.000000 5.000000 4.250000 4.250000 3.750000 3.750000 3.250000 3.250000 2.500000
3.250000 3.250000 3.500000 3.750000 3.750000 4.250000 4.250000 4.250000 4.750000 5.000000 6.000000 6.250000 6.750000 7.250000 7.500000 8.000000 8.500000 9.250000 9.500000 10.000000 10.250000 11.000000 11.750000 13.250000 14.750000 16.250000 17.000000 18.250000 19.750000 21.500000 24.500000 27.500000 31.750000 36.250000 40.250000 44.000000 51.750000 64.500000 75.000000 90.750000 118.750000 162.000000 224.500000 282.750000 324.500000 367.000000 419.000000 460.250000 490.250000 477.000000 477.250000 489.000000 466.500000 417.750000 372.000000 324.250000 277.500000 226.250000 163.250000 118.250000 88.000000 75.000000 64.000000 49.500000 44.500000 39.750000 36.000000 31.000000 27.000000 24.000000 20.750000 20.000000 18.250000 17.000000 15.750000 14.000000 12.000000 11.750000 11.000000 10.500000 10.000000 9.750000 9.250000 8.750000 8.250000 8.000000 7.250000 6.500000 6.000000 5.250000 5.000000 4.750000 4.750000 4.750000 4.500000 4.250000 4.250000 4.250000 3.750000 3.500000
4.000000 4.250000 4.250000 4.250000 4.250000 5.250000 5.500000 6.000000 6.250000 6.500000 7.000000 7.000000 7.750000 7.750000 8.250000 8.750000 9.000000 9.000000 9.500000 10.250000 10.250000 11.250000 12.250000 13.750000 14.500000 15.000000 16.000000 19.500000 21.000000 24.250000 27.750000 30.250000 33.500000 37.000000 41.000000 50.250000 60.250000 71.000000 85.000000 112.250000 154.750000 189.750000 207.750000 225.750000 234.000000 226.250000 185.000000 84.750000 0.000000 0.000000 0.000000 0.000000 82.000000 184.500000 221.250000 230.250000 224.750000 206.750000 189.250000 158.250000 113.000000 85.000000 71.250000 60.000000 49.000000 41.250000 37.750000 34.750000 31.500000 28.250000 25.500000 22.500000 18.250000 16.250000 15.250000 14.250000 13.000000 11.500000 11.000000 10.250000 10.000000 9.500000 9.250000 8.750000 8.500000 8.500000 8.250000 7.750000 7.000000 6.750000 6.500000 6.000000 5.500000 5.250000 4.750000 4.500000 4.500000 4.250000 4.250000 4.250000
4.250000 4.500000 4.500000 4.750000 4.750000 5.000000 4.750000 5.000000 5.250000 5.250000 5.750000 5.750000 6.500000 7.250000 8.000000 8.250000 9.250000 10.750000 11.500000 11.750000 13.000000 14.000000 14.500000 15.500000 16.500000 17.250000 18.750000 20.000000 20.750000 22.500000 23.750000 29.000000 32.000000 37.750000 46.250000 54.250000 64.500000 80.500000 116.000000 133.000000 150.250000 155.500000 157.250000 143.500000 115.000000 53.250000 0.000000 0.000000 0.000000 0.000000 0.000000 0.000000 0.000000 0.000000 53.500000 114.000000 142.250000 154.000000 155.000000 145.500000 139.000000 114.750000 82.750000 64.500000 53.500000 44.500000 37.500000 31.000000 26.000000 24.500000 22.250000 21.000000 20.000000 18.250000 17.750000 16.250000 16.000000 15.000000 13.500000 13.000000 12.000000 11.250000 11.000000 10.000000 9.250000 7.750000 6.250000 6.000000 5.500000 5.500000 5.000000 5.250000 5.000000 5.000000 5.000000 4.500000 4.500000 4.500000 4.250000 4.500000
3.500000 3.750000 4.000000 4.750000 4.750000 5.250000 5.750000 6.000000 6.500000 6.250000 7.000000 7.000000 7.250000 7.500000 8.000000 8.250000 8.750000 9.250000 9.500000 10.750000 12.250000 12.500000 14.000000 14.250000 15.750000 16.500000 17.750000 19.250000 22.500000 25.500000 28.250000 33.250000 37.500000 43.000000 49.750000 61.750000 88.000000 104.750000 108.250000 117.500000 110.750000 106.250000 86.750000 46.750000 0.000000 0.000000 0.000000 0.000000 0.000000 0.000000 0.000000 0.000000 0.000000 0.000000 0.000000 0.000000 48.750000 85.750000 107.750000 116.750000 113.500000 115.250000 103.750000 84.750000 63.000000 49.250000 43.000000 38.000000 33.500000 30.000000 27.000000 23.500000 20.500000 18.000000 15.250000 14.250000 13.500000 12.000000 11.000000 9.750000 9.500000 9.250000 8.500000 8.500000 8.000000 7.500000 7.500000 7.250000 6.750000 6.750000 6.500000 6.250000 5.500000 5.750000 5.500000 5.000000 4.750000 4.250000 3.750000 3.500000
4.500000 4.500000 4.750000 5.000000 5.250000 5.000000 5.500000 5.750000 5.500000 6.000000 6.000000 6.250000 6.500000 7.000000 6.750000 7.000000 7.250000 7.500000 8.000000 8.000000 8.500000 10.000000 11.500000 13.500000 15.500000 17.000000 18.750000 21.250000 24.250000 27.500000 30.000000 34.250000 42.000000 50.000000 63.250000 76.250000 89.000000 92.000000 92.500000 85.750000 69.000000 46.500000 8.750000 0.000000 0.000000 0.000000 0.000000 0.000000 0.000000 0.000000 0.000000 0.000000 0.000000 0.000000 0.000000 0.000000 0.000000 5.500000 45.500000 65.250000 82.750000 92.000000 92.000000 90.250000 83.250000 62.250000 49.000000 41.750000 35.250000 29.250000 24.750000 22.500000 20.750000 19.500000 18.000000 16.500000 15.250000 14.000000 12.500000 11.000000 8.250000 7.750000 7.500000 7.500000 7.250000 7.000000 6.750000 6.250000 6.500000 6.000000 5.750000 6.000000 5.500000 5.250000 5.500000 5.000000 5.000000 4.750000 4.750000 4.500000
4.500000 4.750000 4.750000 5.250000 5.000000 5.250000 5.500000 5.250000 5.750000 5.750000 5.750000 6.250000 6.000000 6.500000 6.750000 9.250000 10.250000 11.000000 12.000000 13.250000 14.000000 15.000000 15.750000 17.000000 18.000000 19.000000 19.500000 22.500000 26.250000 29.250000 32.750000 36.750000 47.000000 61.000000 77.250000 76.250000 76.750000 70.250000 58.250000 39.000000 16.250000 0.000000 0.000000 0.000000 0.000000 0.000000 0.000000 0.000000 0.000000 0.000000 0.000000 0.000000 0.000000 0.000000 0.000000 0.000000 0.000000 0.000000 0.000000 16.250000 43.000000 56.500000 67.500000 75.500000 75.000000 70.000000 67.250000 46.750000 37.750000 29.500000 26.500000 24.500000 23.000000 20.500000 17.750000 17.250000 16.250000 15.500000 15.000000 14.250000 13.250000 13.000000 12.000000 11.250000 10.500000 9.750000 8.500000 6.750000 6.250000 5.500000 5.500000 5.500000 5.000000 5.250000 5.000000 5.000000 4.750000 5.000000 4.500000 4.750000
4.000000 4.500000 4.000000 4.250000 4.250000 4.250000 5.250000 5.000000 6.250000 7.250000 8.250000 8.500000 9.000000 9.500000 10.000000 10.500000 11.000000 11.000000 10.500000 11.250000 11.750000 12.250000 13.000000 15.500000 17.500000 19.500000 21.750000 23.500000 27.750000 33.250000 39.250000 57.250000 61.250000 61.500000 61.750000 55.500000 49.750000 42.000000 19.250000 0.000000 0.000000 0.000000 0.000000 0.000000 0.000000 0.000000 0.000000 0.000000 0.000000 0.000000 0.000000 0.000000 0.000000 0.000000 0.000000 0.000000 0.000000 0.000000 0.000000 0.000000 0.000000 24.250000 41.000000 54.500000 59.250000 60.750000 65.000000 58.250000 54.000000 40.750000 32.000000 28.000000 25.250000 20.750000 19.250000 17.500000 16.500000 14.500000 12.000000 11.250000 10.500000 10.250000 9.750000 9.000000 8.750000 8.500000 8.500000 8.500000 8.750000 8.250000 7.750000 6.750000 6.750000 5.500000 4.750000 4.750000 4.000000 4.000000 3.500000 3.500000
2.500000 3.000000 3.750000 4.500000 4.500000 4.250000 5.000000 5.250000 5.500000 6.000000 6.250000 6.750000 6.750000 7.500000 7.500000 8.000000 8.250000 8.000000 8.500000 10.250000 12.000000 13.000000 14.000000 15.250000 17.500000 20.500000 22.750000 25.250000 33.000000 41.000000 48.500000 54.750000 56.250000 50.250000 48.000000 36.500000 26.750000 5.500000 0.000000 0.000000 0.000000 0.000000 0.000000 0.000000 0.000000 0.000000 0.000000 0.000000 0.000000 0.000000 0.000000 0.000000 0.000000 0.000000 0.000000 0.000000 0.000000 0.000000 0.000000 0.000000 0.000000 0.000000 8.250000 26.250000 38.500000 44.750000 52.750000 53.000000 53.750000 43.500000 38.250000 30.500000 26.750000 23.000000 20.500000 19.000000 17.000000 14.250000 13.250000 12.500000 11.500000 10.250000 8.750000 7.750000 7.500000 7.250000 6.750000 6.750000 6.500000 6.250000 6.000000 5.500000 5.500000 5.000000 4.500000 4.500000 4.000000 3.500000 3.000000 2.500000
4.000000 4.250000 4.500000 4.750000 5.250000 5.250000 5.750000 5.750000 6.250000 6.000000 6.500000 6.500000 6.750000 7.250000 7.250000 9.000000 10.000000 10.500000 11.750000 12.000000 13.250000 15.000000 16.250000 16.000000 17.500000 22.750000 27.000000 32.500000 39.500000 49.500000 46.750000 44.250000 41.000000 37.250000 28.000000 13.250000 0.000000 0.000000 0.000000 0.000000 0.000000 0.000000 0.000000 0.000000 0.000000 0.000000 0.000000 0.000000 0.000000 0.000000 0.000000 0.000000 0.000000 0.000000 0.000000 0.000000 0.000000 0.000000 0.000000 0.000000 0.000000 0.000000 0.000000 0.000000 13.500000 22.500000 37.500000 44.000000 45.500000 45.000000 46.500000 43.750000 31.500000 27.250000 24.250000 21.250000 17.750000 15.000000 13.750000 13.500000 12.750000 11.500000 10.500000 10.250000 9.250000 9.000000 7.750000 6.750000 6.750000 6.500000 6.500000 6.250000 6.000000 6.000000 5.750000 5.500000 5.250000 4.750000 5.000000 4.500000
4.750000 5.250000 5.500000 5.500000 6.000000 5.750000 5.750000 6.250000 6.250000 6.000000 6.250000 7.750000 8.500000 9.000000 9.000000 9.500000 9.000000 10.250000 11.500000 13.000000 13.750000 15.000000 18.750000 21.750000 24.250000 27.250000 34.750000 42.000000 39.250000 41.000000 40.250000 36.500000 25.500000 16.500000 1.750000 0.000000 0.000000 0.000000 0.000000 0.000000 0.000000 0.000000 0.000000 0.000000 0.000000 0.000000 0.000000 0.000000 0.000000 0.000000 0.000000 0.000000 0.000000 0.000000 0.000000 0.000000 0.000000 0.000000 0.000000 0.000000 0.000000 0.000000 0.000000 0.000000 0.000000 2.750000 15.750000 23.750000 34.000000 41.250000 43.500000 44.000000 43.750000 33.500000 25.000000 21.500000 20.750000 19.250000 17.750000 15.000000 12.500000 12.000000 11.000000 10.500000 9.250000 8.000000 7.750000 8.250000 7.750000 7.500000 7.000000 5.500000 5.750000 5.750000 5.500000 5.500000 5.250000 5.500000 5.250000 5.250000
5.000000 5.000000 5.250000 5.250000 5.250000 5.250000 5.250000 6.250000 6.750000 6.750000 6.250000 6.500000 7.000000 8.500000 9.500000 10.750000 11.250000 11.750000 12.250000 15.500000 17.000000 18.000000 18.250000 20.250000 26.750000 40.250000 39.500000 38.750000 37.750000 33.250000 24.000000 18.000000 5.750000 0.000000 0.000000 0.000000 0.000000 0.000000 0.000000 0.000000 0.000000 0.000000 0.000000 0.000000 0.000000 0.000000 0.000000 0.000000 0.000000 0.000000 0.000000 0.000000 0.000000 0.000000 0.000000 0.000000 0.000000 0.000000 0.000000 0.000000 0.000000 0.000000 0.000000 0.000000 0.000000 0.000000 0.000000 6.000000 17.000000 24.000000 28.750000 36.500000 37.250000 35.500000 33.500000 24.250000 21.000000 17.250000 15.750000 15.000000 13.750000 13.250000 12.500000 10.750000 10.500000 9.750000 9.500000 9.000000 7.750000 7.250000 6.000000 5.750000 5.250000 5.500000 5.750000 4.500000 4.750000 4.750000 5.000000 4.750000
4.250000 4.000000 4.500000 4.750000 4.250000 4.750000 5.250000 5.500000 5.750000 7.250000 8.000000 8.750000 8.750000 9.250000 9.500000 10.250000 11.500000 12.500000 14.000000 14.750000 15.750000 16.500000 20.500000 29.000000 32.000000 33.000000 33.250000 27.750000 24.750000 19.250000 7.500000 0.000000 0.000000 0.000000 0.000000 0.000000 0.000000 0.000000 0.000000 0.000000 0.000000 0.000000 0.000000 0.000000 0.000000 0.000000 0.000000 0.000000 0.000000 0.000000 0.000000 0.000000 0.000000 0.000000 0.000000 0.000000 0.000000 0.000000 0.000000 0.000000 0.000000 0.000000 0.000000 0.000000 0.000000 0.000000 0.000000 0.000000 0.000000 7.750000 17.250000 24.250000 28.750000 31.250000 33.000000 32.250000 31.750000 23.250000 18.250000 14.750000 11.500000 12.750000 12.000000 11.750000 11.000000 9.750000 7.500000 7.250000 7.250000 7.500000 7.250000 7.250000 6.750000 6.000000 5.000000 5.000000 4.500000 4.250000 3.750000 3.250000
4.250000 4.500000 4.500000 4.750000 5.000000 6.000000 6.750000 7.000000 7.250000 7.000000 6.750000 7.250000 8.250000 10.000000 10.750000 11.250000 11.750000 10.500000 11.500000 15.500000 18.750000 25.250000 29.500000 29.750000 27.250000 28.000000 25.000000 19.500000 9.000000 4.250000 0.000000 0.000000 0.000000 0.000000 0.000000 0.000000 0.000000 0.000000 0.000000 0.000000 0.000000 0.000000 0.000000 0.000000 0.000000 0.000000 0.000000 0.000000 0.000000 0.000000 0.000000 0.000000 0.000000 0.000000 0.000000 0.000000 0.000000 0.000000 0.000000 0.000000 0.000000 0.000000 0.000000 0.000000 0.000000 0.000000 0.000000 0.000000 0.000000 0.000000 3.250000 8.750000 16.750000 23.750000 28.000000 31.000000 28.500000 28.750000 29.750000 21.750000 16.750000 14.750000 12.250000 9.750000 9.250000 9.500000 10.000000 9.750000 8.750000 7.000000 6.750000 6.250000 6.000000 6.000000 5.500000 4.750000 5.250000 4.750000 4.000000 4.000000
4.000000 5.000000 5.000000 5.000000 5.250000 5.750000 6.000000 6.500000 6.500000 7.500000 8.750000 9.500000 9.750000 8.500000 9.250000 10.000000 12.000000 15.000000 17.500000 23.000000 27.750000 24.500000 26.750000 27.750000 24.750000 19.750000 9.750000 6.250000 0.000000 0.000000 0.000000 0.000000 0.000000 0.000000 0.000000 0.000000 0.000000 0.000000 0.000000 0.000000 0.000000 0.000000 0.000000 0.000000 0.000000 0.000000 0.000000 0.000000 0.000000 0.000000 0.000000 0.000000 0.000000 0.000000 0.000000 0.000000 0.000000 0.000000 0.000000 0.000000 0.000000 0.000000 0.000000 0.000000 0.000000 0.000000 0.000000 0.000000 0.000000 0.000000 0.000000 0.000000 5.500000 12.000000 15.500000 22.500000 27.250000 30.500000 27.500000 26.000000 20.750000 19.250000 16.000000 13.750000 12.250000 9.750000 8.750000 8.500000 7.750000 7.250000 8.000000 7.750000 6.250000 5.750000 5.750000 5.750000 5.500000 5.000000 5.000000 4.750000
4.750000 5.000000 5.250000 5.500000 5.750000 5.750000 6.500000 7.250000 7.000000 7.250000 7.500000 8.500000 9.000000 9.250000 12.250000 13.750000 15.250000 19.500000 23.500000 24.250000 25.750000 27.500000 24.500000 19.500000 10.250000 7.500000 0.000000 0.000000 0.000000 0.000000 0.000000 0.000000 0.000000 0.000000 0.000000 0.000000 0.000000 0.000000 0.000000 0.000000 0.000000 0.000000 0.000000 0.000000 0.000000 0.000000 0.000000 0.000000 0.000000 0.000000 0.000000 0.000000 0.000000 0.000000 0.000000 0.000000 0.000000 0.000000 0.000000 0.000000 0.000000 0.000000 0.000000 0.000000 0.000000 0.000000 0.000000 0.000000 0.000000 0.000000 0.000000 0.000000 0.000000 0.000000 10.000000 14.000000 12.500000 21.000000 25.500000 28.750000 26.000000 22.250000 18.000000 15.750000 14.250000 12.000000 11.500000 10.500000 8.250000 7.750000 7.500000 7.000000 6.750000 6.000000 6.250000 5.750000 5.000000 5.250000 5.250000 5.000000
5.000000 5.250000 5.000000 5.750000 5.250000 6.000000 6.750000 7.250000 7.500000 7.750000 8.250000 9.750000 11.500000 12.250000 14.000000 15.750000 20.250000 23.750000 24.500000 26.750000 23.500000 18.750000 11.000000 8.500000 4.000000 0.000000 0.000000 0.000000 0.000000 0.000000 0.000000 0.000000 0.000000 0.000000 0.000000 0.000000 0.000000 0.000000 0.000000 0.000000 0.000000 0.000000 0.000000 0.000000 0.000000 0.000000 0.000000 0.000000 0.000000 0.000000 0.000000 0.000000 0.000000 0.000000 0.000000 0.000000 0.000000 0.000000 0.000000 0.000000 0.000000 0.000000 0.000000 0.000000 0.000000 0.000000 0.000000 0.000000 0.000000 0.000000 0.000000 0.000000 0.000000 0.000000 0.000000 2.250000 12.250000 15.250000 14.000000 18.750000 23.000000 24.500000 17.750000 16.000000 15.500000 14.000000 12.250000 8.750000 9.750000 9.500000 8.250000 7.250000 7.250000 6.750000 6.500000 5.750000 5.750000 5.250000 4.500000 4.000000
3.750000 4.750000 5.750000 6.250000 6.750000 7.000000 7.000000 7.250000 7.250000 9.500000 10.000000 8.750000 12.000000 14.750000 16.750000 20.500000 22.250000 25.000000 21.750000 17.500000 11.500000 9.000000 5.500000 0.000000 0.000000 0.000000 0.000000 0.000000 0.000000 0.000000 0.000000 0.000000 0.000000 0.000000 0.000000 0.000000 0.000000 0.000000 0.000000 0.000000 0.000000 0.000000 0.000000 0.000000 0.000000 0.000000 0.000000 0.000000 0.000000 0.000000 0.000000 0.000000 0.000000 0.000000 0.000000 0.000000 0.000000 0.000000 0.000000 0.000000 0.000000 0.000000 0.000000 0.000000 0.000000 0.000000 0.000000 0.000000 0.000000 0.000000 0.000000 0.000000 0.000000 0.000000 0.000000 0.000000 0.000000 6.500000 13.500000 15.750000 14.750000 17.000000 21.250000 22.750000 15.250000 13.000000 11.250000 12.000000 11.500000 10.000000 7.500000 7.750000 7.750000 7.250000 6.250000 6.500000 6.500000 5.750000 5.500000 5.000000
5.750000 6.000000 6.250000 6.500000 6.750000 6.500000 7.500000 8.000000 7.750000 8.500000 11.250000 12.750000 13.250000 13.750000 16.250000 22.000000 20.500000 15.750000 11.750000 9.750000 6.750000 0.000000 0.000000 0.000000 0.000000 0.000000 0.000000 0.000000 0.000000 0.000000 0.000000 0.000000 0.000000 0.000000 0.000000 0.000000 0.000000 0.000000 0.000000 0.000000 0.000000 0.000000 0.000000 0.000000 0.000000 0.000000 0.000000 0.000000 0.000000 0.000000 0.000000 0.000000 0.000000 0.000000 0.000000 0.000000 0.000000 0.000000 0.000000 0.000000 0.000000 0.000000 0.000000 0.000000 0.000000 0.000000 0.000000 0.000000 0.000000 0.000000 0.000000 0.000000 0.000000 0.000000 0.000000 0.000000 0.000000 0.000000 2.750000 9.500000 14.500000 16.000000 15.000000 14.500000 19.750000 21.750000 13.500000 11.750000 10.500000 9.500000 9.750000 9.250000 7.000000 7.000000 6.250000 6.250000 5.250000 5.500000 5.500000 5.750000
5.750000 5.750000 5.750000 6.000000 6.000000 6.500000 7.250000 8.750000 10.250000 9.250000 11.000000 12.500000 14.000000 20.750000 19.500000 13.500000 12.000000 10.250000 7.250000 1.750000 0.000000 0.000000 0.000000 0.000000 0.000000 0.000000 0.000000 0.000000 0.000000 0.000000 0.000000 0.000000 0.000000 0.000000 0.000000 0.000000 0.000000 0.000000 0.000000 0.000000 0.000000 0.000000 0.000000 0.000000 0.000000 0.000000 0.000000 0.000000 0.000000 0.000000 0.000000 0.000000 0.000000 0.000000 0.000000 0.000000 0.000000 0.000000 0.000000 0.000000 0.000000 0.000000 0.000000 0.000000 0.000000 0.000000 0.000000 0.000000 0.000000 0.000000 0.000000 0.000000 0.000000 0.000000 0.000000 0.000000 0.000000 0.000000 0.000000 0.000000 4.500000 11.000000 15.250000 16.000000 15.250000 14.750000 18.500000 20.500000 12.000000 11.000000 10.250000 9.250000 8.000000 6.750000 7.500000 5.750000 6.000000 5.500000 4.750000 4.000000
4.000000 5.000000 5.750000 6.000000 6.250000 8.000000 7.750000 9.000000 10.000000 11.500000 12.750000 20.000000 18.000000 13.750000 12.250000 10.500000 9.250000 5.500000 0.000000 0.000000 0.000000 0.000000 0.000000 0.000000 0.000000 0.000000 0.000000 0.000000 0.000000 0.000000 0.000000 0.000000 0.000000 0.000000 0.000000 0.000000 0.000000 0.000000 0.000000 0.000000 0.000000 0.000000 0.000000 0.000000 0.000000 0.000000 0.000000 0.000000 0.000000 0.000000 0.000000 0.000000 0.000000 0.000000 0.000000 0.000000 0.000000 0.000000 0.000000 0.000000 0.000000 0.000000 0.000000 0.000000 0.000000 0.000000 0.000000 0.000000 0.000000 0.000000 0.000000 0.000000 0.000000 0.000000 0.000000 0.000000 0.000000 0.000000 0.000000 0.000000 0.000000 2.250000 5.500000 12.250000 15.250000 16.250000 15.000000 14.750000 15.750000 19.750000 11.750000 10.250000 9.250000 8.750000 8.000000 7.250000 5.500000 5.000000 5.250000 5.250000
5.500000 5.500000 5.250000 6.000000 7.500000 8.750000 9.750000 10.750000 11.250000 19.000000 16.750000 13.750000 12.500000 10.750000 10.500000 7.750000 0.000000 0.000000 0.000000 0.000000 0.000000 0.000000 0.000000 0.000000 0.000000 0.000000 0.000000 0.000000 0.000000 0.000000 0.000000 0.000000 0.000000 0.000000 0.000000 0.000000 0.000000 0.000000 0.000000 0.000000 0.000000 0.000000 0.000000 0.000000 0.000000 0.000000 0.000000 0.000000 0.000000 0.000000 0.000000 0.000000 0.000000 0.000000 0.000000 0.000000 0.000000 0.000000 0.000000 0.000000 0.000000 0.000000 0.000000 0.000000 0.000000 0.000000 0.000000 0.000000 0.000000 0.000000 0.000000 0.000000 0.000000 0.000000 0.000000 0.000000 0.000000 0.000000 0.000000 0.000000 0.000000 0.000000 0.000000 4.250000 6.500000 13.000000 15.250000 16.000000 15.250000 14.750000 15.750000 14.500000 10.750000 9.500000 9.000000 8.500000 7.500000 7.000000 6.000000 4.500000
5.000000 6.250000 7.750000 8.250000 9.250000 9.750000 10.250000 15.250000 14.750000 13.750000 12.500000 11.000000 10.750000 9.250000 2.750000 0.000000 0.000000 0.000000 0.000000 0.000000 0.000000 0.000000 0.000000 0.000000 0.000000 0.000000 0.000000 0.000000 0.000000 0.000000 0.000000 0.000000 0.000000 0.000000 0.000000 0.000000 0.000000 0.000000 0.000000 0.000000 0.000000 0.000000 0.000000 0.000000 0.000000 0.000000 0.000000 0.000000 0.000000 0.000000 0.000000 0.000000 0.000000 0.000000 0.000000 0.000000 0.000000 0.000000 0.000000 0.000000 0.000000 0.000000 0.000000 0.000000 0.000000 0.000000 0.000000 0.000000 0.000000 0.000000 0.000000 0.000000 0.000000 0.000000 0.000000 0.000000 0.000000 0.000000 0.000000 0.000000 0.000000 0.000000 0.000000 0.000000 1.250000 5.500000 7.000000 13.250000 15.500000 15.750000 15.000000 15.000000 16.000000 11.500000 9.750000 8.250000 8.250000 7.750000 7.750000 7.000000
7.500000 8.000000 8.500000 9.000000 9.250000 12.500000 14.750000 14.000000 13.000000 11.250000 11.250000 10.000000 3.750000 1.250000 0.000000 0.000000 0.000000 0.000000 0.000000 0.000000 0.000000 0.000000 0.000000 0.000000 0.000000 0.000000 0.000000 0.000000 0.000000 0.000000 0.000000 0.000000 0.000000 0.000000 0.000000 0.000000 0.000000 0.000000 0.000000 0.000000 0.000000 0.000000 0.000000 0.000000 0.000000 0.000000 0.000000 0.000000 0.000000 0.000000 0.000000 0.000000 0.000000 0.000000 0.000000 0.000000 0.000000 0.000000 0.000000 0.000000 0.000000 0.000000 0.000000 0.000000 0.000000 0.000000 0.000000 0.000000 0.000000 0.000000 0.000000 0.000000 0.000000 0.000000 0.000000 0.000000 0.000000 0.000000 0.000000 0.000000 0.000000 0.000000 0.000000 0.000000 0.000000 0.000000 3.750000 6.500000 7.500000 13.500000 15.000000 15.250000 14.750000 14.750000 15.750000 10.250000 8.250000 7.250000 7.750000 7.500000
8.250000 8.250000 8.250000 10.000000 15.000000 14.000000 13.000000 11.250000 11.250000 10.250000 6.000000 3.250000 0.000000 0.000000 0.000000 0.000000 0.000000 0.000000 0.000000 0.000000 0.000000 0.000000 0.000000 0.000000 0.000000 0.000000 0.000000 0.000000 0.000000 0.000000 0.000000 0.000000 0.000000 0.000000 0.000000 0.000000 0.000000 0.000000 0.000000 0.000000 0.000000 0.000000 0.000000 0.000000 0.000000 0.000000 0.000000 0.000000 0.000000 0.000000 0.000000 0.000000 0.000000 0.000000 0.000000 0.000000 0.000000 0.000000 0.000000 0.000000 0.000000 0.000000 0.000000 0.000000 0.000000 0.000000 0.000000 0.000000 0.000000 0.000000 0.000000 0.000000 0.000000 0.000000 0.000000 0.000000 0.000000 0.000000 0.000000 0.000000 0.000000 0.000000 0.000000 0.000000 0.000000 0.000000 0.000000 0.000000 5.000000 6.750000 7.750000 13.500000 14.250000 15.000000 14.750000 14.750000 12.500000 9.250000 6.750000 6.250000
7.000000 8.250000 15.000000 14.250000 12.750000 11.500000 11.250000 10.500000 7.500000 4.250000 1.500000 0.000000 0.000000 0.000000 0.000000 0.000000 0.000000 0.000000 0.000000 0.000000 0.000000 0.000000 0.000000 0.000000 0.000000 0.000000 0.000000 0.000000 0.000000 0.000000 0.000000 0.000000 0.000000 0.000000 0.000000 0.000000 0.000000 0.000000 0.000000 0.000000 0.000000 0.000000 0.000000 0.000000 0.000000 0.000000 0.000000 0.000000 0.000000 0.000000 0.000000 0.000000 0.000000 0.000000 0.000000 0.000000 0.000000 0.000000 0.000000 0.000000 0.000000 0.000000 0.000000 0.000000 0.000000 0.000000 0.000000 0.000000 0.000000 0.000000 0.000000 0.000000 0.000000 0.000000 0.000000 0.000000 0.000000 0.000000 0.000000 0.000000 0.000000 0.000000 0.000000 0.000000 0.000000 0.000000 0.000000 0.000000 0.000000 3.000000 6.000000 7.500000 9.000000 12.750000 13.500000 14.250000 14.250000 14.500000 10.750000 8.500000
12.250000 14.250000 13.000000 11.500000 11.000000 10.750000 8.500000 4.750000 3.500000 0.000000 0.000000 0.000000 0.000000 0.000000 0.000000 0.000000 0.000000 0.000000 0.000000 0.000000 0.000000 0.000000 0.000000 0.000000 0.000000 0.000000 0.000000 0.000000 0.000000 0.000000 0.000000 0.000000 0.000000 0.000000 0.000000 0.000000 0.000000 0.000000 0.000000 0.000000 0.000000 0.000000 0.000000 0.000000 0.000000 0.000000 0.000000 0.000000 0.000000 0.000000 0.000000 0.000000 0.000000 0.000000 0.000000 0.000000 0.000000 0.000000 0.000000 0.000000 0.000000 0.000000 0.000000 0.000000 0.000000 0.000000 0.000000 0.000000 0.000000 0.000000 0.000000 0.000000 0.000000 0.000000 0.000000 0.000000 0.000000 0.000000 0.000000 0.000000 0.000000 0.000000 0.000000 0.000000 0.000000 0.000000 0.000000 0.000000 0.000000 0.000000 0.000000 4.500000 6.750000 8.000000 9.500000 12.250000 12.500000 13.000000 13.750000 11.000000
13.000000 11.750000 10.500000 10.500000 9.250000 5.000000 4.250000 1.250000 0.000000 0.000000 0.000000 0.000000 0.000000 0.000000 0.000000 0.000000 0.000000 0.000000 0.000000 0.000000 0.000000 0.000000 0.000000 0.000000 0.000000 0.000000 0.000000 0.000000 0.000000 0.000000 0.000000 0.000000 0.000000 0.000000 0.000000 0.000000 0.000000 0.000000 0.000000 0.000000 0.000000 0.000000 0.000000 0.000000 0.000000 0.000000 0.000000 0.000000 0.000000 0.000000 0.000000 0.000000 0.000000 0.000000 0.000000 0.000000 0.000000 0.000000 0.000000 0.000000 0.000000 0.000000 0.000000 0.000000 0.000000 0.000000 0.000000 0.000000 0.000000 0.000000 0.000000 0.000000 0.000000 0.000000 0.000000 0.000000 0.000000 0.000000 0.000000 0.000000 0.000000 0.000000 0.000000 0.000000 0.000000 0.000000 0.000000 0.000000 0.000000 0.000000 0.000000 0.000000 1.500000 5.500000 7.250000 8.250000 9.750000 11.500000 11.750000 11.250000
10.000000 10.500000 9.250000 5.250000 5.000000 3.250000 0.000000 0.000000 0.000000 0.000000 0.000000 0.000000 0.000000 0.000000 0.000000 0.000000 0.000000 0.000000 0.000000 0.000000 0.000000 0.000000 0.000000 0.000000 0.000000 0.000000 0.000000 0.000000 0.000000 0.000000 0.000000 0.000000 0.000000 0.000000 0.000000 0.000000 0.000000 0.000000 0.000000 0.000000 0.000000 0.000000 0.000000 0.000000 0.000000 0.000000 0.000000 0.000000 0.000000 0.000000 0.000000 0.000000 0.000000 0.000000 0.000000 0.000000 0.000000 0.000000 0.000000 0.000000 0.000000 0.000000 0.000000 0.000000 0.000000 0.000000 0.000000 0.000000 0.000000 0.000000 0.000000 0.000000 0.000000 0.000000 0.000000 0.000000 0.000000 0.000000 0.000000 0.000000 0.000000 0.000000 0.000000 0.000000 0.000000 0.000000 0.000000 0.000000 0.000000 0.000000 0.000000 0.000000 0.000000 0.000000 3.750000 6.250000 7.500000 8.500000 9.500000 10.750000
9.000000 5.250000 5.250000 4.250000 0.000000 0.000000 0.000000 0.000000 0.000000 0.000000 0.000000 0.000000 0.000000 0.000000 0.000000 0.000000 0.000000 0.000000 0.000000 0.000000 0.000000 0.000000 0.000000 0.000000 0.000000 0.000000 0.000000 0.000000 0.000000 0.000000 0.000000 0.000000 0.000000 0.000000 0.000000 0.000000 0.000000 0.000000 0.000000 0.000000 0.000000 0.000000 0.000000 0.000000 0.000000 0.000000 0.000000 0.000000 0.000000 0.000000 0.000000 0.000000 0.000000 0.000000 0.000000 0.000000 0.000000 0.000000 0.000000 0.000000 0.000000 0.000000 0.000000 0.000000 0.000000 0.000000 0.000000 0.000000 0.000000 0.000000 0.000000 0.000000 0.000000 0.000000 0.000000 0.000000 0.000000 0.000000 0.000000 0.000000 0.000000 0.000000 0.000000 0.000000 0.000000 0.000000 0.000000 0.000000 0.000000 0.000000 0.000000 0.000000 0.000000 0.000000 0.000000 0.000000 4.750000 7.000000 8.000000 8.250000
5.500000 5.000000 2.750000 0.000000 0.000000 0.000000 0.000000 0.000000 0.000000 0.000000 0.000000 0.000000 0.000000 0.000000 0.000000 0.000000 0.000000 0.000000 0.000000 0.000000 0.000000 0.000000 0.000000 0.000000 0.000000 0.000000 0.000000 0.000000 0.000000 0.000000 0.000000 0.000000 0.000000 0.000000 0.000000 0.000000 0.000000 0.000000 0.000000 0.000000 0.000000 0.000000 0.000000 0.000000 0.000000 0.000000 0.000000 0.000000 0.000000 0.000000 0.000000 0.000000 0.000000 0.000000 0.000000 0.000000 0.000000 0.000000 0.000000 0.000000 0.000000 0.000000 0.000000 0.000000 0.000000 0.000000 0.000000 0.000000 0.000000 0.000000 0.000000 0.000000 0.000000 0.000000 0.000000 0.000000 0.000000 0.000000 0.000000 0.000000 0.000000 0.000000 0.000000 0.000000 0.000000 0.000000 0.000000 0.000000 0.000000 0.000000 0.000000 0.000000 0.000000 0.000000 0.000000 0.000000 0.000000 2.750000 5.750000 7.500000
4.000000 0.000000 0.000000 0.000000 0.000000 0.000000 0.000000 0.000000 0.000000 0.000000 0.000000 0.000000 0.000000 0.000000 0.000000 0.000000 0.000000 0.000000 0.000000 0.000000 0.000000 0.000000 0.000000 0.000000 0.000000 0.000000 0.000000 0.000000 0.000000 0.000000 0.000000 0.000000 0.000000 0.000000 0.000000 0.000000 0.000000 0.000000 0.000000 0.000000 0.000000 0.000000 0.000000 0.000000 0.000000 0.000000 0.000000 0.000000 0.000000 0.000000 0.000000 0.000000 0.000000 0.000000 0.000000 0.000000 0.000000 0.000000 0.000000 0.000000 0.000000 0.000000 0.000000 0.000000 0.000000 0.000000 0.000000 0.000000 0.000000 0.000000 0.000000 0.000000 0.000000 0.000000 0.000000 0.000000 0.000000 0.000000 0.000000 0.000000 0.000000 0.000000 0.000000 0.000000 0.000000 0.000000 0.000000 0.000000 0.000000 0.000000 0.000000 0.000000 0.000000 0.000000 0.000000 0.000000 0.000000 0.000000 0.000000 4.250000
0.000000 0.000000 0.000000 0.000000 0.000000 0.000000 0.000000 0.000000 0.000000 0.000000 0.000000 0.000000 0.000000 0.000000 0.000000 0.000000 0.000000 0.000000 0.000000 0.000000 0.000000 0.000000 0.000000 0.000000 0.000000 0.000000 0.000000 0.000000 0.000000 0.000000 0.000000 0.000000 0.000000 0.000000 0.000000 0.000000 0.000000 0.000000 0.000000 0.000000 0.000000 0.000000 0.000000 0.000000 0.000000 0.000000 0.000000 0.000000 0.000000 0.000000 0.000000 0.000000 0.000000 0.000000 0.000000 0.000000 0.000000 0.000000 0.000000 0.000000 0.000000 0.000000 0.000000 0.000000 0.000000 0.000000 0.000000 0.000000 0.000000 0.000000 0.000000 0.000000 0.000000 0.000000 0.000000 0.000000 0.000000 0.000000 0.000000 0.000000 0.000000 0.000000 0.000000 0.000000 0.000000 0.000000 0.000000 0.000000 0.000000 0.000000 0.000000 0.000000 0.000000 0.000000 0.000000 0.000000 0.000000 0.000000 0.000000 0.000000
0.000000 0.000000 0.000000 0.000000 0.000000 0.000000 0.000000 0.000000 0.000000 0.000000 0.000000 0.000000 0.000000 0.000000 0.000000 0.000000 0.000000 0.000000 0.000000 0.000000 0.000000 0.000000 0.000000 0.000000 0.000000 0.000000 0.000000 0.000000 0.000000 0.000000 0.000000 0.000000 0.000000 0.000000 0.000000 0.000000 0.000000 0.000000 0.000000 0.000000 0.000000 0.000000 0.000000 0.000000 0.000000 0.000000 0.000000 0.000000 0.000000 0.000000 0.000000 0.000000 0.000000 0.000000 0.000000 0.000000 0.000000 0.000000 0.000000 0.000000 0.000000 0.000000 0.000000 0.000000 0.000000 0.000000 0.000000 0.000000 0.000000 0.000000 0.000000 0.000000 0.000000 0.000000 0.000000 0.000000 0.000000 0.000000 0.000000 0.000000 0.000000 0.000000 0.000000 0.000000 0.000000 0.000000 0.000000 0.000000 0.000000 0.000000 0.000000 0.000000 0.000000 0.000000 0.000000 0.000000 0.000000 0.000000 0.000000 0.000000
0.000000 0.000000 0.000000 0.000000 0.000000 0.000000 0.000000 0.000000 0.000000 0.000000 0.000000 0.000000 0.000000 0.000000 0.000000 0.000000 0.000000 0.000000 0.000000 0.000000 0.000000 0.000000 0.000000 0.000000 0.000000 0.000000 0.000000 0.000000 0.000000 0.000000 0.000000 0.000000 0.000000 0.000000 0.000000 0.000000 0.000000 0.000000 0.000000 0.000000 0.000000 0.000000 0.000000 0.000000 0.000000 0.000000 0.000000 0.000000 0.000000 0.000000 0.000000 0.000000 0.000000 0.000000 0.000000 0.000000 0.000000 0.000000 0.000000 0.000000 0.000000 0.000000 0.000000 0.000000 0.000000 0.000000 0.000000 0.000000 0.000000 0.000000 0.000000 0.000000 0.000000 0.000000 0.000000 0.000000 0.000000 0.000000 0.000000 0.000000 0.000000 0.000000 0.000000 0.000000 0.000000 0.000000 0.000000 0.000000 0.000000 0.000000 0.000000 0.000000 0.000000 0.000000 0.000000 0.000000 0.000000 0.000000 0.000000 0.000000
0.000000 0.000000 0.000000 0.000000 0.000000 0.000000 0.000000 0.000000 0.000000 0.000000 0.000000 0.000000 0.000000 0.000000 0.000000 0.000000 0.000000 0.000000 0.000000 0.000000 0.000000 0.000000 0.000000 0.000000 0.000000 0.000000 0.000000 0.000000 0.000000 0.000000 0.000000 0.000000 0.000000 0.000000 0.000000 0.000000 0.000000 0.000000 0.000000 0.000000 0.000000 0.000000 0.000000 0.000000 0.000000 0.000000 0.000000 0.000000 0.000000 0.000000 0.000000 0.000000 0.000000 0.000000 0.000000 0.000000 0.000000 0.000000 0.000000 0.000000 0.000000 0.000000 0.000000 0.000000 0.000000 0.000000 0.000000 0.000000 0.000000 0.000000 0.000000 0.000000 0.000000 0.000000 0.000000 0.000000 0.000000 0.000000 0.000000 0.000000 0.000000 0.000000 0.000000 0.000000 0.000000 0.000000 0.000000 0.000000 0.000000 0.000000 0.000000 0.000000 0.000000 0.000000 0.000000 0.000000 0.000000 0.000000 0.000000 0.000000
0.000000 0.000000 0.000000 0.000000 0.000000 0.000000 0.000000 0.000000 0.000000 0.000000 0.000000 0.000000 0.000000 0.000000 0.000000 0.000000 0.000000 0.000000 0.000000 0.000000 0.000000 0.000000 0.000000 0.000000 0.000000 0.000000 0.000000 0.000000 0.000000 0.000000 0.000000 0.000000 0.000000 0.000000 0.000000 0.000000 0.000000 0.000000 0.000000 0.000000 0.000000 0.000000 0.000000 0.000000 0.000000 0.000000 0.000000 0.000000 0.000000 0.000000 0.000000 0.000000 0.000000 0.000000 0.000000 0.000000 0.000000 0.000000 0.000000 0.000000 0.000000 0.000000 0.000000 0.000000 0.000000 0.000000 0.000000 0.000000 0.000000 0.000000 0.000000 0.000000 0.000000 0.000000 0.000000 0.000000 0.000000 0.000000 0.000000 0.000000 0.000000 0.000000 0.000000 0.000000 0.000000 0.000000 0.000000 0.000000 0.000000 0.000000 0.000000 0.000000 0.000000 0.000000 0.000000 0.000000 0.000000 0.000000 0.000000 0.000000
0.000000 0.000000 0.000000 0.000000 0.000000 0.000000 0.000000 0.000000 0.000000 0.000000 0.000000 0.000000 0.000000 0.000000 0.000000 0.000000 0.000000 0.000000 0.000000 0.000000 0.000000 0.000000 0.000000 0.000000 0.000000 0.000000 0.000000 0.000000 0.000000 0.000000 0.000000 0.000000 0.000000 0.000000 0.000000 0.000000 0.000000 0.000000 0.000000 0.000000 0.000000 0.000000 0.000000 0.000000 0.000000 0.000000 0.000000 0.000000 0.000000 0.000000 0.000000 0.000000 0.000000 0.000000 0.000000 0.000000 0.000000 0.000000 0.000000 0.000000 0.000000 0.000000 0.000000 0.000000 0.000000 0.000000 0.000000 0.000000 0.000000 0.000000 0.000000 0.000000 0.000000 0.000000 0.000000 0.000000 0.000000 0.000000 0.000000 0.000000 0.000000 0.000000 0.000000 0.000000 0.000000 0.000000 0.000000 0.000000 0.000000 0.000000 0.000000 0.000000 0.000000 0.000000 0.000000 0.000000 0.000000 0.000000 0.000000 0.000000
0.000000 0.000000 0.000000 0.000000 0.000000 0.000000 0.000000 0.000000 0.000000 0.000000 0.000000 0.000000 0.000000 0.000000 0.000000 0.000000 0.000000 0.000000 0.000000 0.000000 0.000000 0.000000 0.000000 0.000000 0.000000 0.000000 0.000000 0.000000 0.000000 0.000000 0.000000 0.000000 0.000000 0.000000 0.000000 0.000000 0.000000 0.000000 0.000000 0.000000 0.000000 0.000000 0.000000 0.000000 0.000000 0.000000 0.000000 0.000000 0.000000 0.000000 0.000000 0.000000 0.000000 0.000000 0.000000 0.000000 0.000000 0.000000 0.000000 0.000000 0.000000 0.000000 0.000000 0.000000 0.000000 0.000000 0.000000 0.000000 0.000000 0.000000 0.000000 0.000000 0.000000 0.000000 0.000000 0.000000 0.000000 0.000000 0.000000 0.000000 0.000000 0.000000 0.000000 0.000000 0.000000 0.000000 0.000000 0.000000 0.000000 0.000000 0.000000 0.000000 0.000000 0.000000 0.000000 0.000000 0.000000 0.000000 0.000000 0.000000
0.000000 0.000000 0.000000 0.000000 0.000000 0.000000 0.000000 0.000000 0.000000 0.000000 0.000000 0.000000 0.000000 0.000000 0.000000 0.000000 0.000000 0.000000 0.000000 0.000000 0.000000 0.000000 0.000000 0.000000 0.000000 0.000000 0.000000 0.000000 0.000000 0.000000 0.000000 0.000000 0.000000 0.000000 0.000000 0.000000 0.000000 0.000000 0.000000 0.000000 0.000000 0.000000 0.000000 0.000000 0.000000 0.000000 0.000000 0.000000 0.000000 0.000000 0.000000 0.000000 0.000000 0.000000 0.000000 0.000000 0.000000 0.000000 0.000000 0.000000 0.000000 0.000000 0.000000 0.000000 0.000000 0.000000 0.000000 0.000000 0.000000 0.000000 0.000000 0.000000 0.000000 0.000000 0.000000 0.000000 0.000000 0.000000 0.000000 0.000000 0.000000 0.000000 0.000000 0.000000 0.000000 0.000000 0.000000 0.000000 0.000000 0.000000 0.000000 0.000000 0.000000 0.000000 0.000000 0.000000 0.000000 0.000000 0.000000 0.000000
0.000000 0.000000 0.000000 0.000000 0.000000 0.000000 0.000000 0.000000 0.000000 0.000000 0.000000 0.000000 0.000000 0.000000 0.000000 0.000000 0.000000 0.000000 0.000000 0.000000 0.000000 0.000000 0.000000 0.000000 0.000000 0.000000 0.000000 0.000000 0.000000 0.000000 0.000000 0.000000 0.000000 0.000000 0.000000 0.000000 0.000000 0.000000 0.000000 0.000000 0.000000 0.000000 0.000000 0.000000 0.000000 0.000000 0.000000 0.000000 0.000000 0.000000 0.000000 0.000000 0.000000 0.000000 0.000000 0.000000 0.000000 0.000000 0.000000 0.000000 0.000000 0.000000 0.000000 0.000000 0.000000 0.000000 0.000000 0.000000 0.000000 0.000000 0.000000 0.000000 0.000000 0.000000 0.000000 0.000000 0.000000 0.000000 0.000000 0.000000 0.000000 0.000000 0.000000 0.000000 0.000000 0.000000 0.000000 0.000000 0.000000 0.000000 0.000000 0.000000 0.000000 0.000000 0.000000 0.000000 0.000000 0.000000 0.000000 0.000000
0.000000 0.000000 0.000000 0.000000 0.000000 0.000000 0.000000 0.000000 0.000000 0.000000 0.000000 0.000000 0.000000 0.000000 0.000000 0.000000 0.000000 0.000000 0.000000 0.000000 0.000000 0.000000 0.000000 0.000000 0.000000 0.000000 0.000000 0.000000 0.000000 0.000000 0.000000 0.000000 0.000000 0.000000 0.000000 0.000000 0.000000 0.000000 0.000000 0.000000 0.000000 0.000000 0.000000 0.000000 0.000000 0.000000 0.000000 0.000000 0.000000 0.000000 0.000000 0.000000 0.000000 0.000000 0.000000 0.000000 0.000000 0.000000 0.000000 0.000000 0.000000 0.000000 0.000000 0.000000 0.000000 0.000000 0.000000 0.000000 0.000000 0.000000 0.000000 0.000000 0.000000 0.000000 0.000000 0.000000 0.000000 0.000000 0.000000 0.000000 0.000000 0.000000 0.000000 0.000000 0.000000 0.000000 0.000000 0.000000 0.000000 0.000000 0.000000 0.000000 0.000000 0.000000 0.000000 0.000000 0.000000 0.000000 0.000000 0.000000
0.000000 0.000000 0.000000 0.000000 0.000000 0.000000 0.000000 0.000000 0.000000 0.000000 0.000000 0.000000 0.000000 0.000000 0.000000 0.000000 0.000000 0.000000 0.000000 0.000000 0.000000 0.000000 0.000000 0.000000 0.000000 0.000000 0.000000 0.000000 0.000000 0.000000 0.000000 0.000000 0.000000 0.000000 0.000000 0.000000 0.000000 0.000000 0.000000 0.000000 0.000000 0.000000 0.000000 0.000000 0.000000 0.000000 0.000000 0.000000 0.000000 0.000000 0.000000 0.000000 0.000000 0.000000 0.000000 0.000000 0.000000 0.000000 0.000000 0.000000 0.000000 0.000000 0.000000 0.000000 0.000000 0.000000 0.000000 0.000000 0.000000 0.000000 0.000000 0.000000 0.000000 0.000000 0.000000 0.000000 0.000000 0.000000 0.000000 0.000000 0.000000 0.000000 0.000000 0.000000 0.000000 0.000000 0.000000 0.000000 0.000000 0.000000 0.000000 0.000000 0.000000 0.000000 0.000000 0.000000 0.000000 0.000000 0.000000 0.000000
0.000000 0.000000 0.000000 0.000000 0.000000 0.000000 0.000000 0.000000 0.000000 0.000000 0.000000 0.000000 0.000000 0.000000 0.000000 0.000000 0.000000 0.000000 0.000000 0.000000 0.000000 0.000000 0.000000 0.000000 0.000000 0.000000 0.000000 0.000000 0.000000 0.000000 0.000000 0.000000 0.000000 0.000000 0.000000 0.000000 0.000000 0.000000 0.000000 0.000000 0.000000 0.000000 0.000000 0.000000 0.000000 0.000000 0.000000 0.000000 0.000000 0.000000 0.000000 0.000000 0.000000 0.000000 0.000000 0.000000 0.000000 0.000000 0.000000 0.000000 0.000000 0.000000 0.000000 0.000000 0.000000 0.000000 0.000000 0.000000 0.000000 0.000000 0.000000 0.000000 0.000000 0.000000 0.000000 0.000000 0.000000 0.000000 0.000000 0.000000 0.000000 0.000000 0.000000 0.000000 0.000000 0.000000 0.000000 0.000000 0.000000 0.000000 0.000000 0.000000 0.000000 0.000000 0.000000 0.000000 0.000000 0.000000 0.000000 0.000000
0.000000 0.000000 0.000000 0.000000 0.000000 0.000000 0.000000 0.000000 0.000000 0.000000 0.000000 0.000000 0.000000 0.000000 0.000000 0.000000 0.000000 0.000000 0.000000 0.000000 0.000000 0.000000 0.000000 0.000000 0.000000 0.000000 0.000000 0.000000 0.000000 0.000000 0.000000 0.000000 0.000000 0.000000 0.000000 0.000000 0.000000 0.000000 0.000000 0.000000 0.000000 0.000000 0.000000 0.000000 0.000000 0.000000 0.000000 0.000000 0.000000 0.000000 0.000000 0.000000 0.000000 0.000000 0.000000 0.000000 0.000000 0.000000 0.000000 0.000000 0.000000 0.000000 0.000000 0.000000 0.000000 0.000000 0.000000 0.000000 0.000000 0.000000 0.000000 0.000000 0.000000 0.000000 0.000000 0.000000 0.000000 0.000000 0.000000 0.000000 0.000000 0.000000 0.000000 0.000000 0.000000 0.000000 0.000000 0.000000 0.000000 0.000000 0.000000 0.000000 0.000000 0.000000 0.000000 0.000000 0.000000 0.000000 0.000000 0.000000
0.000000 0.000000 0.000000 0.000000 0.000000 0.000000 0.000000 0.000000 0.000000 0.000000 0.000000 0.000000 0.000000 0.000000 0.000000 0.000000 0.000000 0.000000 0.000000 0.000000 0.000000 0.000000 0.000000 0.000000 0.000000 0.000000 0.000000 0.000000 0.000000 0.000000 0.000000 0.000000 0.000000 0.000000 0.000000 0.000000 0.000000 0.000000 0.000000 0.000000 0.000000 0.000000 0.000000 0.000000 0.000000 0.000000 0.000000 0.000000 0.000000 0.000000 0.000000 0.000000 0.000000 0.000000 0.000000 0.000000 0.000000 0.000000 0.000000 0.000000 0.000000 0.000000 0.000000 0.000000 0.000000 0.000000 0.000000 0.000000 0.000000 0.000000 0.000000 0.000000 0.000000 0.000000 0.000000 0.000000 0.000000 0.000000 0.000000 0.000000 0.000000 0.000000 0.000000 0.000000 0.000000 0.000000 0.000000 0.000000 0.000000 0.000000 0.000000 0.000000 0.000000 0.000000 0.000000 0.000000 0.000000 0.000000 0.000000 0.000000
0.000000 0.000000 0.000000 0.000000 0.000000 0.000000 0.000000 0.000000 0.000000 0.000000 0.000000 0.000000 0.000000 0.000000 0.000000 0.000000 0.000000 0.000000 0.000000 0.000000 0.000000 0.000000 0.000000 0.000000 0.000000 0.000000 0.000000 0.000000 0.000000 0.000000 0.000000 0.000000 0.000000 0.000000 0.000000 0.000000 0.000000 0.000000 0.000000 0.000000 0.000000 0.000000 0.000000 0.000000 0.000000 0.000000 0.000000 0.000000 0.000000 0.000000 0.000000 0.000000 0.000000 0.000000 0.000000 0.000000 0.000000 0.000000 0.000000 0.000000 0.000000 0.000000 0.000000 0.000000 0.000000 0.000000 0.000000 0.000000 0.000000 0.000000 0.000000 0.000000 0.000000 0.000000 0.000000 0.000000 0.000000 0.000000 0.000000 0.000000 0.000000 0.000000 0.000000 0.000000 0.000000 0.000000 0.000000 0.000000 0.000000 0.000000 0.000000 0.000000 0.000000 0.000000 0.000000 0.000000 0.000000 0.000000 0.000000 0.000000
0.000000 0.000000 0.000000 0.000000 0.000000 0.000000 0.000000 0.000000 0.000000 0.000000 0.000000 0.000000 0.000000 0.000000 0.000000 0.000000 0.000000 0.000000 0.000000 0.000000 0.000000 0.000000 0.000000 0.000000 0.000000 0.000000 0.000000 0.000000 0.000000 0.000000 0.000000 0.000000 0.000000 0.000000 0.000000 0.000000 0.000000 0.000000 0.000000 0.000000 0.000000 0.000000 0.000000 0.000000 0.000000 0.000000 0.000000 0.000000 0.000000 0.000000 0.000000 0.000000 0.000000 0.000000 0.000000 0.000000 0.000000 0.000000 0.000000 0.000000 0.000000 0.000000 0.000000 0.000000 0.000000 0.000000 0.000000 0.000000 0.000000 0.000000 0.000000 0.000000 0.000000 0.000000 0.000000 0.000000 0.000000 0.000000 0.000000 0.000000 0.000000 0.000000 0.000000 0.000000 0.000000 0.000000 0.000000 0.000000 0.000000 0.000000 0.000000 0.000000 0.000000 0.000000 0.000000 0.000000 0.000000 0.000000 0.000000 0.000000
0.000000 0.000000 0.000000 0.000000 0.000000 0.000000 0.000000 0.000000 0.000000 0.000000 0.000000 0.000000 0.000000 0.000000 0.000000 0.000000 0.000000 0.000000 0.000000 0.000000 0.000000 0.000000 0.000000 0.000000 0.000000 0.000000 0.000000 0.000000 0.000000 0.000000 0.000000 0.000000 0.000000 0.000000 0.000000 0.000000 0.000000 0.000000 0.000000 0.000000 0.000000 0.000000 0.000000 0.000000 0.000000 0.000000 0.000000 0.000000 0.000000 0.000000 0.000000 0.000000 0.000000 0.000000 0.000000 0.000000 0.000000 0.000000 0.000000 0.000000 0.000000 0.000000 0.000000 0.000000 0.000000 0.000000 0.000000 0.000000 0.000000 0.000000 0.000000 0.000000 0.000000 0.000000 0.000000 0.000000 0.000000 0.000000 0.000000 0.000000 0.000000 0.000000 0.000000 0.000000 0.000000 0.000000 0.000000 0.000000 0.000000 0.000000 0.000000 0.000000 0.000000 0.000000 0.000000 0.000000 0.000000 0.000000 0.000000 0.000000
0.000000 0.000000 0.000000 0.000000 0.000000 0.000000 0.000000 0.000000 0.000000 0.000000 0.000000 0.000000 0.000000 0.000000 0.000000 0.000000 0.000000 0.000000 0.000000 0.000000 0.000000 0.000000 0.000000 0.000000 0.000000 0.000000 0.000000 0.000000 0.000000 0.000000 0.000000 0.000000 0.000000 0.000000 0.000000 0.000000 0.000000 0.000000 0.000000 0.000000 0.000000 0.000000 0.000000 0.000000 0.000000 0.000000 0.000000 0.000000 0.000000 0.000000 0.000000 0.000000 0.000000 0.000000 0.000000 0.000000 0.000000 0.000000 0.000000 0.000000 0.000000 0.000000 0.000000 0.000000 0.000000 0.000000 0.000000 0.000000 0.000000 0.000000 0.000000 0.000000 0.000000 0.000000 0.000000 0.000000 0.000000 0.000000 0.000000 0.000000 0.000000 0.000000 0.000000 0.000000 0.000000 0.000000 0.000000 0.000000 0.000000 0.000000 0.000000 0.000000 0.000000 0.000000 0.000000 0.000000 0.000000 0.000000 0.000000 0.000000
0.000000 0.000000 0.000000 0.000000 0.000000 0.000000 0.000000 0.000000 0.000000 0.000000 0.000000 0.000000 0.000000 0.000000 0.000000 0.000000 0.000000 0.000000 0.000000 0.000000 0.000000 0.000000 0.000000 0.000000 0.000000 0.000000 0.000000 0.000000 0.000000 0.000000 0.000000 0.000000 0.000000 0.000000 0.000000 0.000000 0.000000 0.000000 0.000000 0.000000 0.000000 0.000000 0.000000 0.000000 0.000000 0.000000 0.000000 0.000000 0.000000 0.000000 0.000000 0.000000 0.000000 0.000000 0.000000 0.000000 0.000000 0.000000 0.000000 0.000000 0.000000 0.000000 0.000000 0.000000 0.000000 0.000000 0.000000 0.000000 0.000000 0.000000 0.000000 0.000000 0.000000 0.000000 0.000000 0.000000 0.000000 0.000000 0.000000 0.000000 0.000000 0.000000 0.000000 0.000000 0.000000 0.000000 0.000000 0.000000 0.000000 0.000000 0.000000 0.000000 0.000000 0.000000 0.000000 0.000000 0.000000 0.000000 0.000000 0.000000
