ncols 200
nrows 200
xllcorner 0.0
yllcorner 0.0
cellsize 25.0
NODATA_value -9999.0
0.000000 0.000000 0.000000 0.000000 0.000000 0.000000 0.000000 0.000000 0.000000 0.000000 0.000000 0.000000 0.000000 0.000000 0.000000 0.000000 0.000000 0.000000 0.000000 0.000000 0.000000 0.000000 0.000000 0.000000 0.000000 0.000000 0.000000 0.000000 0.000000 0.000000 0.000000 0.000000 0.000000 0.000000 0.000000 0.000000 0.000000 0.000000 0.000000 0.000000 0.000000 0.000000 0.000000 0.000000 0.000000 0.000000 0.000000 0.000000 0.000000 0.000000 0.000000 0.000000 0.000000 0.000000 0.000000 0.000000 0.000000 0.000000 0.000000 0.000000 0.000000 0.000000 0.000000 0.000000 0.000000 0.000000 0.000000 0.000000 0.000000 0.000000 0.000000 0.000000 0.000000 0.000000 0.000000 0.000000 0.000000 0.000000 0.000000 0.000000 0.000000 0.000000 0.000000 0.000000 0.000000 0.000000 0.000000 0.000000 0.000000 0.000000 0.000000 0.000000 0.000000 0.000000 0.000000 0.000000 0.000000 0.000000 0.000000 0.000000 0.000000 0.000000 0.000000 0.000000 0.000000 0.000000 0.000000 0.000000 0.000000 0.000000 0.000000 0.000000 0.000000 0.000000 0.000000 0.000000 0.000000 0.000000 0.000000 0.000000 0.000000 0.000000 0.000000 0.000000 0.000000 0.000000 0.000000 0.000000 0.000000 0.000000 0.000000 0.000000 0.000000 0.000000 0.000000 0.000000 0.000000 0.000000 0.000000 0.000000 0.000000 0.000000 0.000000 0.000000 0.000000 0.000000 0.000000 0.000000 0.000000 0.000000 0.000000 0.000000 0.000000 0.000000 0.000000 0.000000 0.000000 0.000000 0.000000 0.000000 0.000000 0.000000 0.000000 0.000000 0.000000 0.000000 0.000000 0.000000 0.000000 0.000000 0.000000 0.000000 0.000000 0.000000 0.000000 0.000000 0.000000 0.000000 0.000000 0.000000 0.000000 0.000000 0.000000 0.000000 0.000000 0.000000 0.000000 0.000000 0.000000 0.000000 0.000000 0.000000 0.000000 0.000000 0.000000 0.000000 0.000000 0.000000 0.000000 0.000000
0.000000 0.000000 0.000000 0.000000 0.000000 0.000000 0.000000 0.000000 0.000000 0.000000 0.000000 0.000000 0.000000 0.000000 0.000000 0.000000 0.000000 0.000000 0.000000 0.000000 0.000000 0.000000 0.000000 0.000000 0.000000 0.000000 0.000000 0.000000 0.000000 0.000000 0.000000 0.000000 0.000000 0.000000 0.000000 0.000000 0.000000 0.000000 0.000000 0.000000 0.000000 0.000000 0.000000 0.000000 0.000000 0.000000 0.000000 0.000000 0.000000 0.000000 0.000000 0.000000 0.000000 0.000000 0.000000 0.000000 0.000000 0.000000 0.000000 0.000000 0.000000 0.000000 0.000000 0.000000 0.000000 0.000000 0.000000 0.000000 0.000000 0.000000 0.000000 0.000000 0.000000 0.000000 0.000000 0.000000 0.000000 0.000000 0.000000 0.000000 0.000000 0.000000 0.000000 0.000000 0.000000 0.000000 0.000000 0.000000 0.000000 0.000000 0.000000 0.000000 0.000000 0.000000 0.000000 0.000000 0.000000 0.000000 0.000000 0.000000 0.000000 0.000000 0.000000 0.000000 0.000000 0.000000 0.000000 0.000000 0.000000 0.000000 0.000000 0.000000 0.000000 0.000000 0.000000 0.000000 0.000000 0.000000 0.000000 0.000000 0.000000 0.000000 0.000000 0.000000 0.000000 0.000000 0.000000 0.000000 0.000000 0.000000 0.000000 0.000000 0.000000 0.000000 0.000000 0.000000 0.000000 0.000000 0.000000 0.000000 0.000000 0.000000 0.000000 0.000000 0.000000 0.000000 0.000000 0.000000 0.000000 0.000000 0.000000 0.000000 0.000000 0.000000 0.000000 0.000000 0.000000 0.000000 0.000000 0.000000 0.000000 0.000000 0.000000 0.000000 0.000000 0.000000 0.000000 0.000000 0.000000 0.000000 0.000000 0.000000 0.000000 0.000000 0.000000 0.000000 0.000000 0.000000 0.000000 0.000000 0.000000 0.000000 0.000000 0.000000 0.000000 0.000000 0.000000 0.000000 0.000000 0.000000 0.000000 0.000000 0.000000 0.000000 0.000000 0.000000 0.000000 0.000000 0.000000 0.000000
0.000000 0.000000 0.000000 0.000000 0.000000 0.000000 0.000000 0.000000 0.000000 0.000000 0.000000 0.000000 0.000000 0.000000 0.000000 0.000000 0.000000 0.000000 0.000000 0.000000 0.000000 0.000000 0.000000 0.000000 0.000000 0.000000 0.000000 0.000000 0.000000 0.000000 0.000000 0.000000 0.000000 0.000000 0.000000 0.000000 0.000000 0.000000 0.000000 0.000000 0.000000 0.000000 0.000000 0.000000 0.000000 0.000000 0.000000 0.000000 0.000000 0.000000 0.000000 0.000000 0.000000 0.000000 0.000000 0.000000 0.000000 0.000000 0.000000 0.000000 0.000000 0.000000 0.000000 0.000000 0.000000 0.000000 0.000000 0.000000 0.000000 0.000000 0.000000 0.000000 0.000000 0.000000 0.000000 0.000000 0.000000 0.000000 0.000000 0.000000 0.000000 0.000000 0.000000 0.000000 0.000000 0.000000 0.000000 0.000000 0.000000 0.000000 0.000000 0.000000 0.000000 0.000000 0.000000 0.000000 0.000000 0.000000 0.000000 0.000000 0.000000 0.000000 0.000000 0.000000 0.000000 0.000000 0.000000 0.000000 0.000000 0.000000 0.000000 0.000000 0.000000 0.000000 0.000000 0.000000 0.000000 0.000000 0.000000 0.000000 0.000000 0.000000 0.000000 0.000000 0.000000 0.000000 0.000000 0.000000 0.000000 0.000000 0.000000 0.000000 0.000000 0.000000 0.000000 0.000000 0.000000 0.000000 0.000000 0.000000 0.000000 0.000000 0.000000 0.000000 0.000000 0.000000 0.000000 0.000000 0.000000 0.000000 0.000000 0.000000 0.000000 0.000000 0.000000 0.000000 0.000000 0.000000 0.000000 0.000000 0.000000 0.000000 0.000000 0.000000 0.000000 0.000000 0.000000 0.000000 0.000000 0.000000 0.000000 0.000000 0.000000 0.000000 0.000000 0.000000 0.000000 0.000000 0.000000 0.000000 0.000000 0.000000 0.000000 0.000000 0.000000 0.000000 0.000000 0.000000 0.000000 0.000000 0.000000 0.000000 0.000000 0.000000 0.000000 0.000000 0.000000 0.000000 0.000000 0.000000
0.000000 0.000000 0.000000 0.000000 0.000000 0.000000 0.000000 0.000000 0.000000 0.000000 0.000000 0.000000 0.000000 0.000000 0.000000 0.000000 0.000000 0.000000 0.000000 0.000000 0.000000 0.000000 0.000000 0.000000 0.000000 0.000000 0.000000 0.000000 0.000000 0.000000 0.000000 0.000000 0.000000 0.000000 0.000000 0.000000 0.000000 0.000000 0.000000 0.000000 0.000000 0.000000 0.000000 0.000000 0.000000 0.000000 0.000000 0.000000 0.000000 0.000000 0.000000 0.000000 0.000000 0.000000 0.000000 0.000000 0.000000 0.000000 0.000000 0.000000 0.000000 0.000000 0.000000 0.000000 0.000000 0.000000 0.000000 0.000000 0.000000 0.000000 0.000000 0.000000 0.000000 0.000000 0.000000 0.000000 0.000000 0.000000 0.000000 0.000000 0.000000 0.000000 0.000000 0.000000 0.000000 0.000000 0.000000 0.000000 0.000000 0.000000 0.000000 0.000000 0.000000 0.000000 0.000000 0.000000 0.000000 0.000000 0.000000 0.000000 0.000000 0.000000 0.000000 0.000000 0.000000 0.000000 0.000000 0.000000 0.000000 0.000000 0.000000 0.000000 0.000000 0.000000 0.000000 0.000000 0.000000 0.000000 0.000000 0.000000 0.000000 0.000000 0.000000 0.000000 0.000000 0.000000 0.000000 0.000000 0.000000 0.000000 0.000000 0.000000 0.000000 0.000000 0.000000 0.000000 0.000000 0.000000 0.000000 0.000000 0.000000 0.000000 0.000000 0.000000 0.000000 0.000000 0.000000 0.000000 0.000000 0.000000 0.000000 0.000000 0.000000 0.000000 0.000000 0.000000 0.000000 0.000000 0.000000 0.000000 0.000000 0.000000 0.000000 0.000000 0.000000 0.000000 0.000000 0.000000 0.000000 0.000000 0.000000 0.000000 0.000000 0.000000 0.000000 0.000000 0.000000 0.000000 0.000000 0.000000 0.000000 0.000000 0.000000 0.000000 0.000000 0.000000 0.000000 0.000000 0.000000 0.000000 0.000000 0.000000 0.000000 0.000000 0.000000 0.000000 0.000000 0.000000 0.000000 0.000000
0.000000 0.000000 0.000000 0.000000 0.000000 0.000000 0.000000 0.000000 0.000000 0.000000 0.000000 0.000000 0.000000 0.000000 0.000000 0.000000 0.000000 0.000000 0.000000 0.000000 0.000000 0.000000 0.000000 0.000000 0.000000 0.000000 0.000000 0.000000 0.000000 0.000000 0.000000 0.000000 0.000000 0.000000 0.000000 0.000000 0.000000 0.000000 0.000000 0.000000 0.000000 0.000000 0.000000 0.000000 0.000000 0.000000 0.000000 0.000000 0.000000 0.000000 0.000000 0.000000 0.000000 0.000000 0.000000 0.000000 0.000000 0.000000 0.000000 0.000000 0.000000 0.000000 0.000000 0.000000 0.000000 0.000000 0.000000 0.000000 0.000000 0.000000 0.000000 0.000000 0.000000 0.000000 0.000000 0.000000 0.000000 0.000000 0.000000 0.000000 0.000000 0.000000 0.000000 0.000000 0.000000 0.000000 0.000000 0.000000 0.000000 0.000000 0.000000 0.000000 0.000000 0.000000 0.000000 0.000000 0.000000 0.000000 0.000000 0.000000 0.000000 0.000000 0.000000 0.000000 0.000000 0.000000 0.000000 0.000000 0.000000 0.000000 0.000000 0.000000 0.000000 0.000000 0.000000 0.000000 0.000000 0.000000 0.000000 0.000000 0.000000 0.000000 0.000000 0.000000 0.000000 0.000000 0.000000 0.000000 0.000000 0.000000 0.000000 0.000000 0.000000 0.000000 0.000000 0.000000 0.000000 0.000000 0.000000 0.000000 0.000000 0.000000 0.000000 0.000000 0.000000 0.000000 0.000000 0.000000 0.000000 0.000000 0.000000 0.000000 0.000000 0.000000 0.000000 0.000000 0.000000 0.000000 0.000000 0.000000 0.000000 0.000000 0.000000 0.000000 0.000000 0.000000 0.000000 0.000000 0.000000 0.000000 0.000000 0.000000 0.000000 0.000000 0.000000 0.000000 0.000000 0.000000 0.000000 0.000000 0.000000 0.000000 0.000000 0.000000 0.000000 0.000000 0.000000 0.000000 0.000000 0.000000 0.000000 0.000000 0.000000 0.000000 0.000000 0.000000 0.000000 0.000000 0.000000 0.000000
0.000000 0.000000 0.000000 0.000000 0.000000 0.000000 0.000000 0.000000 0.000000 0.000000 0.000000 0.000000 0.000000 0.000000 0.000000 0.000000 0.000000 0.000000 0.000000 0.000000 0.000000 0.000000 0.000000 0.000000 0.000000 0.000000 0.000000 0.000000 0.000000 0.000000 0.000000 0.000000 0.000000 0.000000 0.000000 0.000000 0.000000 0.000000 0.000000 0.000000 0.000000 0.000000 0.000000 0.000000 0.000000 0.000000 0.000000 0.000000 0.000000 0.000000 0.000000 0.000000 0.000000 0.000000 0.000000 0.000000 0.000000 0.000000 0.000000 0.000000 0.000000 0.000000 0.000000 0.000000 0.000000 0.000000 0.000000 0.000000 0.000000 0.000000 0.000000 0.000000 0.000000 0.000000 0.000000 0.000000 0.000000 0.000000 0.000000 0.000000 0.000000 0.000000 0.000000 0.000000 0.000000 0.000000 0.000000 0.000000 0.000000 0.000000 0.000000 0.000000 0.000000 0.000000 0.000000 0.000000 0.000000 0.000000 0.000000 0.000000 0.000000 0.000000 0.000000 0.000000 0.000000 0.000000 0.000000 0.000000 0.000000 0.000000 0.000000 0.000000 0.000000 0.000000 0.000000 0.000000 0.000000 0.000000 0.000000 0.000000 0.000000 0.000000 0.000000 0.000000 0.000000 0.000000 0.000000 0.000000 0.000000 0.000000 0.000000 0.000000 0.000000 0.000000 0.000000 0.000000 0.000000 0.000000 0.000000 0.000000 0.000000 0.000000 0.000000 0.000000 0.000000 0.000000 0.000000 0.000000 0.000000 0.000000 0.000000 0.000000 0.000000 0.000000 0.000000 0.000000 0.000000 0.000000 0.000000 0.000000 0.000000 0.000000 0.000000 0.000000 0.000000 0.000000 0.000000 0.000000 0.000000 0.000000 0.000000 0.000000 0.000000 0.000000 0.000000 0.000000 0.000000 0.000000 0.000000 0.000000 0.000000 0.000000 0.000000 0.000000 0.000000 0.000000 0.000000 0.000000 0.000000 0.000000 0.000000 0.000000 0.000000 0.000000 0.000000 0.000000 0.000000 0.000000 0.000000 0.000000
0.000000 0.000000 0.000000 0.000000 0.000000 0.000000 0.000000 0.000000 0.000000 0.000000 0.000000 0.000000 0.000000 0.000000 0.000000 0.000000 0.000000 0.000000 0.000000 0.000000 0.000000 0.000000 0.000000 0.000000 0.000000 0.000000 0.000000 0.000000 0.000000 0.000000 0.000000 0.000000 0.000000 0.000000 0.000000 0.000000 0.000000 0.000000 0.000000 0.000000 0.000000 0.000000 0.000000 0.000000 0.000000 0.000000 0.000000 0.000000 0.000000 0.000000 0.000000 0.000000 0.000000 0.000000 0.000000 0.000000 0.000000 0.000000 0.000000 0.000000 0.000000 0.000000 0.000000 0.000000 0.000000 0.000000 0.000000 0.000000 0.000000 0.000000 0.000000 0.000000 0.000000 0.000000 0.000000 0.000000 0.000000 0.000000 0.000000 0.000000 0.000000 0.000000 0.000000 0.000000 0.000000 0.000000 0.000000 0.000000 0.000000 0.000000 0.000000 0.000000 0.000000 0.000000 0.000000 0.000000 0.000000 0.000000 0.000000 0.000000 0.000000 0.000000 0.000000 0.000000 0.000000 0.000000 0.000000 0.000000 0.000000 0.000000 0.000000 0.000000 0.000000 0.000000 0.000000 0.000000 0.000000 0.000000 0.000000 0.000000 0.000000 0.000000 0.000000 0.000000 0.000000 0.000000 0.000000 0.000000 0.000000 0.000000 0.000000 0.000000 0.000000 0.000000 0.000000 0.000000 0.000000 0.000000 0.000000 0.000000 0.000000 0.000000 0.000000 0.000000 0.000000 0.000000 0.000000 0.000000 0.000000 0.000000 0.000000 0.000000 0.000000 0.000000 0.000000 0.000000 0.000000 0.000000 0.000000 0.000000 0.000000 0.000000 0.000000 0.000000 0.000000 0.000000 0.000000 0.000000 0.000000 0.000000 0.000000 0.000000 0.000000 0.000000 0.000000 0.000000 0.000000 0.000000 0.000000 0.000000 0.000000 0.000000 0.000000 0.000000 0.000000 0.000000 0.000000 0.000000 0.000000 0.000000 0.000000 0.000000 0.000000 0.000000 0.000000 0.000000 0.000000 0.000000 0.000000 0.000000
0.000000 0.000000 0.000000 0.000000 0.000000 0.000000 0.000000 0.000000 0.000000 0.000000 0.000000 0.000000 0.000000 0.000000 0.000000 0.000000 0.000000 0.000000 0.000000 0.000000 0.000000 0.000000 0.000000 0.000000 0.000000 0.000000 0.000000 0.000000 0.000000 0.000000 0.000000 0.000000 0.000000 0.000000 0.000000 0.000000 0.000000 0.000000 0.000000 0.000000 0.000000 0.000000 0.000000 0.000000 0.000000 0.000000 0.000000 0.000000 0.000000 0.000000 0.000000 0.000000 0.000000 0.000000 0.000000 0.000000 0.000000 0.000000 0.000000 0.000000 0.000000 0.000000 0.000000 0.000000 0.000000 0.000000 0.000000 0.000000 0.000000 0.000000 0.000000 0.000000 0.000000 0.000000 0.000000 0.000000 0.000000 0.000000 0.000000 0.000000 0.000000 0.000000 0.000000 0.000000 0.000000 0.000000 0.000000 0.000000 0.000000 0.000000 0.000000 0.000000 0.000000 0.000000 0.000000 0.000000 0.000000 0.000000 0.000000 0.000000 0.000000 0.000000 0.000000 0.000000 0.000000 0.000000 0.000000 0.000000 0.000000 0.000000 0.000000 0.000000 0.000000 0.000000 0.000000 0.000000 0.000000 0.000000 0.000000 0.000000 0.000000 0.000000 0.000000 0.000000 0.000000 0.000000 0.000000 0.000000 0.000000 0.000000 0.000000 0.000000 0.000000 0.000000 0.000000 0.000000 0.000000 0.000000 0.000000 0.000000 0.000000 0.000000 0.000000 0.000000 0.000000 0.000000 0.000000 0.000000 0.000000 0.000000 0.000000 0.000000 0.000000 0.000000 0.000000 0.000000 0.000000 0.000000 0.000000 0.000000 0.000000 0.000000 0.000000 0.000000 0.000000 0.000000 0.000000 0.000000 0.000000 0.000000 0.000000 0.000000 0.000000 0.000000 0.000000 0.000000 0.000000 0.000000 0.000000 0.000000 0.000000 0.000000 0.000000 0.000000 0.000000 0.000000 0.000000 0.000000 0.000000 0.000000 0.000000 0.000000 0.000000 0.000000 0.000000 0.000000 0.000000 0.000000 0.000000 0.000000
0.000000 0.000000 0.000000 0.000000 0.000000 0.000000 0.000000 0.000000 0.000000 0.000000 0.000000 0.000000 0.000000 0.000000 0.000000 0.000000 0.000000 0.000000 0.000000 0.000000 0.000000 0.000000 0.000000 0.000000 0.000000 0.000000 0.000000 0.000000 0.000000 0.000000 0.000000 0.000000 0.000000 0.000000 0.000000 0.000000 0.000000 0.000000 0.000000 0.000000 0.000000 0.000000 0.000000 0.000000 0.000000 0.000000 0.000000 0.000000 0.000000 0.000000 0.000000 0.000000 0.000000 0.000000 0.000000 0.000000 0.000000 0.000000 0.000000 0.000000 0.000000 0.000000 0.000000 0.000000 0.000000 0.000000 0.000000 0.000000 0.000000 0.000000 0.000000 0.000000 0.000000 0.000000 0.000000 0.000000 0.000000 0.000000 0.000000 0.000000 0.000000 0.000000 0.000000 0.000000 0.000000 0.000000 0.000000 0.000000 0.000000 0.000000 0.000000 0.000000 0.000000 0.000000 0.000000 0.000000 0.000000 0.000000 0.000000 0.000000 0.000000 0.000000 0.000000 0.000000 0.000000 0.000000 0.000000 0.000000 0.000000 0.000000 0.000000 0.000000 0.000000 0.000000 0.000000 0.000000 0.000000 0.000000 0.000000 0.000000 0.000000 0.000000 0.000000 0.000000 0.000000 0.000000 0.000000 0.000000 0.000000 0.000000 0.000000 0.000000 0.000000 0.000000 0.000000 0.000000 0.000000 0.000000 0.000000 0.000000 0.000000 0.000000 0.000000 0.000000 0.000000 0.000000 0.000000 0.000000 0.000000 0.000000 0.000000 0.000000 0.000000 0.000000 0.000000 0.000000 0.000000 0.000000 0.000000 0.000000 0.000000 0.000000 0.000000 0.000000 0.000000 0.000000 0.000000 0.000000 0.000000 0.000000 0.000000 0.000000 0.000000 0.000000 0.000000 0.000000 0.000000 0.000000 0.000000 0.000000 0.000000 0.000000 0.000000 0.000000 0.000000 0.000000 0.000000 0.000000 0.000000 0.000000 0.000000 0.000000 0.000000 0.000000 0.000000 0.000000 0.000000 0.000000 0.000000 0.000000
0.000000 0.000000 0.000000 0.000000 0.000000 0.000000 0.000000 0.000000 0.000000 0.000000 0.000000 0.000000 0.000000 0.000000 0.000000 0.000000 0.000000 0.000000 0.000000 0.000000 0.000000 0.000000 0.000000 0.000000 0.000000 0.000000 0.000000 0.000000 0.000000 0.000000 0.000000 0.000000 0.000000 0.000000 0.000000 0.000000 0.000000 0.000000 0.000000 0.000000 0.000000 0.000000 0.000000 0.000000 0.000000 0.000000 0.000000 0.000000 0.000000 0.000000 0.000000 0.000000 0.000000 0.000000 0.000000 0.000000 0.000000 0.000000 0.000000 0.000000 0.000000 0.000000 0.000000 0.000000 0.000000 0.000000 0.000000 0.000000 0.000000 0.000000 0.000000 0.000000 0.000000 0.000000 0.000000 0.000000 0.000000 0.000000 0.000000 0.000000 0.000000 0.000000 0.000000 0.000000 0.000000 0.000000 0.000000 0.000000 0.000000 0.000000 0.000000 0.000000 0.000000 0.000000 0.000000 0.000000 0.000000 0.000000 0.000000 0.000000 0.000000 0.000000 0.000000 0.000000 0.000000 0.000000 0.000000 0.000000 0.000000 0.000000 0.000000 0.000000 0.000000 0.000000 0.000000 0.000000 0.000000 0.000000 0.000000 0.000000 0.000000 0.000000 0.000000 0.000000 0.000000 0.000000 0.000000 0.000000 0.000000 0.000000 0.000000 0.000000 0.000000 0.000000 0.000000 0.000000 0.000000 0.000000 0.000000 0.000000 0.000000 0.000000 0.000000 0.000000 0.000000 0.000000 0.000000 0.000000 0.000000 0.000000 0.000000 0.000000 0.000000 0.000000 0.000000 0.000000 0.000000 0.000000 0.000000 0.000000 0.000000 0.000000 0.000000 0.000000 0.000000 0.000000 0.000000 0.000000 0.000000 0.000000 0.000000 0.000000 0.000000 0.000000 0.000000 0.000000 0.000000 0.000000 0.000000 0.000000 0.000000 0.000000 0.000000 0.000000 0.000000 0.000000 0.000000 0.000000 0.000000 0.000000 0.000000 0.000000 0.000000 0.000000 0.000000 0.000000 0.000000 0.000000 0.000000 0.000000
0.000000 0.000000 0.000000 0.000000 0.000000 0.000000 0.000000 0.000000 0.000000 0.000000 0.000000 0.000000 0.000000 0.000000 0.000000 0.000000 0.000000 0.000000 0.000000 0.000000 0.000000 0.000000 0.000000 0.000000 0.000000 0.000000 0.000000 0.000000 0.000000 0.000000 0.000000 0.000000 0.000000 0.000000 0.000000 0.000000 0.000000 0.000000 0.000000 0.000000 0.000000 0.000000 0.000000 0.000000 0.000000 0.000000 0.000000 0.000000 0.000000 0.000000 0.000000 0.000000 0.000000 0.000000 0.000000 0.000000 0.000000 0.000000 0.000000 0.000000 0.000000 0.000000 0.000000 0.000000 0.000000 0.000000 0.000000 0.000000 0.000000 0.000000 0.000000 0.000000 0.000000 0.000000 0.000000 0.000000 0.000000 0.000000 0.000000 0.000000 0.000000 0.000000 0.000000 0.000000 0.000000 0.000000 0.000000 0.000000 0.000000 0.000000 0.000000 0.000000 0.000000 0.000000 0.000000 0.000000 0.000000 0.000000 0.000000 0.000000 0.000000 0.000000 0.000000 0.000000 0.000000 0.000000 0.000000 0.000000 0.000000 0.000000 0.000000 0.000000 0.000000 0.000000 0.000000 0.000000 0.000000 0.000000 0.000000 0.000000 0.000000 0.000000 0.000000 0.000000 0.000000 0.000000 0.000000 0.000000 0.000000 0.000000 0.000000 0.000000 0.000000 0.000000 0.000000 0.000000 0.000000 0.000000 0.000000 0.000000 0.000000 0.000000 0.000000 0.000000 0.000000 0.000000 0.000000 0.000000 0.000000 0.000000 0.000000 0.000000 0.000000 0.000000 0.000000 0.000000 0.000000 0.000000 0.000000 0.000000 0.000000 0.000000 0.000000 0.000000 0.000000 0.000000 0.000000 0.000000 0.000000 0.000000 0.000000 0.000000 0.000000 0.000000 0.000000 0.000000 0.000000 0.000000 0.000000 0.000000 0.000000 0.000000 0.000000 0.000000 0.000000 0.000000 0.000000 0.000000 0.000000 0.000000 0.000000 0.000000 0.000000 0.000000 0.000000 0.000000 0.000000 0.000000 0.000000 0.000000
0.000000 0.000000 0.000000 0.000000 0.000000 0.000000 0.000000 0.000000 0.000000 0.000000 0.000000 0.000000 0.000000 0.000000 0.000000 0.000000 0.000000 0.000000 0.000000 0.000000 0.000000 0.000000 0.000000 0.000000 0.000000 0.000000 0.000000 0.000000 0.000000 0.000000 0.000000 0.000000 0.000000 0.000000 0.000000 0.000000 0.000000 0.000000 0.000000 0.000000 0.000000 0.000000 0.000000 0.000000 0.000000 0.000000 0.000000 0.000000 0.000000 0.000000 0.000000 0.000000 0.000000 0.000000 0.000000 0.000000 0.000000 0.000000 0.000000 0.000000 0.000000 0.000000 0.000000 0.000000 0.000000 0.000000 0.000000 0.000000 0.000000 0.000000 0.000000 0.000000 0.000000 0.000000 0.000000 0.000000 0.000000 0.000000 0.000000 0.000000 0.000000 0.000000 0.000000 0.000000 0.000000 0.000000 0.000000 0.000000 0.000000 0.000000 0.000000 0.000000 0.000000 0.000000 0.000000 0.000000 0.000000 0.000000 0.000000 0.000000 0.000000 0.000000 0.000000 0.000000 0.000000 0.000000 0.000000 0.000000 0.000000 0.000000 0.000000 0.000000 0.000000 0.000000 0.000000 0.000000 0.000000 0.000000 0.000000 0.000000 0.000000 0.000000 0.000000 0.000000 0.000000 0.000000 0.000000 0.000000 0.000000 0.000000 0.000000 0.000000 0.000000 0.000000 0.000000 0.000000 0.000000 0.000000 0.000000 0.000000 0.000000 0.000000 0.000000 0.000000 0.000000 0.000000 0.000000 0.000000 0.000000 0.000000 0.000000 0.000000 0.000000 0.000000 0.000000 0.000000 0.000000 0.000000 0.000000 0.000000 0.000000 0.000000 0.000000 0.000000 0.000000 0.000000 0.000000 0.000000 0.000000 0.000000 0.000000 0.000000 0.000000 0.000000 0.000000 0.000000 0.000000 0.000000 0.000000 0.000000 0.000000 0.000000 0.000000 0.000000 0.000000 0.000000 0.000000 0.000000 0.000000 0.000000 0.000000 0.000000 0.000000 0.000000 0.000000 0.000000 0.000000 0.000000 0.000000 0.000000
0.000000 0.000000 0.000000 0.000000 0.000000 0.000000 0.000000 0.000000 0.000000 0.000000 0.000000 0.000000 0.000000 0.000000 0.000000 0.000000 0.000000 0.000000 0.000000 0.000000 0.000000 0.000000 0.000000 0.000000 0.000000 0.000000 0.000000 0.000000 0.000000 0.000000 0.000000 0.000000 0.000000 0.000000 0.000000 0.000000 0.000000 0.000000 0.000000 0.000000 0.000000 0.000000 0.000000 0.000000 0.000000 0.000000 0.000000 0.000000 0.000000 0.000000 0.000000 0.000000 0.000000 0.000000 0.000000 0.000000 0.000000 0.000000 0.000000 0.000000 0.000000 0.000000 0.000000 0.000000 0.000000 0.000000 0.000000 0.000000 0.000000 0.000000 0.000000 0.000000 0.000000 0.000000 0.000000 0.000000 0.000000 0.000000 0.000000 0.000000 0.000000 0.000000 0.000000 0.000000 0.000000 0.000000 0.000000 0.000000 0.000000 0.000000 0.000000 0.000000 0.000000 0.000000 0.000000 0.000000 0.000000 0.000000 0.000000 0.000000 0.000000 0.000000 0.000000 0.000000 0.000000 0.000000 0.000000 0.000000 0.000000 0.000000 0.000000 0.000000 0.000000 0.000000 0.000000 0.000000 0.000000 0.000000 0.000000 0.000000 0.000000 0.000000 0.000000 0.000000 0.000000 0.000000 0.000000 0.000000 0.000000 0.000000 0.000000 0.000000 0.000000 0.000000 0.000000 0.000000 0.000000 0.000000 0.000000 0.000000 0.000000 0.000000 0.000000 0.000000 0.000000 0.000000 0.000000 0.000000 0.000000 0.000000 0.000000 0.000000 0.000000 0.000000 0.000000 0.000000 0.000000 0.000000 0.000000 0.000000 0.000000 0.000000 0.000000 0.000000 0.000000 0.000000 0.000000 0.000000 0.000000 0.000000 0.000000 0.000000 0.000000 0.000000 0.000000 0.000000 0.000000 0.000000 0.000000 0.000000 0.000000 0.000000 0.000000 0.000000 0.000000 0.000000 0.000000 0.000000 0.000000 0.000000 0.000000 0.000000 0.000000 0.000000 0.000000 0.000000 0.000000 0.000000 0.000000 0.000000
0.000000 0.000000 0.000000 0.000000 0.000000 0.000000 0.000000 0.000000 0.000000 0.000000 0.000000 0.000000 0.000000 0.000000 0.000000 0.000000 0.000000 0.000000 0.000000 0.000000 0.000000 0.000000 0.000000 0.000000 0.000000 0.000000 0.000000 0.000000 0.000000 0.000000 0.000000 0.000000 0.000000 0.000000 0.000000 0.000000 0.000000 0.000000 0.000000 0.000000 0.000000 0.000000 0.000000 0.000000 0.000000 0.000000 0.000000 0.000000 0.000000 0.000000 0.000000 0.000000 0.000000 0.000000 0.000000 0.000000 0.000000 0.000000 0.000000 0.000000 0.000000 0.000000 0.000000 0.000000 0.000000 0.000000 0.000000 0.000000 0.000000 0.000000 0.000000 0.000000 0.000000 0.000000 0.000000 0.000000 0.000000 0.000000 0.000000 0.000000 0.000000 0.000000 0.000000 0.000000 0.000000 0.000000 0.000000 0.000000 0.000000 0.000000 0.000000 0.000000 0.000000 0.000000 0.000000 0.000000 0.000000 0.000000 0.000000 0.000000 0.000000 0.000000 0.000000 0.000000 0.000000 0.000000 0.000000 0.000000 0.000000 0.000000 0.000000 0.000000 0.000000 0.000000 0.000000 0.000000 0.000000 0.000000 0.000000 0.000000 0.000000 0.000000 0.000000 0.000000 0.000000 0.000000 0.000000 0.000000 0.000000 0.000000 0.000000 0.000000 0.000000 0.000000 0.000000 0.000000 0.000000 0.000000 0.000000 0.000000 0.000000 0.000000 0.000000 0.000000 0.000000 0.000000 0.000000 0.000000 0.000000 0.000000 0.000000 0.000000 0.000000 0.000000 0.000000 0.000000 0.000000 0.000000 0.000000 0.000000 0.000000 0.000000 0.000000 0.000000 0.000000 0.000000 0.000000 0.000000 0.000000 0.000000 0.000000 0.000000 0.000000 0.000000 0.000000 0.000000 0.000000 0.000000 0.000000 0.000000 0.000000 0.000000 0.000000 0.000000 0.000000 0.000000 0.000000 0.000000 0.000000 0.000000 0.000000 0.000000 0.000000 0.000000 0.000000 0.000000 0.000000 0.000000 0.000000 0.000000
0.000000 0.000000 0.000000 0.000000 0.000000 0.000000 0.000000 0.000000 0.000000 0.000000 0.000000 0.000000 0.000000 0.000000 0.000000 0.000000 0.000000 0.000000 0.000000 0.000000 0.000000 0.000000 0.000000 0.000000 0.000000 0.000000 0.000000 0.000000 0.000000 0.000000 0.000000 0.000000 0.000000 0.000000 0.000000 0.000000 0.000000 0.000000 0.000000 0.000000 0.000000 0.000000 0.000000 0.000000 0.000000 0.000000 0.000000 0.000000 0.000000 0.000000 0.000000 0.000000 0.000000 0.000000 0.000000 0.000000 0.000000 0.000000 0.000000 0.000000 0.000000 0.000000 0.000000 0.000000 0.000000 0.000000 0.000000 0.000000 0.000000 0.000000 0.000000 0.000000 0.000000 0.000000 0.000000 0.000000 0.000000 0.000000 0.000000 0.000000 0.000000 0.000000 0.000000 0.000000 0.000000 0.000000 0.000000 0.000000 0.000000 0.000000 0.000000 0.000000 0.000000 0.000000 0.000000 0.000000 0.000000 0.000000 0.000000 0.000000 0.000000 0.000000 0.000000 0.000000 0.000000 0.000000 0.000000 0.000000 0.000000 0.000000 0.000000 0.000000 0.000000 0.000000 0.000000 0.000000 0.000000 0.000000 0.000000 0.000000 0.000000 0.000000 0.000000 0.000000 0.000000 0.000000 0.000000 0.000000 0.000000 0.000000 0.000000 0.000000 0.000000 0.000000 0.000000 0.000000 0.000000 0.000000 0.000000 0.000000 0.000000 0.000000 0.000000 0.000000 0.000000 0.000000 0.000000 0.000000 0.000000 0.000000 0.000000 0.000000 0.000000 0.000000 0.000000 0.000000 0.000000 0.000000 0.000000 0.000000 0.000000 0.000000 0.000000 0.000000 0.000000 0.000000 0.000000 0.000000 0.000000 0.000000 0.000000 0.000000 0.000000 0.000000 0.000000 0.000000 0.000000 0.000000 0.000000 0.000000 0.000000 0.000000 0.000000 0.000000 0.000000 0.000000 0.000000 0.000000 0.000000 0.000000 0.000000 0.000000 0.000000 0.000000 0.000000 0.000000 0.000000 0.000000 0.000000 0.000000
0.000000 0.000000 0.000000 0.000000 0.000000 0.000000 0.000000 0.000000 0.000000 0.000000 0.000000 0.000000 0.000000 0.000000 0.000000 0.000000 0.000000 0.000000 0.000000 0.000000 0.000000 0.000000 0.000000 0.000000 0.000000 0.000000 0.000000 0.000000 0.000000 0.000000 0.000000 0.000000 0.000000 0.000000 0.000000 0.000000 0.000000 0.000000 0.000000 0.000000 0.000000 0.000000 0.000000 0.000000 0.000000 0.000000 0.000000 0.000000 0.000000 0.000000 0.000000 0.000000 0.000000 0.000000 0.000000 0.000000 0.000000 0.000000 0.000000 0.000000 0.000000 0.000000 0.000000 0.000000 0.000000 0.000000 0.000000 0.000000 0.000000 0.000000 0.000000 0.000000 0.000000 0.000000 0.000000 0.000000 0.000000 0.000000 0.000000 0.000000 0.000000 0.000000 0.000000 0.000000 0.000000 0.000000 0.000000 0.000000 0.000000 0.000000 0.000000 0.000000 0.000000 0.000000 0.000000 0.000000 0.000000 0.000000 0.000000 0.000000 0.000000 0.000000 0.000000 0.000000 0.000000 0.000000 0.000000 0.000000 0.000000 0.000000 0.000000 0.000000 0.000000 0.000000 0.000000 0.000000 0.000000 0.000000 0.000000 0.000000 0.000000 0.000000 0.000000 0.000000 0.000000 0.000000 0.000000 0.000000 0.000000 0.000000 0.000000 0.000000 0.000000 0.000000 0.000000 0.000000 0.000000 0.000000 0.000000 0.000000 0.000000 0.000000 0.000000 0.000000 0.000000 0.000000 0.000000 0.000000 0.000000 0.000000 0.000000 0.000000 0.000000 0.000000 0.000000 0.000000 0.000000 0.000000 0.000000 0.000000 0.000000 0.000000 0.000000 0.000000 0.000000 0.000000 0.000000 0.000000 0.000000 0.000000 0.000000 0.000000 0.000000 0.000000 0.000000 0.000000 0.000000 0.000000 0.000000 0.000000 0.000000 0.000000 0.000000 0.000000 0.000000 0.000000 0.000000 0.000000 0.000000 0.000000 0.000000 0.000000 0.000000 0.000000 0.000000 0.000000 0.000000 0.000000 0.000000 0.000000
0.000000 0.000000 0.000000 0.000000 0.000000 0.000000 0.000000 0.000000 0.000000 0.000000 0.000000 0.000000 0.000000 0.000000 0.000000 0.000000 0.000000 0.000000 0.000000 0.000000 0.000000 0.000000 0.000000 0.000000 0.000000 0.000000 0.000000 0.000000 0.000000 0.000000 0.000000 0.000000 0.000000 0.000000 0.000000 0.000000 0.000000 0.000000 0.000000 0.000000 0.000000 0.000000 0.000000 0.000000 0.000000 0.000000 0.000000 0.000000 0.000000 0.000000 0.000000 0.000000 0.000000 0.000000 0.000000 0.000000 0.000000 0.000000 0.000000 0.000000 0.000000 0.000000 0.000000 0.000000 0.000000 0.000000 0.000000 0.000000 0.000000 0.000000 0.000000 0.000000 0.000000 0.000000 0.000000 0.000000 0.000000 0.000000 0.000000 0.000000 0.000000 0.000000 0.000000 0.000000 0.000000 0.000000 0.000000 0.000000 0.000000 0.000000 0.000000 0.000000 0.000000 0.000000 0.000000 0.000000 0.000000 0.000000 0.000000 0.000000 0.000000 0.000000 0.000000 0.000000 0.000000 0.000000 0.000000 0.000000 0.000000 0.000000 0.000000 0.000000 0.000000 0.000000 0.000000 0.000000 0.000000 0.000000 0.000000 0.000000 0.000000 0.000000 0.000000 0.000000 0.000000 0.000000 0.000000 0.000000 0.000000 0.000000 0.000000 0.000000 0.000000 0.000000 0.000000 0.000000 0.000000 0.000000 0.000000 0.000000 0.000000 0.000000 0.000000 0.000000 0.000000 0.000000 0.000000 0.000000 0.000000 0.000000 0.000000 0.000000 0.000000 0.000000 0.000000 0.000000 0.000000 0.000000 0.000000 0.000000 0.000000 0.000000 0.000000 0.000000 0.000000 0.000000 0.000000 0.000000 0.000000 0.000000 0.000000 0.000000 0.000000 0.000000 0.000000 0.000000 0.000000 0.000000 0.000000 0.000000 0.000000 0.000000 0.000000 0.000000 0.000000 0.000000 0.000000 0.000000 0.000000 0.000000 0.000000 0.000000 0.000000 0.000000 0.000000 0.000000 0.000000 0.000000 0.000000 0.000000
0.000000 0.000000 0.000000 0.000000 0.000000 0.000000 0.000000 0.000000 0.000000 0.000000 0.000000 0.000000 0.000000 0.000000 0.000000 0.000000 0.000000 0.000000 0.000000 0.000000 0.000000 0.000000 0.000000 0.000000 0.000000 0.000000 0.000000 0.000000 0.000000 0.000000 0.000000 0.000000 0.000000 0.000000 0.000000 0.000000 0.000000 0.000000 0.000000 0.000000 0.000000 0.000000 0.000000 0.000000 0.000000 0.000000 0.000000 0.000000 0.000000 0.000000 0.000000 0.000000 0.000000 0.000000 0.000000 0.000000 0.000000 0.000000 0.000000 0.000000 0.000000 0.000000 0.000000 0.000000 0.000000 0.000000 0.000000 0.000000 0.000000 0.000000 0.000000 0.000000 0.000000 0.000000 0.000000 0.000000 0.000000 0.000000 0.000000 0.000000 0.000000 0.000000 0.000000 0.000000 0.000000 0.000000 0.000000 0.000000 0.000000 0.000000 0.000000 0.000000 0.000000 0.000000 0.000000 0.000000 0.000000 0.000000 0.000000 0.000000 0.000000 0.000000 0.000000 0.000000 0.000000 0.000000 0.000000 0.000000 0.000000 0.000000 0.000000 0.000000 0.000000 0.000000 0.000000 0.000000 0.000000 0.000000 0.000000 0.000000 0.000000 0.000000 0.000000 0.000000 0.000000 0.000000 0.000000 0.000000 0.000000 0.000000 0.000000 0.000000 0.000000 0.000000 0.000000 0.000000 0.000000 0.000000 0.000000 0.000000 0.000000 0.000000 0.000000 0.000000 0.000000 0.000000 0.000000 0.000000 0.000000 0.000000 0.000000 0.000000 0.000000 0.000000 0.000000 0.000000 0.000000 0.000000 0.000000 0.000000 0.000000 0.000000 0.000000 0.000000 0.000000 0.000000 0.000000 0.000000 0.000000 0.000000 0.000000 0.000000 0.000000 0.000000 0.000000 0.000000 0.000000 0.000000 0.000000 0.000000 0.000000 0.000000 0.000000 0.000000 0.000000 0.000000 0.000000 0.000000 0.000000 0.000000 0.000000 0.000000 0.000000 0.000000 0.000000 0.000000 0.000000 0.000000 0.000000 0.000000
0.000000 0.000000 0.000000 0.000000 0.000000 0.000000 0.000000 0.000000 0.000000 0.000000 0.000000 0.000000 0.000000 0.000000 0.000000 0.000000 0.000000 0.000000 0.000000 0.000000 0.000000 0.000000 0.000000 0.000000 0.000000 0.000000 0.000000 0.000000 0.000000 0.000000 0.000000 0.000000 0.000000 0.000000 0.000000 0.000000 0.000000 0.000000 0.000000 0.000000 0.000000 0.000000 0.000000 0.000000 0.000000 0.000000 0.000000 0.000000 0.000000 0.000000 0.000000 0.000000 0.000000 0.000000 0.000000 0.000000 0.000000 0.000000 0.000000 0.000000 0.000000 0.000000 0.000000 0.000000 0.000000 0.000000 0.000000 0.000000 0.000000 0.000000 0.000000 0.000000 0.000000 0.000000 0.000000 0.000000 0.000000 0.000000 0.000000 0.000000 0.000000 0.000000 0.000000 0.000000 0.000000 0.000000 0.000000 0.000000 0.000000 0.000000 0.000000 0.000000 0.000000 0.000000 0.000000 0.000000 0.000000 0.000000 0.000000 0.000000 0.000000 0.000000 0.000000 0.000000 0.000000 0.000000 0.000000 0.000000 0.000000 0.000000 0.000000 0.000000 0.000000 0.000000 0.000000 0.000000 0.000000 0.000000 0.000000 0.000000 0.000000 0.000000 0.000000 0.000000 0.000000 0.000000 0.000000 0.000000 0.000000 0.000000 0.000000 0.000000 0.000000 0.000000 0.000000 0.000000 0.000000 0.000000 0.000000 0.000000 0.000000 0.000000 0.000000 0.000000 0.000000 0.000000 0.000000 0.000000 0.000000 0.000000 0.000000 0.000000 0.000000 0.000000 0.000000 0.000000 0.000000 0.000000 0.000000 0.000000 0.000000 0.000000 0.000000 0.000000 0.000000 0.000000 0.000000 0.000000 0.000000 0.000000 0.000000 0.000000 0.000000 0.000000 0.000000 0.000000 0.000000 0.000000 0.000000 0.000000 0.000000 0.000000 0.000000 0.000000 0.000000 0.000000 0.000000 0.000000 0.000000 0.000000 0.000000 0.000000 0.000000 0.000000 0.000000 0.000000 0.000000 0.000000 0.000000 0.000000
0.000000 0.000000 0.000000 0.000000 0.000000 0.000000 0.000000 0.000000 0.000000 0.000000 0.000000 0.000000 0.000000 0.000000 0.000000 0.000000 0.000000 0.000000 0.000000 0.000000 0.000000 0.000000 0.000000 0.000000 0.000000 0.000000 0.000000 0.000000 0.000000 0.000000 0.000000 0.000000 0.000000 0.000000 0.000000 0.000000 0.000000 0.000000 0.000000 0.000000 0.000000 0.000000 0.000000 0.000000 0.000000 0.000000 0.000000 0.000000 0.000000 0.000000 0.000000 0.000000 0.000000 0.000000 0.000000 0.000000 0.000000 0.000000 0.000000 0.000000 0.000000 0.000000 0.000000 0.000000 0.000000 0.000000 0.000000 0.000000 0.000000 0.000000 0.000000 0.000000 0.000000 0.000000 0.000000 0.000000 0.000000 0.000000 0.000000 0.000000 0.000000 0.000000 0.000000 0.000000 0.000000 0.000000 0.000000 0.000000 0.000000 0.000000 0.000000 0.000000 0.000000 0.000000 0.000000 0.000000 0.000000 0.000000 0.000000 0.000000 0.000000 0.000000 0.000000 0.000000 0.000000 0.000000 0.000000 0.000000 0.000000 0.000000 0.000000 0.000000 0.000000 0.000000 0.000000 0.000000 0.000000 0.000000 0.000000 0.000000 0.000000 0.000000 0.000000 0.000000 0.000000 0.000000 0.000000 0.000000 0.000000 0.000000 0.000000 0.000000 0.000000 0.000000 0.000000 0.000000 0.000000 0.000000 0.000000 0.000000 0.000000 0.000000 0.000000 0.000000 0.000000 0.000000 0.000000 0.000000 0.000000 0.000000 0.000000 0.000000 0.000000 0.000000 0.000000 0.000000 0.000000 0.000000 0.000000 0.000000 0.000000 0.000000 0.000000 0.000000 0.000000 0.000000 0.000000 0.000000 0.000000 0.000000 0.000000 0.000000 0.000000 0.000000 0.000000 0.000000 0.000000 0.000000 0.000000 0.000000 0.000000 0.000000 0.000000 0.000000 0.000000 0.000000 0.000000 0.000000 0.000000 0.000000 0.000000 0.000000 0.000000 0.000000 0.000000 0.000000 0.000000 0.000000 0.000000 0.000000
0.000000 0.000000 0.000000 0.000000 0.000000 0.000000 0.000000 0.000000 0.000000 0.000000 0.000000 0.000000 0.000000 0.000000 0.000000 0.000000 0.000000 0.000000 0.000000 0.000000 0.000000 0.000000 0.000000 0.000000 0.000000 0.000000 0.000000 0.000000 0.000000 0.000000 0.000000 0.000000 0.000000 0.000000 0.000000 0.000000 0.000000 0.000000 0.000000 0.000000 0.000000 0.000000 0.000000 0.000000 0.000000 0.000000 0.000000 0.000000 0.000000 0.000000 0.000000 0.000000 0.000000 0.000000 0.000000 0.000000 0.000000 0.000000 0.000000 0.000000 0.000000 0.000000 0.000000 0.000000 0.000000 0.000000 0.000000 0.000000 0.000000 0.000000 0.000000 0.000000 0.000000 0.000000 0.000000 0.000000 0.000000 0.000000 0.000000 0.000000 0.000000 0.000000 0.000000 0.000000 0.000000 0.000000 0.000000 0.000000 0.000000 0.000000 0.000000 0.000000 0.000000 0.000000 0.000000 0.000000 0.000000 0.000000 0.000000 0.000000 0.000000 0.000000 0.000000 0.000000 0.000000 0.000000 0.000000 0.000000 0.000000 0.000000 0.000000 0.000000 0.000000 0.000000 0.000000 0.000000 0.000000 0.000000 0.000000 0.000000 0.000000 0.000000 0.000000 0.000000 0.000000 0.000000 0.000000 0.000000 0.000000 0.000000 0.000000 0.000000 0.000000 0.000000 0.000000 0.000000 0.000000 0.000000 0.000000 0.000000 0.000000 0.000000 0.000000 0.000000 0.000000 0.000000 0.000000 0.000000 0.000000 0.000000 0.000000 0.000000 0.000000 0.000000 0.000000 0.000000 0.000000 0.000000 0.000000 0.000000 0.000000 0.000000 0.000000 0.000000 0.000000 0.000000 0.000000 0.000000 0.000000 0.000000 0.000000 0.000000 0.000000 0.000000 0.000000 0.000000 0.000000 0.000000 0.000000 0.000000 0.000000 0.000000 0.000000 0.000000 0.000000 0.000000 0.000000 0.000000 0.000000 0.000000 0.000000 0.000000 0.000000 0.000000 0.000000 0.000000 0.000000 0.000000 0.000000 0.000000
0.000000 0.000000 0.000000 0.000000 0.000000 0.000000 0.000000 0.000000 0.000000 0.000000 0.000000 0.000000 0.000000 0.000000 0.000000 0.000000 0.000000 0.000000 0.000000 0.000000 0.000000 0.000000 0.000000 0.000000 0.000000 0.000000 0.000000 0.000000 0.000000 0.000000 0.000000 0.000000 0.000000 0.000000 0.000000 0.000000 0.000000 0.000000 0.000000 0.000000 0.000000 0.000000 0.000000 0.000000 0.000000 0.000000 0.000000 0.000000 0.000000 0.000000 0.000000 0.000000 0.000000 0.000000 0.000000 0.000000 0.000000 0.000000 0.000000 0.000000 0.000000 0.000000 0.000000 0.000000 0.000000 0.000000 0.000000 0.000000 0.000000 0.000000 0.000000 0.000000 0.000000 0.000000 0.000000 0.000000 0.000000 0.000000 0.000000 0.000000 0.000000 0.000000 0.000000 0.000000 0.000000 0.000000 0.000000 0.000000 0.000000 0.000000 0.000000 0.000000 0.000000 0.000000 0.000000 0.000000 0.000000 0.000000 0.000000 0.000000 0.000000 0.000000 0.000000 0.000000 0.000000 0.000000 0.000000 0.000000 0.000000 0.000000 0.000000 0.000000 0.000000 0.000000 0.000000 0.000000 0.000000 0.000000 0.000000 0.000000 0.000000 0.000000 0.000000 0.000000 0.000000 0.000000 0.000000 0.000000 0.000000 0.000000 0.000000 0.000000 0.000000 0.000000 0.000000 0.000000 0.000000 0.000000 0.000000 0.000000 0.000000 0.000000 0.000000 0.000000 0.000000 0.000000 0.000000 0.000000 0.000000 0.000000 0.000000 0.000000 0.000000 0.000000 0.000000 0.000000 0.000000 0.000000 0.000000 0.000000 0.000000 0.000000 0.000000 0.000000 0.000000 0.000000 0.000000 0.000000 0.000000 0.000000 0.000000 0.000000 0.000000 0.000000 0.000000 0.000000 0.000000 0.000000 0.000000 0.000000 0.000000 0.000000 0.000000 0.000000 0.000000 0.000000 0.000000 0.000000 0.000000 0.000000 0.000000 0.000000 0.000000 0.000000 0.000000 0.000000 0.000000 0.000000 0.000000 0.000000
0.000000 0.000000 0.000000 0.000000 0.000000 0.000000 0.000000 0.000000 0.000000 0.000000 0.000000 0.000000 0.000000 0.000000 0.000000 0.000000 0.000000 0.000000 0.000000 0.000000 0.000000 0.000000 0.000000 0.000000 0.000000 0.000000 0.000000 0.000000 0.000000 0.000000 0.000000 0.000000 0.000000 0.000000 0.000000 0.000000 0.000000 0.000000 0.000000 0.000000 0.000000 0.000000 0.000000 0.000000 0.000000 0.000000 0.000000 0.000000 0.000000 0.000000 0.000000 0.000000 0.000000 0.000000 0.000000 0.000000 0.000000 0.000000 0.000000 0.000000 0.000000 0.000000 0.000000 0.000000 0.000000 0.000000 0.000000 0.000000 0.000000 0.000000 0.000000 0.000000 0.000000 0.000000 0.000000 0.000000 0.000000 0.000000 0.000000 0.000000 0.000000 0.000000 0.000000 0.000000 0.000000 0.000000 0.000000 0.000000 0.000000 0.000000 0.000000 0.000000 0.000000 0.000000 0.000000 0.000000 0.000000 0.000000 0.000000 0.000000 0.000000 0.000000 0.000000 0.000000 0.000000 0.000000 0.000000 0.000000 0.000000 0.000000 0.000000 0.000000 0.000000 0.000000 0.000000 0.000000 0.000000 0.000000 0.000000 0.000000 0.000000 0.000000 0.000000 0.000000 0.000000 0.000000 0.000000 0.000000 0.000000 0.000000 0.000000 0.000000 0.000000 0.000000 0.000000 0.000000 0.000000 0.000000 0.000000 0.000000 0.000000 0.000000 0.000000 0.000000 0.000000 0.000000 0.000000 0.000000 0.000000 0.000000 0.000000 0.000000 0.000000 0.000000 0.000000 0.000000 0.000000 0.000000 0.000000 0.000000 0.000000 0.000000 0.000000 0.000000 0.000000 0.000000 0.000000 0.000000 0.000000 0.000000 0.000000 0.000000 0.000000 0.000000 0.000000 0.000000 0.000000 0.000000 0.000000 0.000000 0.000000 0.000000 0.000000 0.000000 0.000000 0.000000 0.000000 0.000000 0.000000 0.000000 0.000000 0.000000 0.000000 0.000000 0.000000 0.000000 0.000000 0.000000 0.000000 0.000000
0.000000 0.000000 0.000000 0.000000 0.000000 0.000000 0.000000 0.000000 0.000000 0.000000 0.000000 0.000000 0.000000 0.000000 0.000000 0.000000 0.000000 0.000000 0.000000 0.000000 0.000000 0.000000 0.000000 0.000000 0.000000 0.000000 0.000000 0.000000 0.000000 0.000000 0.000000 0.000000 0.000000 0.000000 0.000000 0.000000 0.000000 0.000000 0.000000 0.000000 0.000000 0.000000 0.000000 0.000000 0.000000 0.000000 0.000000 0.000000 0.000000 0.000000 0.000000 0.000000 0.000000 0.000000 0.000000 0.000000 0.000000 0.000000 0.000000 0.000000 0.000000 0.000000 0.000000 0.000000 0.000000 0.000000 0.000000 0.000000 0.000000 0.000000 0.000000 0.000000 0.000000 0.000000 0.000000 0.000000 0.000000 0.000000 0.000000 0.000000 0.000000 0.000000 0.000000 0.000000 0.000000 0.000000 0.000000 0.000000 0.000000 0.000000 0.000000 0.000000 0.000000 0.000000 0.000000 0.000000 0.000000 0.000000 0.000000 0.000000 0.000000 0.000000 0.000000 0.000000 0.000000 0.000000 0.000000 0.000000 0.000000 0.000000 0.000000 0.000000 0.000000 0.000000 0.000000 0.000000 0.000000 0.000000 0.000000 0.000000 0.000000 0.000000 0.000000 0.000000 0.000000 0.000000 0.000000 0.000000 0.000000 0.000000 0.000000 0.000000 0.000000 0.000000 0.000000 0.000000 0.000000 0.000000 0.000000 0.000000 0.000000 0.000000 0.000000 0.000000 0.000000 0.000000 0.000000 0.000000 0.000000 0.000000 0.000000 0.000000 0.000000 0.000000 0.000000 0.000000 0.000000 0.000000 0.000000 0.000000 0.000000 0.000000 0.000000 0.000000 0.000000 0.000000 0.000000 0.000000 0.000000 0.000000 0.000000 0.000000 0.000000 0.000000 0.000000 0.000000 0.000000 0.000000 0.000000 0.000000 0.000000 0.000000 0.000000 0.000000 0.000000 0.000000 0.000000 0.000000 0.000000 0.000000 0.000000 0.000000 0.000000 0.000000 0.000000 0.000000 0.000000 0.000000 0.000000 0.000000
0.000000 0.000000 0.000000 0.000000 0.000000 0.000000 0.000000 0.000000 0.000000 0.000000 0.000000 0.000000 0.000000 0.000000 0.000000 0.000000 0.000000 0.000000 0.000000 0.000000 0.000000 0.000000 0.000000 0.000000 0.000000 0.000000 0.000000 0.000000 0.000000 0.000000 0.000000 0.000000 0.000000 0.000000 0.000000 0.000000 0.000000 0.000000 0.000000 0.000000 0.000000 0.000000 0.000000 0.000000 0.000000 0.000000 0.000000 0.000000 0.000000 0.000000 0.000000 0.000000 0.000000 0.000000 0.000000 0.000000 0.000000 0.000000 0.000000 0.000000 0.000000 0.000000 0.000000 0.000000 0.000000 0.000000 0.000000 0.000000 0.000000 0.000000 0.000000 0.000000 0.000000 0.000000 0.000000 0.000000 0.000000 0.000000 0.000000 0.000000 0.000000 0.000000 0.000000 0.000000 0.000000 0.000000 0.000000 0.000000 0.000000 0.000000 0.000000 0.000000 0.000000 0.000000 0.000000 0.000000 0.000000 0.000000 0.000000 0.000000 0.000000 0.000000 0.000000 0.000000 0.000000 0.000000 0.000000 0.000000 0.000000 0.000000 0.000000 0.000000 0.000000 0.000000 0.000000 0.000000 0.000000 0.000000 0.000000 0.000000 0.000000 0.000000 0.000000 0.000000 0.000000 0.000000 0.000000 0.000000 0.000000 0.000000 0.000000 0.000000 0.000000 0.000000 0.000000 0.000000 0.000000 0.000000 0.000000 0.000000 0.000000 0.000000 0.000000 0.000000 0.000000 0.000000 0.000000 0.000000 0.000000 0.000000 0.000000 0.000000 0.000000 0.000000 0.000000 0.000000 0.000000 0.000000 0.000000 0.000000 0.000000 0.000000 0.000000 0.000000 0.000000 0.000000 0.000000 0.000000 0.000000 0.000000 0.000000 0.000000 0.000000 0.000000 0.000000 0.000000 0.000000 0.000000 0.000000 0.000000 0.000000 0.000000 0.000000 0.000000 0.000000 0.000000 0.000000 0.000000 0.000000 0.000000 0.000000 0.000000 0.000000 0.000000 0.000000 0.000000 0.000000 0.000000 0.000000 0.000000
0.000000 0.000000 0.000000 0.000000 0.000000 0.000000 0.000000 0.000000 0.000000 0.000000 0.000000 0.000000 0.000000 0.000000 0.000000 0.000000 0.000000 0.000000 0.000000 0.000000 0.000000 0.000000 0.000000 0.000000 0.000000 0.000000 0.000000 0.000000 0.000000 0.000000 0.000000 0.000000 0.000000 0.000000 0.000000 0.000000 0.000000 0.000000 0.000000 0.000000 0.000000 0.000000 0.000000 0.000000 0.000000 0.000000 0.000000 0.000000 0.000000 0.000000 0.000000 0.000000 0.000000 0.000000 0.000000 0.000000 0.000000 0.000000 0.000000 0.000000 0.000000 0.000000 0.000000 0.000000 0.000000 0.000000 0.000000 0.000000 0.000000 0.000000 0.000000 0.000000 0.000000 0.000000 0.000000 0.000000 0.000000 0.000000 0.000000 0.000000 0.000000 0.000000 0.000000 0.000000 0.000000 0.000000 0.000000 0.000000 0.000000 0.000000 0.000000 0.000000 0.000000 0.000000 0.000000 0.000000 0.000000 0.000000 0.000000 0.000000 0.000000 0.000000 0.000000 0.000000 0.000000 0.000000 0.000000 0.000000 0.000000 0.000000 0.000000 0.000000 0.000000 0.000000 0.000000 0.000000 0.000000 0.000000 0.000000 0.000000 0.000000 0.000000 0.000000 0.000000 0.000000 0.000000 0.000000 0.000000 0.000000 0.000000 0.000000 0.000000 0.000000 0.000000 0.000000 0.000000 0.000000 0.000000 0.000000 0.000000 0.000000 0.000000 0.000000 0.000000 0.000000 0.000000 0.000000 0.000000 0.000000 0.000000 0.000000 0.000000 0.000000 0.000000 0.000000 0.000000 0.000000 0.000000 0.000000 0.000000 0.000000 0.000000 0.000000 0.000000 0.000000 0.000000 0.000000 0.000000 0.000000 0.000000 0.000000 0.000000 0.000000 0.000000 0.000000 0.000000 0.000000 0.000000 0.000000 0.000000 0.000000 0.000000 0.000000 0.000000 0.000000 0.000000 0.000000 0.000000 0.000000 0.000000 0.000000 0.000000 0.000000 0.000000 0.000000 0.000000 0.000000 0.000000 0.000000 0.000000
0.000000 0.000000 0.000000 0.000000 0.000000 0.000000 0.000000 0.000000 0.000000 0.000000 0.000000 0.000000 0.000000 0.000000 0.000000 0.000000 0.000000 0.000000 0.000000 0.000000 0.000000 0.000000 0.000000 0.000000 0.000000 0.000000 0.000000 0.000000 0.000000 0.000000 0.000000 0.000000 0.000000 0.000000 0.000000 0.000000 0.000000 0.000000 0.000000 0.000000 0.000000 0.000000 0.000000 0.000000 0.000000 0.000000 0.000000 0.000000 0.000000 0.000000 0.000000 0.000000 0.000000 0.000000 0.000000 0.000000 0.000000 0.000000 0.000000 0.000000 0.000000 0.000000 0.000000 0.000000 0.000000 0.000000 0.000000 0.000000 0.000000 0.000000 0.000000 0.000000 0.000000 0.000000 0.000000 0.000000 0.000000 0.000000 0.000000 0.000000 0.000000 0.000000 0.000000 0.000000 0.000000 0.000000 0.000000 0.000000 0.000000 0.000000 0.000000 0.000000 0.000000 0.000000 0.000000 0.000000 0.000000 0.000000 0.000000 0.000000 0.000000 0.000000 0.000000 0.000000 0.000000 0.000000 0.000000 0.000000 0.000000 0.000000 0.000000 0.000000 0.000000 0.000000 0.000000 0.000000 0.000000 0.000000 0.000000 0.000000 0.000000 0.000000 0.000000 0.000000 0.000000 0.000000 0.000000 0.000000 0.000000 0.000000 0.000000 0.000000 0.000000 0.000000 0.000000 0.000000 0.000000 0.000000 0.000000 0.000000 0.000000 0.000000 0.000000 0.000000 0.000000 0.000000 0.000000 0.000000 0.000000 0.000000 0.000000 0.000000 0.000000 0.000000 0.000000 0.000000 0.000000 0.000000 0.000000 0.000000 0.000000 0.000000 0.000000 0.000000 0.000000 0.000000 0.000000 0.000000 0.000000 0.000000 0.000000 0.000000 0.000000 0.000000 0.000000 0.000000 0.000000 0.000000 0.000000 0.000000 0.000000 0.000000 0.000000 0.000000 0.000000 0.000000 0.000000 0.000000 0.000000 0.000000 0.000000 0.000000 0.000000 0.000000 0.000000 0.000000 0.000000 0.000000 0.000000 0.000000
0.000000 0.000000 0.000000 0.000000 0.000000 0.000000 0.000000 0.000000 0.000000 0.000000 0.000000 0.000000 0.000000 0.000000 0.000000 0.000000 0.000000 0.000000 0.000000 0.000000 0.000000 0.000000 0.000000 0.000000 0.000000 0.000000 0.000000 0.000000 0.000000 0.000000 0.000000 0.000000 0.000000 0.000000 0.000000 0.000000 0.000000 0.000000 0.000000 0.000000 0.000000 0.000000 0.000000 0.000000 0.000000 0.000000 0.000000 0.000000 0.000000 0.000000 0.000000 0.000000 0.000000 0.000000 0.000000 0.000000 0.000000 0.000000 0.000000 0.000000 0.000000 0.000000 0.000000 0.000000 0.000000 0.000000 0.000000 0.000000 0.000000 0.000000 0.000000 0.000000 0.000000 0.000000 0.000000 0.000000 0.000000 0.000000 0.000000 0.000000 0.000000 0.000000 0.000000 0.000000 0.000000 0.000000 0.000000 0.000000 0.000000 0.000000 0.000000 0.000000 0.000000 0.000000 0.000000 0.000000 0.000000 0.000000 0.000000 0.000000 0.000000 0.000000 0.000000 0.000000 0.000000 0.000000 0.000000 0.000000 0.000000 0.000000 0.000000 0.000000 0.000000 0.000000 0.000000 0.000000 0.000000 0.000000 0.000000 0.000000 0.000000 0.000000 0.000000 0.000000 0.000000 0.000000 0.000000 0.000000 0.000000 0.000000 0.000000 0.000000 0.000000 0.000000 0.000000 0.000000 0.000000 0.000000 0.000000 0.000000 0.000000 0.000000 0.000000 0.000000 0.000000 0.000000 0.000000 0.000000 0.000000 0.000000 0.000000 0.000000 0.000000 0.000000 0.000000 0.000000 0.000000 0.000000 0.000000 0.000000 0.000000 0.000000 0.000000 0.000000 0.000000 0.000000 0.000000 0.000000 0.000000 0.000000 0.000000 0.000000 0.000000 0.000000 0.000000 0.000000 0.000000 0.000000 0.000000 0.000000 0.000000 0.000000 0.000000 0.000000 0.000000 0.000000 0.000000 0.000000 0.000000 0.000000 0.000000 0.000000 0.000000 0.000000 0.000000 0.000000 0.000000 0.000000 0.000000 1.000000
0.000000 0.000000 0.000000 0.000000 0.000000 0.000000 0.000000 0.000000 0.000000 0.000000 0.000000 0.000000 0.000000 0.000000 0.000000 0.000000 0.000000 0.000000 0.000000 0.000000 0.000000 0.000000 0.000000 0.000000 0.000000 0.000000 0.000000 0.000000 0.000000 0.000000 0.000000 0.000000 0.000000 0.000000 0.000000 0.000000 0.000000 0.000000 0.000000 0.000000 0.000000 0.000000 0.000000 0.000000 0.000000 0.000000 0.000000 0.000000 0.000000 0.000000 0.000000 0.000000 0.000000 0.000000 0.000000 0.000000 0.000000 0.000000 0.000000 0.000000 0.000000 0.000000 0.000000 0.000000 0.000000 0.000000 0.000000 0.000000 0.000000 0.000000 0.000000 0.000000 0.000000 0.000000 0.000000 0.000000 0.000000 0.000000 0.000000 0.000000 0.000000 0.000000 0.000000 0.000000 0.000000 0.000000 0.000000 0.000000 0.000000 0.000000 0.000000 0.000000 0.000000 0.000000 0.000000 0.000000 0.000000 0.000000 0.000000 0.000000 0.000000 0.000000 0.000000 0.000000 0.000000 0.000000 0.000000 0.000000 0.000000 0.000000 0.000000 0.000000 0.000000 0.000000 0.000000 0.000000 0.000000 0.000000 0.000000 0.000000 0.000000 0.000000 0.000000 0.000000 0.000000 0.000000 0.000000 0.000000 0.000000 0.000000 0.000000 0.000000 0.000000 0.000000 0.000000 0.000000 0.000000 0.000000 0.000000 0.000000 0.000000 0.000000 0.000000 0.000000 0.000000 0.000000 0.000000 0.000000 0.000000 0.000000 0.000000 0.000000 0.000000 0.000000 0.000000 0.000000 0.000000 0.000000 0.000000 0.000000 0.000000 0.000000 0.000000 0.000000 0.000000 0.000000 0.000000 0.000000 0.000000 0.000000 0.000000 0.000000 0.000000 0.000000 0.000000 0.000000 0.000000 0.000000 0.000000 0.000000 0.000000 0.000000 0.000000 0.000000 0.000000 0.000000 0.000000 0.000000 0.000000 0.000000 0.000000 0.000000 0.000000 0.000000 0.000000 0.000000 0.000000 0.000000 2.000000 2.500000
3.250000 0.500000 0.000000 0.000000 0.000000 0.000000 0.000000 0.000000 0.000000 0.000000 0.000000 0.000000 0.000000 0.000000 0.000000 0.000000 0.000000 0.000000 0.000000 0.000000 0.000000 0.000000 0.000000 0.000000 0.000000 0.000000 0.000000 0.000000 0.000000 0.000000 0.000000 0.000000 0.000000 0.000000 0.000000 0.000000 0.000000 0.000000 0.000000 0.000000 0.000000 0.000000 0.000000 0.000000 0.000000 0.000000 0.000000 0.000000 0.000000 0.000000 0.000000 0.000000 0.000000 0.000000 0.000000 0.000000 0.000000 0.000000 0.000000 0.000000 0.000000 0.000000 0.000000 0.000000 0.000000 0.000000 0.000000 0.000000 0.000000 0.000000 0.000000 0.000000 0.000000 0.000000 0.000000 0.000000 0.000000 0.000000 0.000000 0.000000 0.000000 0.000000 0.000000 0.000000 0.000000 0.000000 0.000000 0.000000 0.000000 0.000000 0.000000 0.000000 0.000000 0.000000 0.000000 0.000000 0.000000 0.000000 0.000000 0.000000 0.000000 0.000000 0.000000 0.000000 0.000000 0.000000 0.000000 0.000000 0.000000 0.000000 0.000000 0.000000 0.000000 0.000000 0.000000 0.000000 0.000000 0.000000 0.000000 0.000000 0.000000 0.000000 0.000000 0.000000 0.000000 0.000000 0.000000 0.000000 0.000000 0.000000 0.000000 0.000000 0.000000 0.000000 0.000000 0.000000 0.000000 0.000000 0.000000 0.000000 0.000000 0.000000 0.000000 0.000000 0.000000 0.000000 0.000000 0.000000 0.000000 0.000000 0.000000 0.000000 0.000000 0.000000 0.000000 0.000000 0.000000 0.000000 0.000000 0.000000 0.000000 0.000000 0.000000 0.000000 0.000000 0.000000 0.000000 0.000000 0.000000 0.000000 0.000000 0.000000 0.000000 0.000000 0.000000 0.000000 0.000000 0.000000 0.000000 0.000000 0.000000 0.000000 0.000000 0.000000 0.000000 0.000000 0.000000 0.000000 0.000000 0.000000 0.000000 0.000000 0.000000 0.000000 0.000000 0.000000 1.750000 2.500000 3.250000 3.500000
5.500000 4.750000 2.500000 1.000000 0.000000 0.000000 0.000000 0.000000 0.000000 0.000000 0.000000 0.000000 0.000000 0.000000 0.000000 0.000000 0.000000 0.000000 0.000000 0.000000 0.000000 0.000000 0.000000 0.000000 0.000000 0.000000 0.000000 0.000000 0.000000 0.000000 0.000000 0.000000 0.000000 0.000000 0.000000 0.000000 0.000000 0.000000 0.000000 0.000000 0.000000 0.000000 0.000000 0.000000 0.000000 0.000000 0.000000 0.000000 0.000000 0.000000 0.000000 0.000000 0.000000 0.000000 0.000000 0.000000 0.000000 0.000000 0.000000 0.000000 0.000000 0.000000 0.000000 0.000000 0.000000 0.000000 0.000000 0.000000 0.000000 0.000000 0.000000 0.000000 0.000000 0.000000 0.000000 0.000000 0.000000 0.000000 0.000000 0.000000 0.000000 0.000000 0.000000 0.000000 0.000000 0.000000 0.000000 0.000000 0.000000 0.000000 0.000000 0.000000 0.000000 0.000000 0.000000 0.000000 0.000000 0.000000 0.000000 0.000000 0.000000 0.000000 0.000000 0.000000 0.000000 0.000000 0.000000 0.000000 0.000000 0.000000 0.000000 0.000000 0.000000 0.000000 0.000000 0.000000 0.000000 0.000000 0.000000 0.000000 0.000000 0.000000 0.000000 0.000000 0.000000 0.000000 0.000000 0.000000 0.000000 0.000000 0.000000 0.000000 0.000000 0.000000 0.000000 0.000000 0.000000 0.000000 0.000000 0.000000 0.000000 0.000000 0.000000 0.000000 0.000000 0.000000 0.000000 0.000000 0.000000 0.000000 0.000000 0.000000 0.000000 0.000000 0.000000 0.000000 0.000000 0.000000 0.000000 0.000000 0.000000 0.000000 0.000000 0.000000 0.000000 0.000000 0.000000 0.000000 0.000000 0.000000 0.000000 0.000000 0.000000 0.000000 0.000000 0.000000 0.000000 0.000000 0.000000 0.000000 0.000000 0.000000 0.000000 0.000000 0.000000 0.000000 0.000000 0.000000 0.000000 0.000000 0.000000 0.000000 0.000000 0.000000 1.250000 2.250000 3.250000 3.500000 3.750000 5.500000
6.750000 6.250000 5.750000 4.500000 1.750000 1.250000 0.000000 0.000000 0.000000 0.000000 0.000000 0.000000 0.000000 0.000000 0.000000 0.000000 0.000000 0.000000 0.000000 0.000000 0.000000 0.000000 0.000000 0.000000 0.000000 0.000000 0.000000 0.000000 0.000000 0.000000 0.000000 0.000000 0.000000 0.000000 0.000000 0.000000 0.000000 0.000000 0.000000 0.000000 0.000000 0.000000 0.000000 0.000000 0.000000 0.000000 0.000000 0.000000 0.000000 0.000000 0.000000 0.000000 0.000000 0.000000 0.000000 0.000000 0.000000 0.000000 0.000000 0.000000 0.000000 0.000000 0.000000 0.000000 0.000000 0.000000 0.000000 0.000000 0.000000 0.000000 0.000000 0.000000 0.000000 0.000000 0.000000 0.000000 0.000000 0.000000 0.000000 0.000000 0.000000 0.000000 0.000000 0.000000 0.000000 0.000000 0.000000 0.000000 0.000000 0.000000 0.000000 0.000000 0.000000 0.000000 0.000000 0.000000 0.000000 0.000000 0.000000 0.000000 0.000000 0.000000 0.000000 0.000000 0.000000 0.000000 0.000000 0.000000 0.000000 0.000000 0.000000 0.000000 0.000000 0.000000 0.000000 0.000000 0.000000 0.000000 0.000000 0.000000 0.000000 0.000000 0.000000 0.000000 0.000000 0.000000 0.000000 0.000000 0.000000 0.000000 0.000000 0.000000 0.000000 0.000000 0.000000 0.000000 0.000000 0.000000 0.000000 0.000000 0.000000 0.000000 0.000000 0.000000 0.000000 0.000000 0.000000 0.000000 0.000000 0.000000 0.000000 0.000000 0.000000 0.000000 0.000000 0.000000 0.000000 0.000000 0.000000 0.000000 0.000000 0.000000 0.000000 0.000000 0.000000 0.000000 0.000000 0.000000 0.000000 0.000000 0.000000 0.000000 0.000000 0.000000 0.000000 0.000000 0.000000 0.000000 0.000000 0.000000 0.000000 0.000000 0.000000 0.000000 0.000000 0.000000 0.000000 0.000000 0.000000 0.000000 0.000000 0.000000 0.250000 2.250000 3.000000 3.500000 3.750000 4.250000 6.500000 7.750000
7.500000 7.250000 6.750000 6.250000 5.250000 3.750000 2.000000 1.750000 0.000000 0.000000 0.000000 0.000000 0.000000 0.000000 0.000000 0.000000 0.000000 0.000000 0.000000 0.000000 0.000000 0.000000 0.000000 0.000000 0.000000 0.000000 0.000000 0.000000 0.000000 0.000000 0.000000 0.000000 0.000000 0.000000 0.000000 0.000000 0.000000 0.000000 0.000000 0.000000 0.000000 0.000000 0.000000 0.000000 0.000000 0.000000 0.000000 0.000000 0.000000 0.000000 0.000000 0.000000 0.000000 0.000000 0.000000 0.000000 0.000000 0.000000 0.000000 0.000000 0.000000 0.000000 0.000000 0.000000 0.000000 0.000000 0.000000 0.000000 0.000000 0.000000 0.000000 0.000000 0.000000 0.000000 0.000000 0.000000 0.000000 0.000000 0.000000 0.000000 0.000000 0.000000 0.000000 0.000000 0.000000 0.000000 0.000000 0.000000 0.000000 0.000000 0.000000 0.000000 0.000000 0.000000 0.000000 0.000000 0.000000 0.000000 0.000000 0.000000 0.000000 0.000000 0.000000 0.000000 0.000000 0.000000 0.000000 0.000000 0.000000 0.000000 0.000000 0.000000 0.000000 0.000000 0.000000 0.000000 0.000000 0.000000 0.000000 0.000000 0.000000 0.000000 0.000000 0.000000 0.000000 0.000000 0.000000 0.000000 0.000000 0.000000 0.000000 0.000000 0.000000 0.000000 0.000000 0.000000 0.000000 0.000000 0.000000 0.000000 0.000000 0.000000 0.000000 0.000000 0.000000 0.000000 0.000000 0.000000 0.000000 0.000000 0.000000 0.000000 0.000000 0.000000 0.000000 0.000000 0.000000 0.000000 0.000000 0.000000 0.000000 0.000000 0.000000 0.000000 0.000000 0.000000 0.000000 0.000000 0.000000 0.000000 0.000000 0.000000 0.000000 0.000000 0.000000 0.000000 0.000000 0.000000 0.000000 0.000000 0.000000 0.000000 0.000000 0.000000 0.000000 0.000000 0.000000 0.000000 0.000000 0.000000 0.000000 2.000000 3.000000 3.500000 3.750000 4.000000 6.000000 7.750000 8.250000 8.750000
7.750000 8.000000 8.000000 7.750000 7.000000 6.250000 5.500000 2.500000 2.250000 1.750000 0.000000 0.000000 0.000000 0.000000 0.000000 0.000000 0.000000 0.000000 0.000000 0.000000 0.000000 0.000000 0.000000 0.000000 0.000000 0.000000 0.000000 0.000000 0.000000 0.000000 0.000000 0.000000 0.000000 0.000000 0.000000 0.000000 0.000000 0.000000 0.000000 0.000000 0.000000 0.000000 0.000000 0.000000 0.000000 0.000000 0.000000 0.000000 0.000000 0.000000 0.000000 0.000000 0.000000 0.000000 0.000000 0.000000 0.000000 0.000000 0.000000 0.000000 0.000000 0.000000 0.000000 0.000000 0.000000 0.000000 0.000000 0.000000 0.000000 0.000000 0.000000 0.000000 0.000000 0.000000 0.000000 0.000000 0.000000 0.000000 0.000000 0.000000 0.000000 0.000000 0.000000 0.000000 0.000000 0.000000 0.000000 0.000000 0.000000 0.000000 0.000000 0.000000 0.000000 0.000000 0.000000 0.000000 0.000000 0.000000 0.000000 0.000000 0.000000 0.000000 0.000000 0.000000 0.000000 0.000000 0.000000 0.000000 0.000000 0.000000 0.000000 0.000000 0.000000 0.000000 0.000000 0.000000 0.000000 0.000000 0.000000 0.000000 0.000000 0.000000 0.000000 0.000000 0.000000 0.000000 0.000000 0.000000 0.000000 0.000000 0.000000 0.000000 0.000000 0.000000 0.000000 0.000000 0.000000 0.000000 0.000000 0.000000 0.000000 0.000000 0.000000 0.000000 0.000000 0.000000 0.000000 0.000000 0.000000 0.000000 0.000000 0.000000 0.000000 0.000000 0.000000 0.000000 0.000000 0.000000 0.000000 0.000000 0.000000 0.000000 0.000000 0.000000 0.000000 0.000000 0.000000 0.000000 0.000000 0.000000 0.000000 0.000000 0.000000 0.000000 0.000000 0.000000 0.000000 0.000000 0.000000 0.000000 0.000000 0.000000 0.000000 0.000000 0.000000 0.000000 0.000000 0.000000 0.000000 1.500000 2.500000 3.500000 3.750000 4.250000 4.750000 7.250000 8.000000 8.750000 9.250000 9.750000
7.250000 8.000000 8.500000 8.500000 8.250000 7.750000 7.000000 6.250000 4.250000 2.500000 2.500000 1.500000 0.000000 0.000000 0.000000 0.000000 0.000000 0.000000 0.000000 0.000000 0.000000 0.000000 0.000000 0.000000 0.000000 0.000000 0.000000 0.000000 0.000000 0.000000 0.000000 0.000000 0.000000 0.000000 0.000000 0.000000 0.000000 0.000000 0.000000 0.000000 0.000000 0.000000 0.000000 0.000000 0.000000 0.000000 0.000000 0.000000 0.000000 0.000000 0.000000 0.000000 0.000000 0.000000 0.000000 0.000000 0.000000 0.000000 0.000000 0.000000 0.000000 0.000000 0.000000 0.000000 0.000000 0.000000 0.000000 0.000000 0.000000 0.000000 0.000000 0.000000 0.000000 0.000000 0.000000 0.000000 0.000000 0.000000 0.000000 0.000000 0.000000 0.000000 0.000000 0.000000 0.000000 0.000000 0.000000 0.000000 0.000000 0.000000 0.000000 0.000000 0.000000 0.000000 0.000000 0.000000 0.000000 0.000000 0.000000 0.000000 0.000000 0.000000 0.000000 0.000000 0.000000 0.000000 0.000000 0.000000 0.000000 0.000000 0.000000 0.000000 0.000000 0.000000 0.000000 0.000000 0.000000 0.000000 0.000000 0.000000 0.000000 0.000000 0.000000 0.000000 0.000000 0.000000 0.000000 0.000000 0.000000 0.000000 0.000000 0.000000 0.000000 0.000000 0.000000 0.000000 0.000000 0.000000 0.000000 0.000000 0.000000 0.000000 0.000000 0.000000 0.000000 0.000000 0.000000 0.000000 0.000000 0.000000 0.000000 0.000000 0.000000 0.000000 0.000000 0.000000 0.000000 0.000000 0.000000 0.000000 0.000000 0.000000 0.000000 0.000000 0.000000 0.000000 0.000000 0.000000 0.000000 0.000000 0.000000 0.000000 0.000000 0.000000 0.000000 0.000000 0.000000 0.000000 0.000000 0.000000 0.000000 0.000000 0.000000 0.000000 0.000000 0.000000 0.000000 0.000000 2.250000 3.250000 3.750000 4.250000 4.500000 6.500000 8.000000 8.750000 9.250000 9.500000 9.750000 9.750000
8.750000 7.750000 8.500000 8.750000 8.750000 8.750000 8.000000 7.750000 7.250000 5.500000 3.250000 2.750000 2.500000 1.250000 0.000000 0.000000 0.000000 0.000000 0.000000 0.000000 0.000000 0.000000 0.000000 0.000000 0.000000 0.000000 0.000000 0.000000 0.000000 0.000000 0.000000 0.000000 0.000000 0.000000 0.000000 0.000000 0.000000 0.000000 0.000000 0.000000 0.000000 0.000000 0.000000 0.000000 0.000000 0.000000 0.000000 0.000000 0.000000 0.000000 0.000000 0.000000 0.000000 0.000000 0.000000 0.000000 0.000000 0.000000 0.000000 0.000000 0.000000 0.000000 0.000000 0.000000 0.000000 0.000000 0.000000 0.000000 0.000000 0.000000 0.000000 0.000000 0.000000 0.000000 0.000000 0.000000 0.000000 0.000000 0.000000 0.000000 0.000000 0.000000 0.000000 0.000000 0.000000 0.000000 0.000000 0.000000 0.000000 0.000000 0.000000 0.000000 0.000000 0.000000 0.000000 0.000000 0.000000 0.000000 0.000000 0.000000 0.000000 0.000000 0.000000 0.000000 0.000000 0.000000 0.000000 0.000000 0.000000 0.000000 0.000000 0.000000 0.000000 0.000000 0.000000 0.000000 0.000000 0.000000 0.000000 0.000000 0.000000 0.000000 0.000000 0.000000 0.000000 0.000000 0.000000 0.000000 0.000000 0.000000 0.000000 0.000000 0.000000 0.000000 0.000000 0.000000 0.000000 0.000000 0.000000 0.000000 0.000000 0.000000 0.000000 0.000000 0.000000 0.000000 0.000000 0.000000 0.000000 0.000000 0.000000 0.000000 0.000000 0.000000 0.000000 0.000000 0.000000 0.000000 0.000000 0.000000 0.000000 0.000000 0.000000 0.000000 0.000000 0.000000 0.000000 0.000000 0.000000 0.000000 0.000000 0.000000 0.000000 0.000000 0.000000 0.000000 0.000000 0.000000 0.000000 0.000000 0.000000 0.000000 0.000000 0.000000 0.000000 0.000000 1.750000 3.250000 3.750000 4.500000 4.750000 5.500000 7.750000 8.750000 9.500000 10.000000 10.250000 10.250000 10.000000 10.250000
9.750000 9.750000 8.500000 9.000000 9.000000 9.250000 9.250000 8.750000 8.500000 8.000000 7.250000 5.250000 3.250000 3.000000 2.500000 0.750000 0.000000 0.000000 0.000000 0.000000 0.000000 0.000000 0.000000 0.000000 0.000000 0.000000 0.000000 0.000000 0.000000 0.000000 0.000000 0.000000 0.000000 0.000000 0.000000 0.000000 0.000000 0.000000 0.000000 0.000000 0.000000 0.000000 0.000000 0.000000 0.000000 0.000000 0.000000 0.000000 0.000000 0.000000 0.000000 0.000000 0.000000 0.000000 0.000000 0.000000 0.000000 0.000000 0.000000 0.000000 0.000000 0.000000 0.000000 0.000000 0.000000 0.000000 0.000000 0.000000 0.000000 0.000000 0.000000 0.000000 0.000000 0.000000 0.000000 0.000000 0.000000 0.000000 0.000000 0.000000 0.000000 0.000000 0.000000 0.000000 0.000000 0.000000 0.000000 0.000000 0.000000 0.000000 0.000000 0.000000 0.000000 0.000000 0.000000 0.000000 0.000000 0.000000 0.000000 0.000000 0.000000 0.000000 0.000000 0.000000 0.000000 0.000000 0.000000 0.000000 0.000000 0.000000 0.000000 0.000000 0.000000 0.000000 0.000000 0.000000 0.000000 0.000000 0.000000 0.000000 0.000000 0.000000 0.000000 0.000000 0.000000 0.000000 0.000000 0.000000 0.000000 0.000000 0.000000 0.000000 0.000000 0.000000 0.000000 0.000000 0.000000 0.000000 0.000000 0.000000 0.000000 0.000000 0.000000 0.000000 0.000000 0.000000 0.000000 0.000000 0.000000 0.000000 0.000000 0.000000 0.000000 0.000000 0.000000 0.000000 0.000000 0.000000 0.000000 0.000000 0.000000 0.000000 0.000000 0.000000 0.000000 0.000000 0.000000 0.000000 0.000000 0.000000 0.000000 0.000000 0.000000 0.000000 0.000000 0.000000 0.000000 0.000000 0.000000 0.000000 0.000000 0.000000 0.000000 0.000000 0.750000 2.750000 3.500000 4.250000 4.750000 5.000000 7.250000 8.500000 9.250000 10.000000 10.250000 10.500000 10.500000 10.500000 10.500000 10.000000
9.750000 10.000000 10.000000 10.000000 9.250000 9.250000 9.750000 9.500000 9.250000 9.000000 8.750000 8.000000 6.500000 3.500000 3.250000 3.000000 2.000000 0.000000 0.000000 0.000000 0.000000 0.000000 0.000000 0.000000 0.000000 0.000000 0.000000 0.000000 0.000000 0.000000 0.000000 0.000000 0.000000 0.000000 0.000000 0.000000 0.000000 0.000000 0.000000 0.000000 0.000000 0.000000 0.000000 0.000000 0.000000 0.000000 0.000000 0.000000 0.000000 0.000000 0.000000 0.000000 0.000000 0.000000 0.000000 0.000000 0.000000 0.000000 0.000000 0.000000 0.000000 0.000000 0.000000 0.000000 0.000000 0.000000 0.000000 0.000000 0.000000 0.000000 0.000000 0.000000 0.000000 0.000000 0.000000 0.000000 0.000000 0.000000 0.000000 0.000000 0.000000 0.000000 0.000000 0.000000 0.000000 0.000000 0.000000 0.000000 0.000000 0.000000 0.000000 0.000000 0.000000 0.000000 0.000000 0.000000 0.000000 0.000000 0.000000 0.000000 0.000000 0.000000 0.000000 0.000000 0.000000 0.000000 0.000000 0.000000 0.000000 0.000000 0.000000 0.000000 0.000000 0.000000 0.000000 0.000000 0.000000 0.000000 0.000000 0.000000 0.000000 0.000000 0.000000 0.000000 0.000000 0.000000 0.000000 0.000000 0.000000 0.000000 0.000000 0.000000 0.000000 0.000000 0.000000 0.000000 0.000000 0.000000 0.000000 0.000000 0.000000 0.000000 0.000000 0.000000 0.000000 0.000000 0.000000 0.000000 0.000000 0.000000 0.000000 0.000000 0.000000 0.000000 0.000000 0.000000 0.000000 0.000000 0.000000 0.000000 0.000000 0.000000 0.000000 0.000000 0.000000 0.000000 0.000000 0.000000 0.000000 0.000000 0.000000 0.000000 0.000000 0.000000 0.000000 0.000000 0.000000 0.000000 0.000000 0.000000 0.000000 0.000000 0.000000 2.250000 3.500000 4.000000 4.750000 5.000000 6.250000 8.250000 9.500000 10.000000 10.500000 10.500000 10.500000 10.750000 10.500000 10.500000 10.500000 11.500000
9.500000 9.500000 10.000000 10.250000 11.000000 10.250000 9.750000 10.000000 10.000000 9.750000 9.500000 9.250000 8.750000 7.500000 6.000000 4.000000 3.250000 2.750000 1.750000 0.000000 0.000000 0.000000 0.000000 0.000000 0.000000 0.000000 0.000000 0.000000 0.000000 0.000000 0.000000 0.000000 0.000000 0.000000 0.000000 0.000000 0.000000 0.000000 0.000000 0.000000 0.000000 0.000000 0.000000 0.000000 0.000000 0.000000 0.000000 0.000000 0.000000 0.000000 0.000000 0.000000 0.000000 0.000000 0.000000 0.000000 0.000000 0.000000 0.000000 0.000000 0.000000 0.000000 0.000000 0.000000 0.000000 0.000000 0.000000 0.000000 0.000000 0.000000 0.000000 0.000000 0.000000 0.000000 0.000000 0.000000 0.000000 0.000000 0.000000 0.000000 0.000000 0.000000 0.000000 0.000000 0.000000 0.000000 0.000000 0.000000 0.000000 0.000000 0.000000 0.000000 0.000000 0.000000 0.000000 0.000000 0.000000 0.000000 0.000000 0.000000 0.000000 0.000000 0.000000 0.000000 0.000000 0.000000 0.000000 0.000000 0.000000 0.000000 0.000000 0.000000 0.000000 0.000000 0.000000 0.000000 0.000000 0.000000 0.000000 0.000000 0.000000 0.000000 0.000000 0.000000 0.000000 0.000000 0.000000 0.000000 0.000000 0.000000 0.000000 0.000000 0.000000 0.000000 0.000000 0.000000 0.000000 0.000000 0.000000 0.000000 0.000000 0.000000 0.000000 0.000000 0.000000 0.000000 0.000000 0.000000 0.000000 0.000000 0.000000 0.000000 0.000000 0.000000 0.000000 0.000000 0.000000 0.000000 0.000000 0.000000 0.000000 0.000000 0.000000 0.000000 0.000000 0.000000 0.000000 0.000000 0.000000 0.000000 0.000000 0.000000 0.000000 0.000000 0.000000 0.000000 0.000000 0.000000 0.000000 0.000000 0.000000 1.500000 3.000000 4.000000 4.750000 5.000000 5.250000 7.750000 8.750000 10.000000 10.250000 10.750000 11.250000 11.000000 10.750000 10.750000 10.500000 11.500000 11.500000 9.500000
9.000000 9.500000 9.750000 10.000000 10.250000 11.250000 11.500000 10.000000 10.250000 10.500000 10.250000 10.000000 9.750000 9.250000 8.250000 7.500000 4.250000 4.000000 3.500000 2.750000 1.000000 0.000000 0.000000 0.000000 0.000000 0.000000 0.000000 0.000000 0.000000 0.000000 0.000000 0.000000 0.000000 0.000000 0.000000 0.000000 0.000000 0.000000 0.000000 0.000000 0.000000 0.000000 0.000000 0.000000 0.000000 0.000000 0.000000 0.000000 0.000000 0.000000 0.000000 0.000000 0.000000 0.000000 0.000000 0.000000 0.000000 0.000000 0.000000 0.000000 0.000000 0.000000 0.000000 0.000000 0.000000 0.000000 0.000000 0.000000 0.000000 0.000000 0.000000 0.000000 0.000000 0.000000 0.000000 0.000000 0.000000 0.000000 0.000000 0.000000 0.000000 0.000000 0.000000 0.000000 0.000000 0.000000 0.000000 0.000000 0.000000 0.000000 0.000000 0.000000 0.000000 0.000000 0.000000 0.000000 0.000000 0.000000 0.000000 0.000000 0.000000 0.000000 0.000000 0.000000 0.000000 0.000000 0.000000 0.000000 0.000000 0.000000 0.000000 0.000000 0.000000 0.000000 0.000000 0.000000 0.000000 0.000000 0.000000 0.000000 0.000000 0.000000 0.000000 0.000000 0.000000 0.000000 0.000000 0.000000 0.000000 0.000000 0.000000 0.000000 0.000000 0.000000 0.000000 0.000000 0.000000 0.000000 0.000000 0.000000 0.000000 0.000000 0.000000 0.000000 0.000000 0.000000 0.000000 0.000000 0.000000 0.000000 0.000000 0.000000 0.000000 0.000000 0.000000 0.000000 0.000000 0.000000 0.000000 0.000000 0.000000 0.000000 0.000000 0.000000 0.000000 0.000000 0.000000 0.000000 0.000000 0.000000 0.000000 0.000000 0.000000 0.000000 0.000000 0.000000 0.000000 0.000000 0.000000 0.000000 2.500000 3.750000 4.250000 5.000000 5.250000 6.750000 9.000000 9.500000 10.500000 11.000000 11.000000 11.000000 11.250000 11.000000 11.000000 11.750000 12.250000 10.500000 9.250000 8.250000
8.750000 9.000000 9.250000 9.750000 9.750000 10.250000 11.500000 12.250000 11.750000 10.500000 10.750000 10.500000 10.750000 10.500000 9.750000 9.000000 8.500000 6.250000 4.250000 4.000000 3.250000 2.250000 0.000000 0.000000 0.000000 0.000000 0.000000 0.000000 0.000000 0.000000 0.000000 0.000000 0.000000 0.000000 0.000000 0.000000 0.000000 0.000000 0.000000 0.000000 0.000000 0.000000 0.000000 0.000000 0.000000 0.000000 0.000000 0.000000 0.000000 0.000000 0.000000 0.000000 0.000000 0.000000 0.000000 0.000000 0.000000 0.000000 0.000000 0.000000 0.000000 0.000000 0.000000 0.000000 0.000000 0.000000 0.000000 0.000000 0.000000 0.000000 0.000000 0.000000 0.000000 0.000000 0.000000 0.000000 0.000000 0.000000 0.000000 0.000000 0.000000 0.000000 0.000000 0.000000 0.000000 0.000000 0.000000 0.000000 0.000000 0.000000 0.000000 0.000000 0.000000 0.000000 0.000000 0.000000 0.000000 0.000000 0.000000 0.000000 0.000000 0.000000 0.000000 0.000000 0.000000 0.000000 0.000000 0.000000 0.000000 0.000000 0.000000 0.000000 0.000000 0.000000 0.000000 0.000000 0.000000 0.000000 0.000000 0.000000 0.000000 0.000000 0.000000 0.000000 0.000000 0.000000 0.000000 0.000000 0.000000 0.000000 0.000000 0.000000 0.000000 0.000000 0.000000 0.000000 0.000000 0.000000 0.000000 0.000000 0.000000 0.000000 0.000000 0.000000 0.000000 0.000000 0.000000 0.000000 0.000000 0.000000 0.000000 0.000000 0.000000 0.000000 0.000000 0.000000 0.000000 0.000000 0.000000 0.000000 0.000000 0.000000 0.000000 0.000000 0.000000 0.000000 0.000000 0.000000 0.000000 0.000000 0.000000 0.000000 0.000000 0.000000 0.000000 0.000000 0.000000 0.000000 1.750000 3.250000 4.250000 5.000000 5.500000 5.750000 8.250000 9.750000 10.500000 11.000000 11.500000 11.250000 11.500000 11.500000 11.500000 11.000000 12.500000 12.000000 9.750000 9.000000 8.000000 7.500000
7.750000 8.750000 9.000000 9.250000 9.250000 9.750000 10.000000 11.250000 12.500000 12.500000 11.000000 11.000000 11.250000 11.000000 10.750000 10.500000 10.000000 9.250000 7.750000 4.750000 4.500000 4.000000 3.250000 1.750000 0.000000 0.000000 0.000000 0.000000 0.000000 0.000000 0.000000 0.000000 0.000000 0.000000 0.000000 0.000000 0.000000 0.000000 0.000000 0.000000 0.000000 0.000000 0.000000 0.000000 0.000000 0.000000 0.000000 0.000000 0.000000 0.000000 0.000000 0.000000 0.000000 0.000000 0.000000 0.000000 0.000000 0.000000 0.000000 0.000000 0.000000 0.000000 0.000000 0.000000 0.000000 0.000000 0.000000 0.000000 0.000000 0.000000 0.000000 0.000000 0.000000 0.000000 0.000000 0.000000 0.000000 0.000000 0.000000 0.000000 0.000000 0.000000 0.000000 0.000000 0.000000 0.000000 0.000000 0.000000 0.000000 0.000000 0.000000 0.000000 0.000000 0.000000 0.000000 0.000000 0.000000 0.000000 0.000000 0.000000 0.000000 0.000000 0.000000 0.000000 0.000000 0.000000 0.000000 0.000000 0.000000 0.000000 0.000000 0.000000 0.000000 0.000000 0.000000 0.000000 0.000000 0.000000 0.000000 0.000000 0.000000 0.000000 0.000000 0.000000 0.000000 0.000000 0.000000 0.000000 0.000000 0.000000 0.000000 0.000000 0.000000 0.000000 0.000000 0.000000 0.000000 0.000000 0.000000 0.000000 0.000000 0.000000 0.000000 0.000000 0.000000 0.000000 0.000000 0.000000 0.000000 0.000000 0.000000 0.000000 0.000000 0.000000 0.000000 0.000000 0.000000 0.000000 0.000000 0.000000 0.000000 0.000000 0.000000 0.000000 0.000000 0.000000 0.000000 0.000000 0.000000 0.000000 0.000000 0.000000 0.000000 0.000000 0.000000 0.000000 0.000000 2.750000 4.000000 4.750000 5.500000 5.750000 7.250000 9.250000 10.250000 11.000000 11.750000 11.750000 11.750000 11.750000 11.750000 11.500000 12.750000 13.000000 10.750000 9.250000 8.750000 7.500000 7.500000 7.500000
6.500000 7.500000 8.500000 8.500000 9.000000 9.500000 9.500000 10.000000 11.000000 12.750000 13.000000 13.000000 11.250000 11.250000 11.250000 11.500000 10.750000 10.500000 10.000000 8.750000 7.000000 4.750000 4.500000 4.000000 2.750000 0.250000 0.000000 0.000000 0.000000 0.000000 0.000000 0.000000 0.000000 0.000000 0.000000 0.000000 0.000000 0.000000 0.000000 0.000000 0.000000 0.000000 0.000000 0.000000 0.000000 0.000000 0.000000 0.000000 0.000000 0.000000 0.000000 0.000000 0.000000 0.000000 0.000000 0.000000 0.000000 0.000000 0.000000 0.000000 0.000000 0.000000 0.000000 0.000000 0.000000 0.000000 0.000000 0.000000 0.000000 0.000000 0.000000 0.000000 0.000000 0.000000 0.000000 0.000000 0.000000 0.000000 0.000000 0.000000 0.000000 0.000000 0.000000 0.000000 0.000000 0.000000 0.000000 0.000000 0.000000 0.000000 0.000000 0.000000 0.000000 0.000000 0.000000 0.000000 0.000000 0.000000 0.000000 0.000000 0.000000 0.000000 0.000000 0.000000 0.000000 0.000000 0.000000 0.000000 0.000000 0.000000 0.000000 0.000000 0.000000 0.000000 0.000000 0.000000 0.000000 0.000000 0.000000 0.000000 0.000000 0.000000 0.000000 0.000000 0.000000 0.000000 0.000000 0.000000 0.000000 0.000000 0.000000 0.000000 0.000000 0.000000 0.000000 0.000000 0.000000 0.000000 0.000000 0.000000 0.000000 0.000000 0.000000 0.000000 0.000000 0.000000 0.000000 0.000000 0.000000 0.000000 0.000000 0.000000 0.000000 0.000000 0.000000 0.000000 0.000000 0.000000 0.000000 0.000000 0.000000 0.000000 0.000000 0.000000 0.000000 0.000000 0.000000 0.000000 0.000000 0.000000 0.000000 0.000000 0.000000 0.000000 0.000000 2.000000 3.500000 4.500000 5.250000 5.750000 6.000000 9.000000 10.250000 11.000000 11.750000 12.000000 11.750000 12.000000 12.000000 12.000000 12.500000 13.500000 13.000000 9.750000 9.250000 8.750000 7.500000 7.250000 7.500000 7.000000
4.250000 5.750000 7.000000 7.750000 8.250000 9.000000 9.500000 9.500000 9.500000 10.750000 12.750000 14.000000 13.750000 12.750000 11.750000 11.750000 11.500000 11.500000 11.250000 10.500000 9.750000 8.250000 5.000000 4.750000 4.250000 3.500000 2.250000 0.000000 0.000000 0.000000 0.000000 0.000000 0.000000 0.000000 0.000000 0.000000 0.000000 0.000000 0.000000 0.000000 0.000000 0.000000 0.000000 0.000000 0.000000 0.000000 0.000000 0.000000 0.000000 0.000000 0.000000 0.000000 0.000000 0.000000 0.000000 0.000000 0.000000 0.000000 0.000000 0.000000 0.000000 0.000000 0.000000 0.000000 0.000000 0.000000 0.000000 0.000000 0.000000 0.000000 0.000000 0.000000 0.000000 0.000000 0.000000 0.000000 0.000000 0.000000 0.000000 0.000000 0.000000 0.000000 0.000000 0.000000 0.000000 0.000000 0.000000 0.000000 0.000000 0.000000 0.000000 0.000000 0.000000 0.000000 0.000000 0.000000 0.000000 0.000000 0.000000 0.000000 0.000000 0.000000 0.000000 0.000000 0.000000 0.000000 0.000000 0.000000 0.000000 0.000000 0.000000 0.000000 0.000000 0.000000 0.000000 0.000000 0.000000 0.000000 0.000000 0.000000 0.000000 0.000000 0.000000 0.000000 0.000000 0.000000 0.000000 0.000000 0.000000 0.000000 0.000000 0.000000 0.000000 0.000000 0.000000 0.000000 0.000000 0.000000 0.000000 0.000000 0.000000 0.000000 0.000000 0.000000 0.000000 0.000000 0.000000 0.000000 0.000000 0.000000 0.000000 0.000000 0.000000 0.000000 0.000000 0.000000 0.000000 0.000000 0.000000 0.000000 0.000000 0.000000 0.000000 0.000000 0.000000 0.000000 0.000000 0.000000 0.000000 0.000000 0.000000 0.000000 0.000000 0.000000 3.000000 4.250000 5.000000 5.750000 6.000000 7.750000 9.750000 11.000000 11.500000 11.750000 12.000000 12.250000 12.500000 12.250000 12.000000 13.500000 13.750000 10.750000 9.750000 9.000000 8.750000 7.250000 7.750000 7.500000 7.000000 6.500000
5.750000 5.500000 4.000000 6.500000 7.500000 8.000000 9.000000 9.500000 9.500000 9.750000 10.250000 12.250000 14.000000 14.250000 14.000000 12.000000 12.000000 11.750000 11.750000 11.750000 11.500000 10.500000 9.250000 7.750000 5.250000 4.750000 4.250000 3.000000 1.250000 0.000000 0.000000 0.000000 0.000000 0.000000 0.000000 0.000000 0.000000 0.000000 0.000000 0.000000 0.000000 0.000000 0.000000 0.000000 0.000000 0.000000 0.000000 0.000000 0.000000 0.000000 0.000000 0.000000 0.000000 0.000000 0.000000 0.000000 0.000000 0.000000 0.000000 0.000000 0.000000 0.000000 0.000000 0.000000 0.000000 0.000000 0.000000 0.000000 0.000000 0.000000 0.000000 0.000000 0.000000 0.000000 0.000000 0.000000 0.000000 0.000000 0.000000 0.000000 0.000000 0.000000 0.000000 0.000000 0.000000 0.000000 0.000000 0.000000 0.000000 0.000000 0.000000 0.000000 0.000000 0.000000 0.000000 0.000000 0.000000 0.000000 0.000000 0.000000 0.000000 0.000000 0.000000 0.000000 0.000000 0.000000 0.000000 0.000000 0.000000 0.000000 0.000000 0.000000 0.000000 0.000000 0.000000 0.000000 0.000000 0.000000 0.000000 0.000000 0.000000 0.000000 0.000000 0.000000 0.000000 0.000000 0.000000 0.000000 0.000000 0.000000 0.000000 0.000000 0.000000 0.000000 0.000000 0.000000 0.000000 0.000000 0.000000 0.000000 0.000000 0.000000 0.000000 0.000000 0.000000 0.000000 0.000000 0.000000 0.000000 0.000000 0.000000 0.000000 0.000000 0.000000 0.000000 0.000000 0.000000 0.000000 0.000000 0.000000 0.000000 0.000000 0.000000 0.000000 0.000000 0.000000 0.000000 0.000000 0.000000 0.000000 0.000000 0.000000 2.000000 3.750000 4.750000 5.500000 6.000000 6.250000 9.000000 11.000000 11.500000 12.250000 12.250000 12.250000 12.500000 12.750000 12.000000 13.750000 14.250000 13.500000 10.000000 9.500000 9.000000 8.250000 7.500000 7.500000 7.500000 7.000000 6.000000 5.000000
6.500000 6.250000 5.750000 5.750000 5.500000 7.000000 8.000000 8.500000 9.000000 9.250000 10.000000 10.000000 12.000000 13.500000 14.750000 15.000000 14.250000 12.250000 12.500000 12.250000 12.250000 12.000000 11.250000 10.250000 9.250000 5.750000 5.250000 4.750000 4.000000 2.500000 0.000000 0.000000 0.000000 0.000000 0.000000 0.000000 0.000000 0.000000 0.000000 0.000000 0.000000 0.000000 0.000000 0.000000 0.000000 0.000000 0.000000 0.000000 0.000000 0.000000 0.000000 0.000000 0.000000 0.000000 0.000000 0.000000 0.000000 0.000000 0.000000 0.000000 0.000000 0.000000 0.000000 0.000000 0.000000 0.000000 0.000000 0.000000 0.000000 0.000000 0.000000 0.000000 0.000000 0.000000 0.000000 0.000000 0.000000 0.000000 0.000000 0.000000 0.000000 0.000000 0.000000 0.000000 0.000000 0.000000 0.000000 0.000000 0.000000 0.000000 0.000000 0.000000 0.000000 0.000000 0.000000 0.000000 0.000000 0.000000 0.000000 0.000000 0.000000 0.000000 0.000000 0.000000 0.000000 0.000000 0.000000 0.000000 0.000000 0.000000 0.000000 0.000000 0.000000 0.000000 0.000000 0.000000 0.000000 0.000000 0.000000 0.000000 0.000000 0.000000 0.000000 0.000000 0.000000 0.000000 0.000000 0.000000 0.000000 0.000000 0.000000 0.000000 0.000000 0.000000 0.000000 0.000000 0.000000 0.000000 0.000000 0.000000 0.000000 0.000000 0.000000 0.000000 0.000000 0.000000 0.000000 0.000000 0.000000 0.000000 0.000000 0.000000 0.000000 0.000000 0.000000 0.000000 0.000000 0.000000 0.000000 0.000000 0.000000 0.000000 0.000000 0.000000 0.000000 0.000000 0.000000 0.000000 0.000000 0.000000 0.000000 3.250000 4.250000 5.250000 6.000000 6.250000 8.500000 10.500000 11.500000 12.250000 12.500000 12.750000 12.750000 12.500000 12.500000 13.000000 14.500000 14.500000 10.500000 9.500000 9.750000 8.750000 8.000000 7.500000 7.250000 7.250000 6.750000 5.750000 4.000000 4.500000
6.500000 6.750000 6.500000 6.250000 5.750000 5.250000 6.250000 7.500000 8.000000 8.750000 9.000000 9.500000 10.000000 11.250000 13.000000 15.000000 15.500000 15.000000 12.750000 12.750000 12.750000 12.500000 12.500000 12.000000 11.500000 10.250000 8.000000 5.750000 5.250000 4.750000 3.500000 1.500000 0.000000 0.000000 0.000000 0.000000 0.000000 0.000000 0.000000 0.000000 0.000000 0.000000 0.000000 0.000000 0.000000 0.000000 0.000000 0.000000 0.000000 0.000000 0.000000 0.000000 0.000000 0.000000 0.000000 0.000000 0.000000 0.000000 0.000000 0.000000 0.000000 0.000000 0.000000 0.000000 0.000000 0.000000 0.000000 0.000000 0.000000 0.000000 0.000000 0.000000 0.000000 0.000000 0.000000 0.000000 0.000000 0.000000 0.000000 0.000000 0.000000 0.000000 0.000000 0.000000 0.000000 0.000000 0.000000 0.000000 0.000000 0.000000 0.000000 0.000000 0.000000 0.000000 0.000000 0.000000 0.000000 0.000000 0.000000 0.000000 0.000000 0.000000 0.000000 0.000000 0.000000 0.000000 0.000000 0.000000 0.000000 0.000000 0.000000 0.000000 0.000000 0.000000 0.000000 0.000000 0.000000 0.000000 0.000000 0.000000 0.000000 0.000000 0.000000 0.000000 0.000000 0.000000 0.000000 0.000000 0.000000 0.000000 0.000000 0.000000 0.000000 0.000000 0.000000 0.000000 0.000000 0.000000 0.000000 0.000000 0.000000 0.000000 0.000000 0.000000 0.000000 0.000000 0.000000 0.000000 0.000000 0.000000 0.000000 0.000000 0.000000 0.000000 0.000000 0.000000 0.000000 0.000000 0.000000 0.000000 0.000000 0.000000 0.000000 0.000000 0.000000 0.000000 0.000000 0.000000 0.000000 2.250000 4.000000 5.000000 6.000000 6.250000 6.750000 10.000000 11.250000 12.250000 12.500000 13.000000 13.000000 13.000000 12.750000 12.750000 14.250000 15.000000 11.750000 9.750000 9.750000 9.250000 9.000000 7.500000 7.500000 7.500000 6.750000 6.250000 5.000000 4.500000 5.250000 6.000000
6.500000 6.750000 6.500000 6.750000 6.750000 6.500000 5.750000 6.000000 6.750000 7.750000 8.750000 9.250000 9.750000 9.500000 11.500000 12.250000 14.000000 15.750000 15.750000 15.250000 13.000000 13.250000 13.250000 13.000000 12.250000 12.250000 11.000000 9.500000 6.250000 5.500000 5.250000 4.250000 3.000000 0.000000 0.000000 0.000000 0.000000 0.000000 0.000000 0.000000 0.000000 0.000000 0.000000 0.000000 0.000000 0.000000 0.000000 0.000000 0.000000 0.000000 0.000000 0.000000 0.000000 0.000000 0.000000 0.000000 0.000000 0.000000 0.000000 0.000000 0.000000 0.000000 0.000000 0.000000 0.000000 0.000000 0.000000 0.000000 0.000000 0.000000 0.000000 0.000000 0.000000 0.000000 0.000000 0.000000 0.000000 0.000000 0.000000 0.000000 0.000000 0.000000 0.000000 0.000000 0.000000 0.000000 0.000000 0.000000 0.000000 0.000000 0.000000 0.000000 0.000000 0.000000 0.000000 0.000000 0.000000 0.000000 0.000000 0.000000 0.000000 0.000000 0.000000 0.000000 0.000000 0.000000 0.000000 0.000000 0.000000 0.000000 0.000000 0.000000 0.000000 0.000000 0.000000 0.000000 0.000000 0.000000 0.000000 0.000000 0.000000 0.000000 0.000000 0.000000 0.000000 0.000000 0.000000 0.000000 0.000000 0.000000 0.000000 0.000000 0.000000 0.000000 0.000000 0.000000 0.000000 0.000000 0.000000 0.000000 0.000000 0.000000 0.000000 0.000000 0.000000 0.000000 0.000000 0.000000 0.000000 0.000000 0.000000 0.000000 0.000000 0.000000 0.000000 0.000000 0.000000 0.000000 0.000000 0.000000 0.000000 0.000000 0.000000 0.000000 0.000000 0.000000 0.000000 0.000000 3.250000 4.750000 5.500000 6.250000 6.750000 9.000000 11.250000 12.250000 12.500000 13.000000 13.500000 13.500000 13.000000 13.000000 14.500000 15.500000 15.250000 10.000000 9.750000 10.000000 9.250000 9.250000 7.750000 7.250000 7.250000 6.500000 5.500000 4.250000 5.250000 6.000000 6.250000 6.500000
6.250000 6.500000 6.750000 6.750000 7.000000 7.000000 6.750000 6.500000 5.750000 6.500000 7.250000 8.250000 8.750000 9.250000 9.750000 11.000000 12.000000 13.500000 15.750000 16.250000 16.250000 14.500000 13.500000 13.500000 13.500000 13.250000 12.500000 11.750000 10.750000 8.500000 6.250000 5.500000 4.750000 3.750000 1.750000 0.000000 0.000000 0.000000 0.000000 0.000000 0.000000 0.000000 0.000000 0.000000 0.000000 0.000000 0.000000 0.000000 0.000000 0.000000 0.000000 0.000000 0.000000 0.000000 0.000000 0.000000 0.000000 0.000000 0.000000 0.000000 0.000000 0.000000 0.000000 0.000000 0.000000 0.000000 0.000000 0.000000 0.000000 0.000000 0.000000 0.000000 0.000000 0.000000 0.000000 0.000000 0.000000 0.000000 0.000000 0.000000 0.000000 0.000000 0.000000 0.000000 0.000000 0.000000 0.000000 0.000000 0.000000 0.000000 0.000000 0.000000 0.000000 0.000000 0.000000 0.000000 0.000000 0.000000 0.000000 0.000000 0.000000 0.000000 0.000000 0.000000 0.000000 0.000000 0.000000 0.000000 0.000000 0.000000 0.000000 0.000000 0.000000 0.000000 0.000000 0.000000 0.000000 0.000000 0.000000 0.000000 0.000000 0.000000 0.000000 0.000000 0.000000 0.000000 0.000000 0.000000 0.000000 0.000000 0.000000 0.000000 0.000000 0.000000 0.000000 0.000000 0.000000 0.000000 0.000000 0.000000 0.000000 0.000000 0.000000 0.000000 0.000000 0.000000 0.000000 0.000000 0.000000 0.000000 0.000000 0.000000 0.000000 0.000000 0.000000 0.000000 0.000000 0.000000 0.000000 0.000000 0.000000 0.000000 0.000000 0.000000 0.000000 0.000000 2.250000 4.250000 5.250000 6.000000 6.750000 7.250000 10.500000 12.000000 13.000000 13.500000 13.500000 13.750000 13.750000 13.500000 13.250000 15.750000 15.500000 10.000000 9.750000 9.750000 9.750000 9.500000 8.500000 7.500000 7.250000 6.750000 6.000000 5.000000 5.250000 6.000000 6.250000 6.500000 6.750000 6.500000
5.750000 6.000000 6.500000 6.750000 6.750000 7.000000 7.250000 7.000000 6.750000 6.250000 6.500000 6.750000 8.000000 8.750000 9.250000 9.750000 10.750000 12.000000 13.000000 15.000000 17.000000 16.750000 16.250000 13.750000 14.000000 14.000000 13.750000 13.250000 12.750000 11.750000 10.000000 6.750000 6.000000 5.500000 4.750000 3.000000 0.000000 0.000000 0.000000 0.000000 0.000000 0.000000 0.000000 0.000000 0.000000 0.000000 0.000000 0.000000 0.000000 0.000000 0.000000 0.000000 0.000000 0.000000 0.000000 0.000000 0.000000 0.000000 0.000000 0.000000 0.000000 0.000000 0.000000 0.000000 0.000000 0.000000 0.000000 0.000000 0.000000 0.000000 0.000000 0.000000 0.000000 0.000000 0.000000 0.000000 0.000000 0.000000 0.000000 0.000000 0.000000 0.000000 0.000000 0.000000 0.000000 0.000000 0.000000 0.000000 0.000000 0.000000 0.000000 0.000000 0.000000 0.000000 0.000000 0.000000 0.000000 0.000000 0.000000 0.000000 0.000000 0.000000 0.000000 0.000000 0.000000 0.000000 0.000000 0.000000 0.000000 0.000000 0.000000 0.000000 0.000000 0.000000 0.000000 0.000000 0.000000 0.000000 0.000000 0.000000 0.000000 0.000000 0.000000 0.000000 0.000000 0.000000 0.000000 0.000000 0.000000 0.000000 0.000000 0.000000 0.000000 0.000000 0.000000 0.000000 0.000000 0.000000 0.000000 0.000000 0.000000 0.000000 0.000000 0.000000 0.000000 0.000000 0.000000 0.000000 0.000000 0.000000 0.000000 0.000000 0.000000 0.000000 0.000000 0.000000 0.000000 0.000000 0.000000 0.000000 0.000000 0.000000 0.000000 0.000000 1.000000 4.750000 6.250000 7.000000 6.750000 7.000000 9.500000 11.250000 12.500000 13.500000 14.000000 13.750000 14.250000 13.750000 13.750000 15.250000 16.250000 15.750000 9.500000 10.000000 10.000000 10.000000 9.750000 7.750000 7.500000 7.250000 6.500000 5.500000 5.250000 5.750000 6.250000 6.500000 6.750000 6.500000 6.500000 6.250000
4.750000 5.500000 6.000000 6.250000 6.500000 7.000000 7.000000 7.250000 7.250000 7.000000 6.750000 6.250000 7.500000 7.250000 8.250000 9.250000 9.250000 10.250000 12.000000 12.750000 13.750000 16.750000 17.250000 17.500000 15.500000 14.250000 14.000000 14.000000 13.750000 13.250000 12.500000 11.250000 9.000000 6.750000 6.000000 5.250000 4.000000 2.000000 0.000000 0.000000 0.000000 0.000000 0.000000 0.000000 0.000000 0.000000 0.000000 0.000000 0.000000 0.000000 0.000000 0.000000 0.000000 0.000000 0.000000 0.000000 0.000000 0.000000 0.000000 0.000000 0.000000 0.000000 0.000000 0.000000 0.000000 0.000000 0.000000 0.000000 0.000000 0.000000 0.000000 0.000000 0.000000 0.000000 0.000000 0.000000 0.000000 0.000000 0.000000 0.000000 0.000000 0.000000 0.000000 0.000000 0.000000 0.000000 0.000000 0.000000 0.000000 0.000000 0.000000 0.000000 0.000000 0.000000 0.000000 0.000000 0.000000 0.000000 0.000000 0.000000 0.000000 0.000000 0.000000 0.000000 0.000000 0.000000 0.000000 0.000000 0.000000 0.000000 0.000000 0.000000 0.000000 0.000000 0.000000 0.000000 0.000000 0.000000 0.000000 0.000000 0.000000 0.000000 0.000000 0.000000 0.000000 0.000000 0.000000 0.000000 0.000000 0.000000 0.000000 0.000000 0.000000 0.000000 0.000000 0.000000 0.000000 0.000000 0.000000 0.000000 0.000000 0.000000 0.000000 0.000000 0.000000 0.000000 0.000000 0.000000 0.000000 0.000000 0.000000 0.000000 0.000000 0.000000 0.000000 0.000000 0.000000 0.000000 0.000000 0.000000 0.000000 0.000000 1.750000 4.750000 6.750000 7.750000 8.250000 8.250000 7.750000 10.750000 12.500000 13.250000 14.000000 14.500000 14.250000 14.250000 14.250000 15.000000 16.250000 16.500000 8.750000 9.750000 10.000000 10.250000 9.750000 9.250000 7.750000 7.250000 6.750000 6.000000 5.750000 6.000000 6.250000 6.500000 6.750000 7.000000 6.500000 6.750000 6.250000 5.750000
3.250000 4.250000 4.750000 5.500000 6.000000 6.500000 6.500000 7.250000 7.000000 7.500000 7.250000 7.000000 7.000000 6.500000 8.000000 8.000000 8.500000 9.250000 9.500000 11.500000 12.750000 13.500000 15.750000 18.000000 18.000000 17.250000 14.500000 14.500000 14.500000 14.500000 14.000000 13.250000 12.250000 10.250000 7.000000 6.500000 6.000000 4.750000 3.250000 0.000000 0.000000 0.000000 0.000000 0.000000 0.000000 0.000000 0.000000 0.000000 0.000000 0.000000 0.000000 0.000000 0.000000 0.000000 0.000000 0.000000 0.000000 0.000000 0.000000 0.000000 0.000000 0.000000 0.000000 0.000000 0.000000 0.000000 0.000000 0.000000 0.000000 0.000000 0.000000 0.000000 0.000000 0.000000 0.000000 0.000000 0.000000 0.000000 0.000000 0.000000 0.000000 0.000000 0.000000 0.000000 0.000000 0.000000 0.000000 0.000000 0.000000 0.000000 0.000000 0.000000 0.000000 0.000000 0.000000 0.000000 0.000000 0.000000 0.000000 0.000000 0.000000 0.000000 0.000000 0.000000 0.000000 0.000000 0.000000 0.000000 0.000000 0.000000 0.000000 0.000000 0.000000 0.000000 0.000000 0.000000 0.000000 0.000000 0.000000 0.000000 0.000000 0.000000 0.000000 0.000000 0.000000 0.000000 0.000000 0.000000 0.000000 0.000000 0.000000 0.000000 0.000000 0.000000 0.000000 0.000000 0.000000 0.000000 0.000000 0.000000 0.000000 0.000000 0.000000 0.000000 0.000000 0.000000 0.000000 0.000000 0.000000 0.000000 0.000000 0.000000 0.000000 0.000000 0.000000 0.000000 0.000000 0.000000 0.000000 0.000000 2.000000 2.750000 6.750000 8.250000 9.000000 9.250000 9.500000 10.250000 12.000000 13.250000 14.000000 14.750000 14.500000 14.500000 14.250000 14.000000 16.250000 16.750000 12.000000 8.500000 10.000000 10.500000 10.250000 9.750000 9.000000 7.750000 7.250000 6.500000 6.500000 6.000000 6.500000 6.500000 6.750000 7.000000 6.500000 6.750000 6.250000 6.250000 6.000000 5.500000
1.000000 2.250000 3.500000 4.500000 5.250000 5.750000 6.000000 6.500000 7.000000 7.250000 7.250000 7.500000 7.250000 7.250000 6.750000 7.750000 8.250000 8.250000 9.250000 9.500000 11.500000 12.250000 13.250000 14.500000 17.750000 18.750000 18.000000 17.000000 14.750000 15.000000 15.000000 14.500000 14.000000 13.250000 11.750000 9.250000 7.250000 6.500000 5.500000 4.250000 1.750000 0.000000 0.000000 0.000000 0.000000 0.000000 0.000000 0.000000 0.000000 0.000000 0.000000 0.000000 0.000000 0.000000 0.000000 0.000000 0.000000 0.000000 0.000000 0.000000 0.000000 0.000000 0.000000 0.000000 0.000000 0.000000 0.000000 0.000000 0.000000 0.000000 0.000000 0.000000 0.000000 0.000000 0.000000 0.000000 0.000000 0.000000 0.000000 0.000000 0.000000 0.000000 0.000000 0.000000 0.000000 0.000000 0.000000 0.000000 0.000000 0.000000 0.000000 0.000000 0.000000 0.000000 0.000000 0.000000 0.000000 0.000000 0.000000 0.000000 0.000000 0.000000 0.000000 0.000000 0.000000 0.000000 0.000000 0.000000 0.000000 0.000000 0.000000 0.000000 0.000000 0.000000 0.000000 0.000000 0.000000 0.000000 0.000000 0.000000 0.000000 0.000000 0.000000 0.000000 0.000000 0.000000 0.000000 0.000000 0.000000 0.000000 0.000000 0.000000 0.000000 0.000000 0.000000 0.000000 0.000000 0.000000 0.000000 0.000000 0.000000 0.000000 0.000000 0.000000 0.000000 0.000000 0.000000 0.000000 0.000000 0.000000 0.000000 0.000000 0.000000 0.000000 0.000000 0.000000 0.000000 0.000000 1.750000 3.000000 5.750000 8.250000 9.250000 10.500000 10.750000 10.750000 13.000000 13.000000 14.250000 14.500000 15.000000 14.750000 14.750000 14.500000 16.250000 16.750000 16.000000 8.500000 9.500000 10.500000 10.500000 10.500000 9.750000 8.250000 7.500000 6.750000 7.000000 6.000000 6.250000 6.750000 6.750000 6.750000 7.000000 6.750000 6.750000 6.250000 6.000000 5.750000 5.250000 4.500000
3.250000 2.000000 1.250000 2.750000 4.000000 5.000000 5.500000 6.000000 6.250000 6.750000 7.250000 7.250000 7.500000 7.250000 7.500000 7.000000 6.750000 8.750000 8.000000 8.750000 9.000000 11.250000 12.250000 13.000000 14.250000 15.750000 19.250000 18.750000 18.250000 16.000000 15.250000 15.250000 15.250000 14.750000 14.250000 13.250000 10.750000 7.500000 8.000000 7.750000 6.750000 5.250000 1.250000 0.000000 0.000000 0.000000 0.000000 0.000000 0.000000 0.000000 0.000000 0.000000 0.000000 0.000000 0.000000 0.000000 0.000000 0.000000 0.000000 0.000000 0.000000 0.000000 0.000000 0.000000 0.000000 0.000000 0.000000 0.000000 0.000000 0.000000 0.000000 0.000000 0.000000 0.000000 0.000000 0.000000 0.000000 0.000000 0.000000 0.000000 0.000000 0.000000 0.000000 0.000000 0.000000 0.000000 0.000000 0.000000 0.000000 0.000000 0.000000 0.000000 0.000000 0.000000 0.000000 0.000000 0.000000 0.000000 0.000000 0.000000 0.000000 0.000000 0.000000 0.000000 0.000000 0.000000 0.000000 0.000000 0.000000 0.000000 0.000000 0.000000 0.000000 0.000000 0.000000 0.000000 0.000000 0.000000 0.000000 0.000000 0.000000 0.000000 0.000000 0.000000 0.000000 0.000000 0.000000 0.000000 0.000000 0.000000 0.000000 0.000000 0.000000 0.000000 0.000000 0.000000 0.000000 0.000000 0.000000 0.000000 0.000000 0.000000 0.000000 0.000000 0.000000 0.000000 0.000000 0.000000 0.000000 0.000000 0.000000 0.000000 0.000000 0.000000 0.000000 0.000000 1.500000 3.000000 3.750000 7.750000 9.500000 10.750000 11.250000 11.500000 13.250000 14.500000 14.250000 15.000000 15.250000 15.000000 15.250000 14.750000 15.500000 17.000000 17.000000 12.000000 8.750000 10.250000 10.750000 10.750000 10.250000 9.500000 7.750000 7.250000 7.250000 7.500000 6.500000 7.000000 7.000000 6.750000 7.000000 6.750000 6.750000 6.250000 6.500000 6.000000 5.500000 4.750000 4.000000 3.250000
4.750000 4.000000 3.250000 2.250000 2.500000 3.500000 4.250000 5.000000 5.500000 6.000000 6.750000 7.000000 7.250000 7.500000 7.500000 7.500000 7.250000 7.000000 8.750000 9.500000 8.250000 9.250000 10.750000 12.000000 12.750000 13.750000 14.750000 19.000000 19.750000 19.250000 18.000000 15.750000 15.750000 15.750000 15.250000 15.000000 14.000000 12.500000 10.500000 9.250000 9.250000 8.500000 7.000000 4.250000 1.750000 0.000000 0.000000 0.000000 0.000000 0.000000 0.000000 0.000000 0.000000 0.000000 0.000000 0.000000 0.000000 0.000000 0.000000 0.000000 0.000000 0.000000 0.000000 0.000000 0.000000 0.000000 0.000000 0.000000 0.000000 0.000000 0.000000 0.000000 0.000000 0.000000 0.000000 0.000000 0.000000 0.000000 0.000000 0.000000 0.000000 0.000000 0.000000 0.000000 0.000000 0.000000 0.000000 0.000000 0.000000 0.000000 0.000000 0.000000 0.000000 0.000000 0.000000 0.000000 0.000000 0.000000 0.000000 0.000000 0.000000 0.000000 0.000000 0.000000 0.000000 0.000000 0.000000 0.000000 0.000000 0.000000 0.000000 0.000000 0.000000 0.000000 0.000000 0.000000 0.000000 0.000000 0.000000 0.000000 0.000000 0.000000 0.000000 0.000000 0.000000 0.000000 0.000000 0.000000 0.000000 0.000000 0.000000 0.000000 0.000000 0.000000 0.000000 0.000000 0.000000 0.000000 0.000000 0.000000 0.000000 0.000000 0.000000 0.000000 0.000000 0.000000 0.000000 0.000000 0.000000 0.000000 0.000000 0.000000 0.000000 0.000000 0.000000 2.750000 4.000000 6.500000 9.250000 10.500000 11.500000 11.750000 12.000000 15.000000 16.000000 15.250000 15.500000 15.750000 15.750000 15.000000 15.000000 16.750000 17.000000 15.000000 9.000000 9.000000 10.500000 11.250000 10.750000 10.250000 9.000000 7.500000 7.500000 8.000000 6.500000 7.000000 7.250000 7.000000 7.250000 7.500000 6.750000 6.750000 6.250000 6.000000 5.500000 4.750000 4.250000 3.500000 2.000000 0.000000
5.250000 4.750000 4.750000 4.250000 3.500000 2.250000 3.250000 3.750000 5.000000 5.500000 6.000000 6.500000 6.750000 7.250000 7.500000 7.750000 7.750000 7.500000 7.250000 7.000000 9.000000 9.500000 8.750000 9.750000 11.500000 12.750000 13.750000 14.000000 16.000000 20.000000 20.250000 19.000000 17.500000 16.250000 16.250000 16.250000 15.500000 14.750000 13.750000 13.250000 10.500000 10.500000 10.250000 9.000000 6.750000 3.000000 1.750000 0.000000 0.000000 0.000000 0.000000 0.000000 0.000000 0.000000 0.000000 0.000000 0.000000 0.000000 0.000000 0.000000 0.000000 0.000000 0.000000 0.000000 0.000000 0.000000 0.000000 0.000000 0.000000 0.000000 0.000000 0.000000 0.000000 0.000000 0.000000 0.000000 0.000000 0.000000 0.000000 0.000000 0.000000 0.000000 0.000000 0.000000 0.000000 0.000000 0.000000 0.000000 0.000000 0.000000 0.000000 0.000000 0.000000 0.000000 0.000000 0.000000 0.000000 0.000000 0.000000 0.000000 0.000000 0.000000 0.000000 0.000000 0.000000 0.000000 0.000000 0.000000 0.000000 0.000000 0.000000 0.000000 0.000000 0.000000 0.000000 0.000000 0.000000 0.000000 0.000000 0.000000 0.000000 0.000000 0.000000 0.000000 0.000000 0.000000 0.000000 0.000000 0.000000 0.000000 0.000000 0.000000 0.000000 0.000000 0.000000 0.000000 0.000000 0.000000 0.000000 0.000000 0.000000 0.000000 0.000000 0.000000 0.000000 0.000000 0.000000 0.000000 0.000000 0.000000 0.000000 0.000000 0.000000 2.500000 4.000000 4.750000 8.750000 10.500000 11.750000 12.500000 13.000000 15.000000 16.750000 17.250000 16.750000 16.000000 16.250000 15.750000 15.500000 16.250000 17.500000 16.750000 12.500000 9.250000 10.250000 11.250000 11.000000 10.500000 10.000000 8.500000 7.250000 8.500000 7.500000 7.000000 7.250000 7.500000 7.250000 7.500000 7.000000 6.750000 6.250000 6.250000 6.000000 5.250000 4.500000 3.750000 2.500000 0.000000 2.250000 3.500000
5.500000 5.500000 5.250000 5.000000 4.500000 4.250000 3.750000 3.000000 3.250000 4.000000 5.000000 5.500000 6.000000 6.750000 7.000000 7.250000 7.750000 8.000000 7.750000 7.750000 7.750000 9.000000 9.750000 9.500000 9.250000 11.500000 12.500000 13.000000 14.250000 14.750000 20.250000 20.750000 19.750000 19.000000 16.250000 16.500000 16.750000 16.250000 15.500000 15.250000 15.500000 13.250000 11.500000 11.250000 10.250000 8.750000 4.750000 3.250000 1.500000 0.000000 0.000000 0.000000 0.000000 0.000000 0.000000 0.000000 0.000000 0.000000 0.000000 0.000000 0.000000 0.000000 0.000000 0.000000 0.000000 0.000000 0.000000 0.000000 0.000000 0.000000 0.000000 0.000000 0.000000 0.000000 0.000000 0.000000 0.000000 0.000000 0.000000 0.000000 0.000000 0.000000 0.000000 0.000000 0.000000 0.000000 0.000000 0.000000 0.000000 0.000000 0.000000 0.000000 0.000000 0.000000 0.000000 0.000000 0.000000 0.000000 0.000000 0.000000 0.000000 0.000000 0.000000 0.000000 0.000000 0.000000 0.000000 0.000000 0.000000 0.000000 0.000000 0.000000 0.000000 0.000000 0.000000 0.000000 0.000000 0.000000 0.000000 0.000000 0.000000 0.000000 0.000000 0.000000 0.000000 0.000000 0.000000 0.000000 0.000000 0.000000 0.000000 0.000000 0.000000 0.000000 0.000000 0.000000 0.000000 0.000000 0.000000 0.000000 0.000000 0.000000 0.000000 0.000000 0.000000 0.000000 0.000000 0.000000 0.000000 0.000000 0.000000 1.250000 3.750000 4.750000 7.000000 10.000000 12.000000 13.000000 13.750000 13.750000 17.000000 17.750000 18.250000 17.750000 16.500000 16.000000 15.750000 15.250000 17.750000 17.750000 14.750000 9.500000 9.500000 11.250000 11.500000 11.250000 10.750000 9.500000 7.500000 8.500000 8.250000 7.000000 7.250000 7.500000 7.750000 7.250000 7.500000 7.000000 6.750000 6.500000 6.000000 5.250000 4.750000 4.000000 3.000000 1.000000 2.500000 3.500000 4.000000 4.500000
5.750000 5.750000 5.750000 5.750000 5.500000 5.000000 4.750000 4.250000 3.750000 4.000000 4.250000 4.500000 5.500000 6.000000 6.500000 6.750000 7.250000 7.500000 8.000000 8.000000 8.000000 8.000000 8.000000 9.750000 10.000000 9.500000 10.750000 12.250000 13.250000 14.250000 14.750000 16.000000 21.000000 21.000000 20.000000 19.000000 17.000000 17.250000 16.750000 16.500000 17.250000 17.000000 15.500000 12.500000 12.250000 11.750000 10.500000 7.750000 4.250000 3.000000 0.000000 0.000000 0.000000 0.000000 0.000000 0.000000 0.000000 0.000000 0.000000 0.000000 0.000000 0.000000 0.000000 0.000000 0.000000 0.000000 0.000000 0.000000 0.000000 0.000000 0.000000 0.000000 0.000000 0.000000 0.000000 0.000000 0.000000 0.000000 0.000000 0.000000 0.000000 0.000000 0.000000 0.000000 0.000000 0.000000 0.000000 0.000000 0.000000 0.000000 0.000000 0.000000 0.000000 0.000000 0.000000 0.000000 0.000000 0.000000 0.000000 0.000000 0.000000 0.000000 0.000000 0.000000 0.000000 0.000000 0.000000 0.000000 0.000000 0.000000 0.000000 0.000000 0.000000 0.000000 0.000000 0.000000 0.000000 0.000000 0.000000 0.000000 0.000000 0.000000 0.000000 0.000000 0.000000 0.000000 0.000000 0.000000 0.000000 0.000000 0.000000 0.000000 0.000000 0.000000 0.000000 0.000000 0.000000 0.000000 0.000000 0.000000 0.000000 0.000000 0.000000 0.000000 0.000000 0.000000 0.000000 0.000000 0.000000 0.000000 3.000000 4.750000 5.500000 9.250000 11.500000 13.000000 14.000000 14.500000 16.250000 18.500000 19.500000 19.500000 18.750000 17.000000 16.250000 16.000000 17.500000 17.750000 16.500000 13.000000 9.750000 10.500000 11.500000 11.500000 11.000000 10.250000 9.250000 9.000000 8.750000 7.000000 7.250000 7.500000 7.750000 7.250000 7.500000 7.250000 7.000000 6.250000 6.250000 5.500000 5.000000 4.250000 3.250000 2.750000 2.750000 3.750000 4.250000 4.500000 5.000000 5.250000
5.500000 6.000000 5.500000 6.000000 5.500000 5.500000 5.500000 5.250000 5.000000 4.500000 3.750000 5.000000 5.000000 4.750000 5.500000 6.000000 6.750000 7.250000 7.250000 8.000000 8.000000 8.000000 8.250000 8.250000 9.250000 10.250000 10.500000 10.500000 12.000000 13.250000 14.250000 14.250000 15.250000 21.500000 21.750000 21.000000 20.000000 17.250000 17.250000 17.500000 17.250000 18.750000 18.750000 17.500000 14.750000 13.500000 12.500000 11.500000 9.500000 5.000000 4.250000 2.500000 0.000000 0.000000 0.000000 0.000000 0.000000 0.000000 0.000000 0.000000 0.000000 0.000000 0.000000 0.000000 0.000000 0.000000 0.000000 0.000000 0.000000 0.000000 0.000000 0.000000 0.000000 0.000000 0.000000 0.000000 0.000000 0.000000 0.000000 0.000000 0.000000 0.000000 0.000000 0.000000 0.000000 0.000000 0.000000 0.000000 0.000000 0.000000 0.000000 0.000000 0.000000 0.000000 0.000000 0.000000 0.000000 0.000000 0.000000 0.000000 0.000000 0.000000 0.000000 0.000000 0.000000 0.000000 0.000000 0.000000 0.000000 0.000000 0.000000 0.000000 0.000000 0.000000 0.000000 0.000000 0.000000 0.000000 0.000000 0.000000 0.000000 0.000000 0.000000 0.000000 0.000000 0.000000 0.000000 0.000000 0.000000 0.000000 0.000000 0.000000 0.000000 0.000000 0.000000 0.000000 0.000000 0.000000 0.000000 0.000000 0.000000 0.000000 0.000000 0.000000 0.000000 0.000000 0.000000 0.000000 1.500000 4.250000 5.250000 6.250000 10.750000 13.000000 14.250000 15.250000 15.500000 18.250000 19.750000 20.500000 20.500000 19.250000 17.000000 16.500000 17.250000 18.000000 17.750000 15.250000 10.000000 10.000000 11.500000 11.750000 11.500000 11.000000 10.000000 10.000000 9.250000 8.500000 7.250000 7.500000 7.750000 7.750000 7.500000 7.500000 7.000000 6.750000 6.250000 5.750000 5.250000 4.750000 3.500000 3.500000 3.000000 4.000000 4.500000 5.000000 5.250000 5.000000 5.500000 5.500000
5.500000 5.500000 5.750000 5.750000 5.750000 5.750000 5.750000 5.750000 5.750000 5.500000 5.000000 4.500000 4.000000 6.000000 4.750000 5.250000 6.000000 6.750000 6.750000 7.250000 7.500000 8.000000 8.250000 8.250000 8.250000 8.250000 10.250000 11.000000 11.250000 11.750000 13.000000 13.750000 14.500000 14.750000 15.750000 22.500000 22.250000 21.000000 20.000000 18.000000 18.000000 18.000000 20.000000 20.250000 19.000000 17.500000 14.500000 14.000000 13.000000 11.000000 8.500000 5.000000 3.750000 0.750000 0.000000 0.000000 0.000000 0.000000 0.000000 0.000000 0.000000 0.000000 0.000000 0.000000 0.000000 0.000000 0.000000 0.000000 0.000000 0.000000 0.000000 0.000000 0.000000 0.000000 0.000000 0.000000 0.000000 0.000000 0.000000 0.000000 0.000000 0.000000 0.000000 0.000000 0.000000 0.000000 0.000000 0.000000 0.000000 0.000000 0.000000 0.000000 0.000000 0.000000 0.000000 0.000000 0.000000 0.000000 0.000000 0.000000 0.000000 0.000000 0.000000 0.000000 0.000000 0.000000 0.000000 0.000000 0.000000 0.000000 0.000000 0.000000 0.000000 0.000000 0.000000 0.000000 0.000000 0.000000 0.000000 0.000000 0.000000 0.000000 0.000000 0.000000 0.000000 0.000000 0.000000 0.000000 0.000000 0.000000 0.000000 0.000000 0.000000 0.000000 0.000000 0.000000 0.000000 0.000000 0.000000 0.000000 0.000000 0.000000 0.000000 0.000000 0.000000 0.000000 0.000000 3.250000 5.000000 6.250000 9.500000 12.250000 14.250000 15.000000 15.750000 17.250000 20.250000 21.250000 21.750000 21.000000 19.750000 17.000000 16.250000 18.250000 18.250000 16.750000 13.500000 10.250000 10.750000 12.000000 12.000000 11.500000 10.750000 11.000000 9.500000 9.000000 7.250000 7.500000 7.750000 7.750000 8.000000 7.500000 7.500000 7.000000 6.250000 6.000000 5.500000 5.000000 3.750000 4.500000 3.250000 4.250000 4.750000 5.000000 5.250000 5.500000 5.500000 5.500000 5.500000 5.750000
5.000000 5.500000 5.500000 5.500000 6.000000 5.750000 6.000000 6.000000 6.000000 6.000000 5.500000 5.500000 5.250000 4.750000 5.500000 6.750000 5.750000 5.250000 6.000000 6.750000 7.250000 7.500000 8.000000 8.250000 8.500000 8.250000 8.500000 9.250000 10.750000 11.500000 12.750000 12.750000 13.750000 14.500000 15.000000 15.250000 22.750000 22.750000 22.250000 21.000000 19.500000 18.500000 19.000000 21.250000 21.500000 20.500000 19.500000 15.250000 15.000000 14.250000 12.500000 10.500000 5.750000 5.000000 3.000000 0.000000 0.000000 0.000000 0.000000 0.000000 0.000000 0.000000 0.000000 0.000000 0.000000 0.000000 0.000000 0.000000 0.000000 0.000000 0.000000 0.000000 0.000000 0.000000 0.000000 0.000000 0.000000 0.000000 0.000000 0.000000 0.000000 0.000000 0.000000 0.000000 0.000000 0.000000 0.000000 0.000000 0.000000 0.000000 0.000000 0.000000 0.000000 0.000000 0.000000 0.000000 0.000000 0.000000 0.000000 0.000000 0.000000 0.000000 0.000000 0.000000 0.000000 0.000000 0.000000 0.000000 0.000000 0.000000 0.000000 0.000000 0.000000 0.000000 0.000000 0.000000 0.000000 0.000000 0.000000 0.000000 0.000000 0.000000 0.000000 0.000000 0.000000 0.000000 0.000000 0.000000 0.000000 0.000000 0.000000 0.000000 0.000000 0.000000 0.000000 0.000000 0.000000 0.000000 0.000000 0.000000 0.000000 0.000000 0.000000 0.000000 0.000000 1.500000 4.250000 6.000000 7.000000 11.500000 13.750000 15.250000 16.250000 16.500000 20.000000 21.500000 22.500000 22.500000 22.000000 20.250000 17.250000 18.250000 19.000000 18.250000 15.750000 10.750000 10.250000 11.750000 12.500000 12.500000 11.500000 11.250000 11.000000 9.500000 9.000000 8.000000 8.250000 7.750000 8.000000 8.000000 7.500000 7.000000 6.750000 6.250000 5.750000 5.250000 4.000000 5.000000 4.000000 4.250000 5.000000 5.250000 5.000000 5.500000 6.000000 5.500000 6.000000 5.500000 5.750000 5.500000
4.250000 4.750000 4.750000 5.250000 5.500000 5.750000 6.000000 6.000000 6.250000 6.000000 6.250000 6.000000 5.750000 5.750000 5.500000 5.000000 7.000000 7.000000 6.250000 6.000000 6.750000 7.000000 7.250000 7.750000 8.000000 8.500000 8.500000 8.500000 8.250000 10.000000 11.500000 13.250000 13.500000 13.250000 14.250000 15.000000 15.500000 16.000000 24.250000 23.250000 22.000000 21.000000 18.750000 20.500000 22.250000 22.500000 22.250000 21.000000 19.000000 16.000000 15.250000 14.000000 12.250000 8.250000 5.750000 4.250000 1.250000 0.000000 0.000000 0.000000 0.000000 0.000000 0.000000 0.000000 0.000000 0.000000 0.000000 0.000000 0.000000 0.000000 0.000000 0.000000 0.000000 0.000000 0.000000 0.000000 0.000000 0.000000 0.000000 0.000000 0.000000 0.000000 0.000000 0.000000 0.000000 0.000000 0.000000 0.000000 0.000000 0.000000 0.000000 0.000000 0.000000 0.000000 0.000000 0.000000 0.000000 0.000000 0.000000 0.000000 0.000000 0.000000 0.000000 0.000000 0.000000 0.000000 0.000000 0.000000 0.000000 0.000000 0.000000 0.000000 0.000000 0.000000 0.000000 0.000000 0.000000 0.000000 0.000000 0.000000 0.000000 0.000000 0.000000 0.000000 0.000000 0.000000 0.000000 0.000000 0.000000 0.000000 0.000000 0.000000 0.000000 0.000000 0.000000 0.000000 0.000000 0.000000 0.000000 0.000000 0.000000 0.000000 0.000000 0.000000 4.750000 6.750000 6.750000 9.250000 13.000000 15.000000 16.500000 17.250000 19.000000 21.750000 22.750000 23.250000 23.000000 22.250000 20.250000 17.500000 19.000000 18.750000 17.000000 14.500000 11.000000 11.250000 12.500000 12.500000 11.750000 11.250000 12.250000 11.000000 9.500000 8.000000 8.000000 8.250000 8.000000 8.000000 7.500000 7.500000 6.750000 6.250000 6.000000 5.500000 4.250000 6.000000 5.000000 4.250000 4.750000 5.000000 5.500000 6.000000 5.500000 6.000000 5.750000 5.750000 5.500000 5.500000 5.250000 5.500000
3.000000 3.750000 4.250000 4.750000 5.250000 5.250000 5.750000 5.750000 6.000000 6.250000 6.250000 6.250000 6.250000 6.250000 6.000000 5.750000 5.500000 5.250000 7.000000 8.000000 6.750000 6.000000 6.750000 7.250000 7.750000 8.000000 8.500000 8.500000 8.750000 8.750000 9.500000 11.000000 13.000000 14.250000 13.250000 14.000000 15.000000 15.000000 15.750000 21.750000 24.250000 23.500000 22.000000 20.750000 20.750000 23.000000 23.750000 23.500000 22.750000 21.250000 17.250000 16.500000 15.250000 13.750000 10.750000 6.500000 5.500000 3.250000 0.000000 0.000000 0.000000 0.000000 0.000000 0.000000 0.000000 0.000000 0.000000 0.000000 0.000000 0.000000 0.000000 0.000000 0.000000 0.000000 0.000000 0.000000 0.000000 0.000000 0.000000 0.000000 0.000000 0.000000 0.000000 0.000000 0.000000 0.000000 0.000000 0.000000 0.000000 0.000000 0.000000 0.000000 0.000000 0.000000 0.000000 0.000000 0.000000 0.000000 0.000000 0.000000 0.000000 0.000000 0.000000 0.000000 0.000000 0.000000 0.000000 0.000000 0.000000 0.000000 0.000000 0.000000 0.000000 0.000000 0.000000 0.000000 0.000000 0.000000 0.000000 0.000000 0.000000 0.000000 0.000000 0.000000 0.000000 0.000000 0.000000 0.000000 0.000000 0.000000 0.000000 0.000000 0.000000 0.000000 0.000000 0.000000 0.000000 0.000000 0.000000 0.000000 0.000000 0.000000 2.500000 7.750000 9.250000 10.250000 13.250000 14.500000 16.500000 17.500000 18.250000 21.500000 23.250000 24.000000 24.750000 24.250000 22.750000 19.750000 19.250000 19.750000 18.250000 16.250000 12.250000 11.000000 12.250000 13.000000 12.500000 11.750000 12.750000 12.500000 10.250000 8.500000 8.000000 8.250000 8.250000 8.000000 8.000000 7.500000 7.000000 6.750000 6.250000 5.750000 5.000000 6.750000 6.250000 4.750000 5.250000 5.500000 5.500000 6.000000 6.000000 6.000000 6.000000 6.000000 5.500000 6.000000 5.500000 5.000000 5.000000 4.500000
0.750000 2.250000 3.250000 3.750000 4.250000 4.500000 5.000000 5.500000 5.750000 5.750000 6.000000 6.250000 6.250000 6.500000 6.250000 6.500000 6.000000 6.000000 5.500000 5.750000 8.250000 8.000000 7.750000 6.500000 7.250000 7.500000 7.750000 8.500000 8.500000 8.750000 9.000000 9.000000 11.000000 12.500000 14.250000 14.500000 14.000000 14.750000 15.250000 15.500000 17.750000 25.000000 24.000000 23.000000 22.500000 21.500000 24.000000 24.750000 24.750000 24.000000 23.000000 20.500000 17.750000 16.750000 15.000000 12.500000 7.250000 7.750000 6.750000 0.500000 0.000000 0.000000 0.000000 0.000000 0.000000 0.000000 0.000000 0.000000 0.000000 0.000000 0.000000 0.000000 0.000000 0.000000 0.000000 0.000000 0.000000 0.000000 0.000000 0.000000 0.000000 0.000000 0.000000 0.000000 0.000000 0.000000 0.000000 0.000000 0.000000 0.000000 0.000000 0.000000 0.000000 0.000000 0.000000 0.000000 0.000000 0.000000 0.000000 0.000000 0.000000 0.000000 0.000000 0.000000 0.000000 0.000000 0.000000 0.000000 0.000000 0.000000 0.000000 0.000000 0.000000 0.000000 0.000000 0.000000 0.000000 0.000000 0.000000 0.000000 0.000000 0.000000 0.000000 0.000000 0.000000 0.000000 0.000000 0.000000 0.000000 0.000000 0.000000 0.000000 0.000000 0.000000 0.000000 0.000000 0.000000 0.000000 0.000000 0.000000 3.000000 7.000000 10.000000 11.500000 12.000000 16.500000 15.750000 17.500000 18.750000 20.000000 23.250000 24.500000 25.500000 25.500000 24.750000 22.750000 21.000000 19.750000 19.250000 17.500000 15.250000 11.250000 12.250000 13.000000 13.250000 12.500000 13.750000 13.000000 12.000000 9.500000 8.000000 8.250000 8.250000 8.500000 8.000000 8.000000 7.250000 6.750000 6.500000 6.000000 6.250000 7.250000 6.750000 4.750000 5.000000 5.500000 6.000000 6.000000 6.000000 6.250000 6.000000 5.750000 6.000000 5.500000 5.500000 5.250000 5.000000 4.750000 4.500000 4.000000
3.000000 2.000000 1.250000 2.250000 3.000000 3.750000 4.500000 5.000000 5.000000 5.500000 5.750000 6.000000 6.500000 6.250000 6.500000 6.500000 6.500000 6.500000 6.250000 6.250000 5.750000 7.250000 8.500000 9.000000 7.500000 6.750000 7.250000 7.750000 8.250000 8.500000 8.750000 9.000000 9.250000 9.750000 11.500000 14.250000 15.250000 15.500000 14.500000 15.000000 15.750000 16.000000 21.000000 25.250000 24.250000 23.000000 24.500000 24.250000 25.500000 25.500000 25.500000 24.750000 22.750000 19.000000 17.750000 16.500000 14.750000 13.250000 10.250000 9.250000 6.250000 2.000000 0.000000 0.000000 0.000000 0.000000 0.000000 0.000000 0.000000 0.000000 0.000000 0.000000 0.000000 0.000000 0.000000 0.000000 0.000000 0.000000 0.000000 0.000000 0.000000 0.000000 0.000000 0.000000 0.000000 0.000000 0.000000 0.000000 0.000000 0.000000 0.000000 0.000000 0.000000 0.000000 0.000000 0.000000 0.000000 0.000000 0.000000 0.000000 0.000000 0.000000 0.000000 0.000000 0.000000 0.000000 0.000000 0.000000 0.000000 0.000000 0.000000 0.000000 0.000000 0.000000 0.000000 0.000000 0.000000 0.000000 0.000000 0.000000 0.000000 0.000000 0.000000 0.000000 0.000000 0.000000 0.000000 0.000000 0.000000 0.000000 0.000000 0.000000 0.000000 0.000000 0.000000 0.000000 0.000000 0.000000 3.000000 4.500000 9.500000 12.000000 13.000000 16.500000 19.250000 19.500000 18.750000 19.750000 23.250000 25.250000 26.250000 26.500000 26.250000 25.000000 22.250000 22.000000 20.000000 18.750000 16.500000 13.000000 11.250000 13.000000 13.000000 13.000000 14.000000 14.000000 13.250000 10.750000 8.500000 8.750000 8.250000 8.500000 8.500000 8.000000 7.500000 7.250000 6.750000 6.250000 7.250000 7.750000 7.000000 5.750000 5.500000 6.000000 5.750000 6.000000 6.500000 6.000000 6.250000 6.000000 6.000000 5.750000 5.500000 5.500000 5.000000 4.500000 4.000000 3.750000 3.250000 2.000000
4.000000 3.750000 3.500000 2.750000 2.500000 2.500000 3.250000 3.750000 4.250000 4.750000 5.250000 5.500000 6.000000 6.250000 6.000000 6.500000 6.750000 6.500000 6.750000 6.500000 6.500000 6.250000 6.000000 8.250000 9.500000 9.500000 8.500000 7.250000 7.750000 8.000000 8.500000 8.750000 9.000000 9.250000 9.250000 11.000000 14.000000 15.500000 16.000000 16.000000 15.000000 16.000000 15.750000 18.750000 23.250000 25.000000 24.250000 25.250000 24.500000 26.500000 27.250000 26.750000 26.000000 25.000000 22.000000 19.250000 18.000000 18.750000 17.000000 12.750000 11.500000 9.250000 3.750000 1.750000 0.000000 0.000000 0.000000 0.000000 0.000000 0.000000 0.000000 0.000000 0.000000 0.000000 0.000000 0.000000 0.000000 0.000000 0.000000 0.000000 0.000000 0.000000 0.000000 0.000000 0.000000 0.000000 0.000000 0.000000 0.000000 0.000000 0.000000 0.000000 0.000000 0.000000 0.000000 0.000000 0.000000 0.000000 0.000000 0.000000 0.000000 0.000000 0.000000 0.000000 0.000000 0.000000 0.000000 0.000000 0.000000 0.000000 0.000000 0.000000 0.000000 0.000000 0.000000 0.000000 0.000000 0.000000 0.000000 0.000000 0.000000 0.000000 0.000000 0.000000 0.000000 0.000000 0.000000 0.000000 0.000000 0.000000 0.000000 0.000000 0.000000 0.000000 0.000000 0.000000 1.500000 4.500000 8.000000 11.750000 14.000000 14.750000 19.250000 21.250000 21.750000 20.500000 20.750000 25.000000 26.750000 27.750000 27.750000 27.250000 25.250000 24.000000 22.750000 19.750000 18.000000 16.000000 11.500000 12.500000 13.750000 13.750000 14.500000 14.750000 14.000000 13.000000 10.000000 8.750000 8.750000 9.000000 8.500000 8.500000 7.750000 7.250000 7.000000 6.250000 7.750000 8.500000 8.000000 6.250000 5.500000 6.000000 6.000000 6.500000 6.000000 6.500000 6.000000 6.250000 6.000000 6.000000 5.500000 5.250000 5.000000 5.000000 4.500000 3.500000 3.000000 2.250000 0.750000 2.000000
4.500000 4.250000 4.500000 4.000000 3.750000 3.500000 2.500000 3.250000 3.000000 4.000000 4.250000 4.750000 5.250000 5.750000 6.000000 6.000000 6.500000 6.750000 6.500000 6.750000 6.750000 6.750000 6.500000 6.500000 7.250000 8.750000 9.750000 10.250000 9.000000 7.500000 7.750000 8.250000 8.750000 9.000000 9.250000 9.500000 10.000000 12.750000 15.000000 16.500000 17.000000 16.000000 16.000000 16.250000 16.250000 21.500000 24.500000 24.750000 26.750000 27.500000 27.000000 28.250000 28.500000 27.750000 26.750000 24.250000 20.250000 21.250000 21.000000 19.500000 14.250000 13.500000 11.500000 7.250000 3.750000 0.000000 0.000000 0.000000 0.000000 0.000000 0.000000 0.000000 0.000000 0.000000 0.000000 0.000000 0.000000 0.000000 0.000000 0.000000 0.000000 0.000000 0.000000 0.000000 0.000000 0.000000 0.000000 0.000000 0.000000 0.000000 0.000000 0.000000 0.000000 0.000000 0.000000 0.000000 0.000000 0.000000 0.000000 0.000000 0.000000 0.000000 0.000000 0.000000 0.000000 0.000000 0.000000 0.000000 0.000000 0.000000 0.000000 0.000000 0.000000 0.000000 0.000000 0.000000 0.000000 0.000000 0.000000 0.000000 0.000000 0.000000 0.000000 0.000000 0.000000 0.000000 0.000000 0.000000 0.000000 0.000000 0.000000 0.000000 0.000000 0.000000 0.000000 3.750000 5.500000 10.250000 13.750000 15.250000 18.250000 22.000000 23.500000 24.000000 23.500000 24.500000 27.000000 28.000000 28.500000 28.500000 27.750000 25.750000 24.500000 22.750000 19.250000 18.000000 14.750000 11.750000 13.500000 14.000000 14.750000 15.500000 15.500000 14.000000 12.000000 8.500000 8.750000 8.750000 9.000000 8.500000 8.000000 7.750000 7.250000 6.500000 8.500000 9.000000 8.750000 7.250000 6.000000 6.000000 6.500000 6.500000 6.500000 6.500000 6.500000 6.500000 6.000000 6.000000 6.000000 5.500000 5.000000 4.500000 4.250000 3.750000 3.000000 2.000000 1.500000 2.750000 3.000000 3.500000
5.000000 5.000000 5.000000 4.500000 4.500000 4.500000 4.000000 4.000000 3.250000 4.250000 3.750000 3.750000 4.250000 5.000000 5.250000 5.750000 6.000000 6.250000 6.750000 6.750000 6.750000 7.000000 6.750000 7.000000 6.500000 6.500000 8.250000 10.250000 10.750000 10.500000 9.500000 7.750000 8.250000 8.500000 9.000000 9.250000 9.500000 9.750000 11.750000 14.750000 16.500000 17.500000 17.250000 16.000000 16.250000 16.500000 19.750000 21.750000 24.000000 26.750000 28.250000 29.000000 29.000000 29.500000 29.250000 28.500000 26.750000 22.250000 23.500000 23.750000 22.250000 19.250000 15.250000 13.500000 10.000000 5.250000 3.250000 0.000000 0.000000 0.000000 0.000000 0.000000 0.000000 0.000000 0.000000 0.000000 0.000000 0.000000 0.000000 0.000000 0.000000 0.000000 0.000000 0.000000 0.000000 0.000000 0.000000 0.000000 0.000000 0.000000 0.000000 0.000000 0.000000 0.000000 0.000000 0.000000 0.000000 0.000000 0.000000 0.000000 0.000000 0.000000 0.000000 0.000000 0.000000 0.000000 0.000000 0.000000 0.000000 0.000000 0.000000 0.000000 0.000000 0.000000 0.000000 0.000000 0.000000 0.000000 0.000000 0.000000 0.000000 0.000000 0.000000 0.000000 0.000000 0.000000 0.000000 0.000000 0.000000 0.000000 0.000000 0.000000 0.000000 1.750000 5.000000 6.750000 12.500000 15.500000 17.000000 21.250000 24.250000 25.750000 26.000000 25.250000 26.750000 28.500000 29.250000 29.500000 29.500000 27.750000 26.500000 24.500000 22.500000 18.750000 17.000000 12.000000 13.750000 14.250000 14.500000 16.250000 16.250000 14.750000 13.750000 10.500000 9.250000 8.750000 9.000000 9.000000 8.250000 8.000000 7.750000 7.000000 9.500000 9.500000 9.000000 8.750000 6.000000 6.000000 6.500000 6.500000 6.500000 6.500000 6.500000 6.250000 6.500000 6.000000 5.500000 5.250000 5.500000 5.000000 4.000000 3.500000 2.750000 3.000000 2.750000 3.000000 3.500000 4.000000 4.000000 4.500000
5.250000 5.250000 5.000000 5.000000 5.000000 5.000000 4.500000 4.500000 4.000000 3.750000 3.750000 5.000000 5.000000 4.500000 4.500000 5.000000 5.250000 5.750000 6.250000 6.250000 6.750000 6.750000 7.000000 7.000000 7.000000 7.000000 7.000000 6.750000 9.250000 10.500000 11.000000 11.250000 10.250000 8.250000 8.500000 9.000000 9.250000 9.500000 9.750000 10.750000 14.250000 16.250000 17.500000 18.000000 18.000000 16.000000 16.750000 18.500000 21.250000 22.500000 27.000000 29.250000 30.500000 30.000000 30.750000 30.500000 30.000000 28.500000 28.000000 26.000000 25.750000 24.500000 22.500000 17.000000 15.250000 12.500000 6.500000 4.750000 0.000000 0.000000 0.000000 0.000000 0.000000 0.000000 0.000000 0.000000 0.000000 0.000000 0.000000 0.000000 0.000000 0.000000 0.000000 0.000000 0.000000 0.000000 0.000000 0.000000 0.000000 0.000000 0.000000 0.000000 0.000000 0.000000 0.000000 0.000000 0.000000 0.000000 0.000000 0.000000 0.000000 0.000000 0.000000 0.000000 0.000000 0.000000 0.000000 0.000000 0.000000 0.000000 0.000000 0.000000 0.000000 0.000000 0.000000 0.000000 0.000000 0.000000 0.000000 0.000000 0.000000 0.000000 0.000000 0.000000 0.000000 0.000000 0.000000 0.000000 0.000000 0.000000 0.000000 0.250000 6.500000 9.250000 12.000000 14.500000 17.000000 18.250000 24.250000 26.250000 27.500000 28.250000 29.750000 29.000000 30.000000 31.000000 30.500000 30.000000 28.750000 26.750000 24.500000 22.000000 18.250000 15.500000 12.500000 14.500000 14.250000 16.500000 16.500000 16.250000 14.750000 12.750000 9.250000 9.250000 9.500000 8.750000 8.750000 8.250000 7.500000 8.000000 10.250000 10.000000 9.750000 8.750000 6.750000 6.500000 7.000000 6.750000 7.000000 6.750000 6.750000 6.500000 6.250000 6.250000 6.000000 5.500000 5.000000 4.500000 4.250000 3.750000 4.000000 3.750000 3.250000 3.500000 4.000000 4.500000 4.250000 4.750000 4.750000 5.000000
5.000000 5.250000 5.250000 5.000000 5.250000 5.250000 5.000000 5.250000 5.000000 5.000000 4.500000 4.000000 4.000000 5.000000 6.000000 5.500000 4.500000 5.000000 5.500000 6.000000 6.250000 6.500000 6.750000 7.000000 7.250000 7.250000 7.500000 7.000000 7.250000 7.500000 10.000000 11.000000 11.750000 11.500000 10.750000 8.500000 8.750000 9.500000 9.500000 9.750000 10.000000 13.000000 16.000000 18.000000 18.500000 18.750000 18.250000 17.000000 16.750000 20.750000 21.250000 26.250000 29.250000 30.750000 32.500000 32.000000 32.000000 31.250000 31.000000 31.250000 28.250000 28.250000 27.000000 24.750000 19.500000 17.250000 14.750000 11.500000 8.500000 5.250000 0.000000 0.000000 0.000000 0.000000 0.000000 0.000000 0.000000 0.000000 0.000000 0.000000 0.000000 0.000000 0.000000 0.000000 0.000000 0.000000 0.000000 0.000000 0.000000 0.000000 0.000000 0.000000 0.000000 0.000000 0.000000 0.000000 0.000000 0.000000 0.000000 0.000000 0.000000 0.000000 0.000000 0.000000 0.000000 0.000000 0.000000 0.000000 0.000000 0.000000 0.000000 0.000000 0.000000 0.000000 0.000000 0.000000 0.000000 0.000000 0.000000 0.000000 0.000000 0.000000 0.000000 0.000000 0.000000 0.000000 0.000000 0.000000 0.000000 0.500000 4.000000 10.000000 12.000000 17.250000 19.000000 18.500000 22.750000 26.500000 28.750000 29.500000 29.500000 32.750000 32.500000 31.750000 31.750000 31.750000 30.500000 28.250000 26.500000 24.000000 21.500000 18.000000 14.500000 14.250000 15.000000 16.750000 17.250000 17.000000 15.750000 14.500000 11.500000 9.250000 9.250000 9.250000 8.750000 8.500000 8.000000 8.250000 10.500000 10.750000 10.250000 9.500000 7.500000 7.000000 6.750000 7.000000 6.750000 7.000000 6.750000 6.750000 6.500000 6.000000 5.500000 6.000000 5.500000 4.750000 4.250000 4.250000 4.750000 4.250000 4.000000 4.000000 4.250000 4.750000 4.750000 5.000000 5.000000 4.750000 5.000000 5.250000
4.750000 4.750000 5.000000 5.250000 5.250000 5.500000 5.250000 5.250000 5.500000 5.000000 5.250000 5.250000 5.000000 4.500000 4.250000 6.000000 6.500000 6.500000 5.250000 5.250000 5.750000 6.000000 6.250000 6.750000 7.000000 7.250000 7.250000 7.500000 7.500000 7.500000 7.250000 9.000000 11.250000 12.000000 12.000000 12.250000 11.250000 8.500000 9.250000 9.500000 10.000000 10.000000 11.250000 15.000000 17.000000 18.750000 19.250000 19.250000 18.250000 17.250000 20.250000 21.250000 25.250000 28.750000 31.000000 34.000000 33.000000 33.500000 33.000000 32.500000 34.500000 32.750000 30.000000 29.250000 27.750000 23.500000 18.750000 19.500000 17.000000 11.750000 9.250000 3.500000 0.000000 0.000000 0.000000 0.000000 0.000000 0.000000 0.000000 0.000000 0.000000 0.000000 0.000000 0.000000 0.000000 0.000000 0.000000 0.000000 0.000000 0.000000 0.000000 0.000000 0.000000 0.000000 0.000000 0.000000 0.000000 0.000000 0.000000 0.000000 0.000000 0.000000 0.000000 0.000000 0.000000 0.000000 0.000000 0.000000 0.000000 0.000000 0.000000 0.000000 0.000000 0.000000 0.000000 0.000000 0.000000 0.000000 0.000000 0.000000 0.000000 0.000000 0.000000 0.000000 0.000000 0.000000 0.000000 0.000000 3.750000 8.750000 12.750000 14.500000 20.750000 22.750000 22.750000 25.750000 29.250000 30.750000 31.250000 33.750000 36.000000 34.750000 32.750000 33.250000 32.500000 33.000000 28.500000 26.500000 24.250000 20.500000 16.750000 14.000000 15.500000 17.000000 17.750000 17.500000 17.250000 16.000000 13.500000 9.750000 9.750000 9.000000 9.000000 8.500000 8.250000 9.750000 10.750000 11.500000 11.250000 10.250000 8.750000 6.750000 7.000000 7.250000 7.000000 7.000000 7.000000 6.750000 6.500000 6.500000 6.000000 5.500000 5.000000 4.500000 4.500000 5.750000 5.750000 4.000000 4.000000 4.250000 4.750000 4.750000 5.250000 5.000000 5.250000 5.250000 5.000000 5.000000 5.250000 5.000000
4.250000 4.500000 4.750000 5.000000 5.250000 5.250000 5.500000 5.500000 5.500000 5.500000 5.750000 5.500000 5.500000 5.000000 5.500000 5.000000 4.750000 6.250000 7.000000 7.500000 6.500000 5.500000 5.750000 6.250000 6.500000 6.750000 7.000000 7.250000 7.500000 7.500000 7.500000 7.750000 7.500000 10.250000 11.500000 12.750000 12.750000 12.500000 12.000000 9.000000 9.500000 10.000000 10.250000 10.250000 14.500000 16.750000 18.000000 19.750000 20.250000 19.750000 17.750000 18.500000 21.750000 24.250000 28.000000 31.000000 34.250000 35.500000 34.500000 34.250000 35.750000 37.250000 36.250000 32.250000 31.500000 29.750000 26.750000 23.250000 23.000000 20.750000 14.500000 12.250000 6.000000 3.250000 0.000000 0.000000 0.000000 0.000000 0.000000 0.000000 0.000000 0.000000 0.000000 0.000000 0.000000 0.000000 0.000000 0.000000 0.000000 0.000000 0.000000 0.000000 0.000000 0.000000 0.000000 0.000000 0.000000 0.000000 0.000000 0.000000 0.000000 0.000000 0.000000 0.000000 0.000000 0.000000 0.000000 0.000000 0.000000 0.000000 0.000000 0.000000 0.000000 0.000000 0.000000 0.000000 0.000000 0.000000 0.000000 0.000000 0.000000 0.000000 0.000000 0.000000 0.000000 0.000000 2.250000 5.500000 11.250000 15.000000 18.750000 24.000000 26.000000 26.500000 28.500000 31.500000 33.000000 33.500000 37.000000 38.500000 36.750000 34.500000 34.000000 34.000000 30.750000 28.500000 26.500000 23.250000 19.250000 15.750000 15.250000 17.500000 18.250000 18.500000 17.750000 17.000000 15.500000 12.500000 9.500000 9.500000 9.250000 9.000000 8.500000 10.500000 11.500000 12.250000 11.500000 10.750000 9.000000 7.000000 7.500000 7.250000 7.500000 7.250000 7.000000 7.000000 6.500000 6.500000 6.000000 6.000000 5.500000 4.750000 6.750000 6.250000 6.000000 4.250000 4.500000 4.750000 5.250000 5.000000 5.250000 5.250000 5.250000 5.500000 5.250000 5.250000 5.250000 5.000000 4.750000 4.500000
3.500000 4.000000 4.250000 4.500000 4.750000 4.750000 5.000000 5.250000 5.500000 5.500000 5.500000 5.750000 5.500000 5.750000 6.000000 5.500000 5.250000 5.250000 5.250000 6.250000 7.500000 7.750000 8.250000 7.250000 6.000000 6.500000 6.500000 7.000000 7.250000 7.250000 7.750000 7.750000 8.000000 7.500000 8.500000 11.000000 12.500000 13.250000 13.500000 13.000000 12.750000 9.750000 9.750000 10.250000 10.500000 12.500000 16.500000 18.250000 19.500000 20.750000 20.500000 19.750000 18.000000 21.750000 23.500000 27.000000 30.250000 33.000000 38.250000 35.500000 35.750000 38.250000 40.000000 39.500000 36.000000 33.750000 32.750000 31.500000 27.500000 26.500000 24.500000 18.000000 14.750000 10.500000 5.000000 0.000000 0.000000 0.000000 0.000000 0.000000 0.000000 0.000000 0.000000 0.000000 0.000000 0.000000 0.000000 0.000000 0.000000 0.000000 0.000000 0.000000 0.000000 0.000000 0.000000 0.000000 0.000000 0.000000 0.000000 0.000000 0.000000 0.000000 0.000000 0.000000 0.000000 0.000000 0.000000 0.000000 0.000000 0.000000 0.000000 0.000000 0.000000 0.000000 0.000000 0.000000 0.000000 0.000000 0.000000 0.000000 0.000000 0.000000 0.000000 0.000000 0.750000 7.250000 9.750000 14.000000 17.000000 23.000000 27.000000 29.000000 32.000000 34.250000 34.000000 34.750000 37.000000 40.000000 40.250000 38.750000 35.250000 34.750000 36.750000 30.250000 28.500000 25.500000 23.000000 18.000000 15.500000 16.500000 18.750000 19.250000 19.000000 18.000000 16.750000 14.500000 10.000000 10.000000 9.500000 9.500000 8.750000 11.250000 12.000000 12.750000 12.500000 11.250000 10.000000 8.000000 7.250000 7.500000 7.250000 7.500000 7.250000 7.000000 7.000000 6.500000 6.000000 5.500000 5.000000 6.500000 7.000000 6.750000 6.000000 4.750000 5.000000 5.000000 5.250000 5.250000 5.250000 5.750000 5.250000 5.500000 5.500000 5.250000 5.250000 5.250000 5.000000 4.750000 4.500000 4.250000
2.250000 3.000000 3.500000 4.000000 4.500000 4.250000 4.750000 5.000000 5.250000 5.500000 5.500000 5.500000 5.750000 5.750000 5.750000 6.000000 5.500000 5.750000 5.750000 5.500000 5.250000 6.250000 8.000000 8.500000 8.250000 8.000000 6.750000 6.250000 6.500000 7.000000 7.500000 7.500000 7.750000 8.000000 8.000000 8.000000 9.250000 12.000000 13.250000 14.000000 14.250000 14.000000 13.250000 10.750000 10.000000 10.750000 10.750000 15.500000 18.000000 20.000000 20.750000 21.500000 20.750000 20.250000 21.250000 24.750000 27.000000 30.000000 32.750000 39.500000 39.500000 37.250000 40.500000 42.250000 42.500000 40.500000 36.500000 35.000000 36.250000 33.500000 29.500000 27.750000 23.000000 17.250000 16.750000 10.500000 7.000000 0.000000 0.000000 0.000000 0.000000 0.000000 0.000000 0.000000 0.000000 0.000000 0.000000 0.000000 0.000000 0.000000 0.000000 0.000000 0.000000 0.000000 0.000000 0.000000 0.000000 0.000000 0.000000 0.000000 0.000000 0.000000 0.000000 0.000000 0.000000 0.000000 0.000000 0.000000 0.000000 0.000000 0.000000 0.000000 0.000000 0.000000 0.000000 0.000000 0.000000 0.000000 0.000000 0.000000 0.000000 0.000000 0.000000 4.500000 11.750000 15.750000 21.000000 21.750000 26.500000 30.250000 32.000000 36.500000 38.500000 36.250000 37.000000 41.000000 43.000000 43.000000 40.750000 36.250000 37.750000 38.000000 29.750000 28.000000 25.500000 22.000000 17.500000 16.250000 19.250000 19.750000 19.500000 18.750000 18.000000 16.000000 13.000000 10.000000 10.000000 9.750000 9.750000 12.000000 13.000000 13.000000 13.000000 12.250000 11.000000 8.000000 7.750000 7.500000 7.750000 7.500000 7.250000 7.250000 7.000000 6.500000 6.000000 5.750000 7.250000 7.500000 7.750000 7.500000 6.000000 5.000000 5.250000 5.250000 5.250000 5.750000 5.500000 5.500000 5.750000 5.500000 5.500000 5.500000 5.000000 5.000000 5.000000 4.750000 4.500000 4.250000 4.000000 3.500000
2.750000 2.750000 2.500000 2.750000 3.000000 3.500000 4.000000 4.250000 4.500000 5.000000 5.250000 5.250000 5.250000 5.750000 5.750000 5.750000 6.000000 6.250000 6.000000 6.000000 5.750000 6.000000 5.500000 6.000000 7.750000 8.250000 8.750000 9.000000 8.500000 6.750000 6.750000 7.250000 7.500000 7.750000 8.000000 8.000000 8.250000 8.500000 11.000000 12.750000 13.750000 14.750000 14.750000 15.000000 13.750000 11.250000 10.250000 10.750000 14.000000 17.250000 19.750000 21.000000 21.500000 22.250000 21.500000 21.250000 25.250000 25.750000 29.250000 32.500000 36.000000 41.500000 38.500000 42.750000 44.750000 45.750000 43.750000 38.500000 39.750000 40.250000 38.250000 33.250000 30.750000 26.750000 23.750000 21.750000 14.000000 11.250000 4.250000 0.000000 0.000000 0.000000 0.000000 0.000000 0.000000 0.000000 0.000000 0.000000 0.000000 0.000000 0.000000 0.000000 0.000000 0.000000 0.000000 0.000000 0.000000 0.000000 0.000000 0.000000 0.000000 0.000000 0.000000 0.000000 0.000000 0.000000 0.000000 0.000000 0.000000 0.000000 0.000000 0.000000 0.000000 0.000000 0.000000 0.000000 0.000000 0.000000 0.000000 0.000000 0.000000 4.000000 9.250000 14.750000 20.750000 25.000000 26.750000 31.250000 33.250000 34.750000 40.750000 42.000000 41.000000 39.500000 44.250000 45.750000 44.750000 42.000000 37.750000 40.500000 32.000000 30.000000 27.500000 25.250000 21.500000 18.500000 19.500000 20.250000 20.000000 20.000000 18.750000 17.250000 15.250000 10.500000 10.500000 9.750000 10.500000 13.000000 13.750000 13.750000 14.000000 13.250000 11.750000 9.500000 8.000000 8.000000 7.500000 7.750000 7.500000 7.000000 7.000000 7.000000 6.500000 7.250000 8.000000 8.500000 8.500000 7.500000 6.000000 5.250000 5.250000 5.750000 5.750000 5.750000 5.750000 5.750000 5.500000 5.750000 5.500000 5.500000 5.500000 5.000000 5.000000 4.750000 4.500000 4.250000 3.750000 3.250000 2.750000 1.750000
2.750000 3.000000 3.000000 3.250000 3.000000 3.000000 3.750000 3.500000 3.750000 4.500000 4.500000 5.000000 5.000000 5.250000 5.500000 5.750000 6.000000 6.000000 6.250000 6.000000 6.000000 6.250000 6.000000 6.000000 5.750000 6.500000 8.250000 9.500000 9.500000 9.750000 9.500000 8.750000 7.000000 7.250000 7.750000 8.000000 8.000000 8.500000 8.250000 8.500000 12.250000 13.500000 14.750000 15.250000 15.250000 15.250000 14.250000 12.000000 10.750000 11.250000 16.500000 18.750000 21.000000 21.750000 22.500000 22.500000 22.000000 24.750000 28.000000 29.000000 31.500000 34.500000 43.000000 42.500000 43.750000 47.250000 48.250000 47.250000 44.250000 44.000000 44.750000 43.250000 36.000000 34.000000 34.500000 28.500000 26.000000 18.750000 14.250000 8.500000 4.250000 0.000000 0.000000 0.000000 0.000000 0.000000 0.000000 0.000000 0.000000 0.000000 0.000000 0.000000 0.000000 0.000000 0.000000 0.000000 0.000000 0.000000 0.000000 0.000000 0.000000 0.000000 0.000000 0.000000 0.000000 0.000000 0.000000 0.000000 0.000000 0.000000 0.000000 0.000000 0.000000 0.000000 0.000000 0.000000 0.000000 0.000000 0.000000 3.500000 10.500000 16.750000 17.250000 24.750000 29.250000 33.250000 37.500000 36.250000 40.500000 44.750000 45.750000 45.000000 44.500000 47.250000 48.500000 46.500000 43.250000 41.750000 42.000000 31.750000 30.250000 27.250000 24.750000 22.750000 19.000000 21.000000 21.500000 20.750000 20.000000 18.750000 17.000000 13.750000 10.500000 10.000000 11.250000 14.000000 14.250000 14.750000 14.250000 13.250000 12.500000 10.750000 8.000000 8.250000 8.000000 7.750000 8.000000 7.500000 7.000000 6.500000 6.500000 8.500000 9.000000 9.000000 8.500000 7.750000 6.250000 5.750000 5.750000 6.000000 5.750000 6.250000 6.000000 5.750000 6.000000 5.500000 5.500000 5.250000 5.250000 5.000000 4.750000 4.500000 4.250000 4.000000 3.500000 3.250000 3.000000 2.500000 3.000000 3.000000
3.750000 3.750000 3.250000 3.250000 3.750000 3.250000 3.250000 3.250000 3.500000 4.500000 4.500000 4.250000 4.750000 4.500000 5.250000 5.250000 5.750000 6.000000 6.000000 6.000000 6.250000 6.000000 6.500000 6.500000 6.250000 6.500000 6.000000 7.000000 8.750000 9.500000 10.250000 10.250000 10.500000 10.000000 8.750000 7.500000 7.750000 8.250000 8.500000 8.500000 8.500000 10.000000 13.250000 14.500000 15.250000 16.000000 16.000000 16.000000 15.000000 13.000000 11.250000 15.250000 18.500000 20.750000 21.750000 23.000000 23.500000 23.250000 26.750000 28.000000 28.250000 32.000000 34.000000 44.750000 45.500000 46.750000 49.250000 51.250000 50.250000 48.000000 48.250000 48.500000 47.000000 42.000000 41.250000 39.750000 32.500000 29.750000 26.000000 22.000000 15.500000 10.750000 3.500000 0.000000 0.000000 0.000000 0.000000 0.000000 0.000000 0.000000 0.000000 0.000000 0.000000 0.000000 0.000000 0.000000 0.000000 0.000000 0.000000 0.000000 0.000000 0.000000 0.000000 0.000000 0.000000 0.000000 0.000000 0.000000 0.000000 0.000000 0.000000 0.000000 0.000000 0.000000 0.000000 0.000000 0.000000 3.250000 9.000000 14.250000 22.750000 25.750000 30.750000 32.500000 39.000000 42.750000 42.750000 45.500000 48.750000 49.250000 48.750000 48.000000 50.000000 51.250000 48.000000 44.750000 44.750000 38.500000 31.250000 29.500000 26.750000 23.500000 24.250000 21.750000 21.750000 22.000000 21.250000 20.250000 18.500000 16.250000 10.750000 10.500000 12.750000 14.500000 15.000000 15.500000 14.750000 14.000000 13.500000 11.500000 8.500000 8.250000 8.250000 8.000000 8.000000 7.500000 7.000000 7.000000 9.000000 9.750000 10.000000 9.500000 9.000000 8.000000 7.000000 6.000000 5.750000 6.250000 6.250000 6.000000 6.250000 6.000000 6.000000 6.000000 5.500000 5.500000 5.500000 5.250000 5.000000 4.500000 4.250000 3.750000 4.000000 3.500000 3.250000 3.500000 3.500000 3.250000 2.750000 2.750000
4.000000 4.500000 4.250000 4.250000 3.750000 3.750000 4.250000 4.500000 4.000000 3.500000 3.500000 4.000000 5.000000 5.000000 5.250000 4.500000 5.000000 5.250000 5.500000 6.000000 5.750000 6.250000 6.250000 6.250000 6.500000 6.750000 6.500000 6.500000 6.500000 7.500000 9.000000 10.000000 10.750000 11.000000 11.000000 10.500000 10.500000 7.500000 8.000000 8.500000 8.500000 8.750000 9.000000 12.000000 14.000000 15.250000 16.000000 16.750000 17.000000 17.000000 16.000000 13.500000 13.000000 17.750000 20.250000 22.250000 22.750000 23.750000 24.000000 26.000000 30.250000 30.750000 31.000000 33.500000 40.500000 48.500000 50.250000 50.500000 54.250000 53.750000 54.500000 53.000000 52.500000 51.000000 48.500000 46.750000 45.250000 39.750000 36.250000 34.000000 27.000000 21.500000 16.000000 9.250000 2.500000 0.000000 0.000000 0.000000 0.000000 0.000000 0.000000 0.000000 0.000000 0.000000 0.000000 0.000000 0.000000 0.000000 0.000000 0.000000 0.000000 0.000000 0.000000 0.000000 0.000000 0.000000 0.000000 0.000000 0.000000 0.000000 0.000000 0.000000 0.000000 0.000000 0.000000 3.250000 10.250000 17.500000 20.000000 27.000000 30.500000 38.500000 37.750000 44.250000 47.750000 48.250000 50.000000 52.500000 52.750000 54.000000 54.000000 53.750000 53.500000 49.250000 49.250000 47.500000 35.250000 31.250000 29.500000 26.500000 27.250000 25.500000 22.500000 23.000000 22.250000 21.750000 19.750000 17.500000 14.250000 11.000000 13.750000 15.250000 16.000000 15.750000 15.750000 15.000000 13.750000 12.500000 9.000000 8.750000 8.500000 8.000000 8.000000 8.000000 7.500000 9.250000 10.250000 10.250000 10.250000 10.250000 9.750000 8.000000 7.000000 6.250000 6.250000 6.500000 6.250000 6.250000 6.000000 6.250000 6.000000 6.000000 5.750000 5.500000 5.250000 4.750000 4.750000 4.250000 5.000000 4.750000 4.250000 3.500000 3.500000 3.750000 3.500000 4.000000 3.250000 3.500000 3.750000 3.750000
4.500000 4.750000 4.500000 4.500000 4.250000 4.250000 4.250000 4.250000 4.250000 5.000000 4.750000 4.750000 4.500000 4.000000 4.750000 5.000000 5.750000 5.500000 5.500000 5.500000 5.500000 5.750000 6.000000 6.250000 6.500000 6.500000 6.750000 6.750000 6.750000 7.000000 6.750000 7.750000 9.250000 10.250000 11.000000 11.500000 11.750000 11.750000 11.250000 10.250000 8.250000 8.750000 8.750000 9.000000 9.000000 12.750000 15.000000 16.000000 16.750000 17.500000 17.750000 17.250000 16.750000 14.250000 16.250000 20.000000 21.750000 23.250000 24.500000 25.000000 24.750000 32.000000 32.500000 30.750000 33.250000 37.500000 50.750000 52.750000 53.500000 57.000000 57.000000 60.000000 59.750000 56.500000 55.500000 56.500000 52.000000 50.000000 45.750000 44.000000 40.250000 32.250000 30.750000 24.000000 15.000000 9.000000 1.750000 0.000000 0.000000 0.000000 0.000000 0.000000 0.000000 0.000000 0.000000 0.000000 0.000000 0.000000 0.000000 0.000000 0.000000 0.000000 0.000000 0.000000 0.000000 0.000000 0.000000 0.000000 0.000000 0.000000 0.000000 0.000000 0.000000 2.500000 9.750000 14.750000 23.750000 27.750000 35.250000 37.750000 44.750000 46.000000 49.250000 52.750000 55.000000 57.750000 56.750000 56.750000 59.250000 58.500000 56.750000 56.250000 51.750000 52.000000 43.500000 33.250000 31.000000 29.250000 28.000000 29.500000 23.000000 23.500000 23.250000 22.250000 21.250000 19.500000 16.750000 11.750000 14.250000 16.000000 17.000000 16.750000 16.500000 15.750000 14.750000 13.250000 11.000000 8.750000 8.750000 8.500000 8.250000 8.000000 9.750000 10.500000 11.000000 11.000000 10.500000 10.250000 9.750000 7.750000 7.250000 6.500000 6.250000 6.750000 6.500000 6.250000 6.500000 6.000000 6.000000 5.750000 5.750000 5.500000 5.000000 4.750000 5.250000 4.750000 5.250000 4.750000 3.750000 3.750000 3.500000 4.250000 4.500000 3.750000 3.750000 4.000000 4.000000 4.000000 4.250000 4.000000
4.500000 4.500000 4.750000 4.750000 4.500000 4.750000 5.000000 4.750000 4.500000 4.250000 4.250000 5.000000 5.000000 5.000000 5.500000 5.250000 4.750000 5.250000 5.750000 6.250000 6.000000 6.250000 5.750000 5.750000 6.250000 6.250000 6.750000 6.500000 7.000000 6.750000 7.000000 7.000000 7.000000 8.000000 8.750000 10.500000 11.750000 12.250000 12.250000 12.500000 12.500000 11.500000 10.000000 8.750000 9.000000 9.250000 11.000000 14.000000 16.000000 17.250000 17.750000 18.500000 19.000000 18.250000 17.500000 18.750000 19.250000 21.500000 23.250000 24.750000 25.500000 25.750000 32.250000 35.000000 33.000000 33.500000 35.750000 48.000000 55.250000 56.750000 60.250000 60.250000 64.000000 65.000000 61.000000 62.000000 63.500000 57.250000 55.500000 56.250000 50.500000 46.000000 42.250000 38.500000 29.750000 23.500000 19.750000 11.250000 3.250000 0.000000 0.000000 0.000000 0.000000 0.000000 0.000000 0.000000 0.000000 0.000000 0.000000 0.000000 0.000000 0.000000 0.000000 0.000000 0.000000 0.000000 0.000000 0.000000 0.000000 0.000000 0.000000 4.500000 11.500000 15.500000 25.250000 32.500000 35.500000 43.250000 47.750000 50.750000 54.000000 58.500000 57.750000 62.500000 64.250000 60.750000 62.000000 64.250000 62.250000 59.750000 57.750000 55.000000 51.500000 42.750000 33.500000 31.500000 29.000000 32.500000 30.500000 24.250000 24.500000 23.500000 22.250000 20.750000 19.000000 15.750000 15.500000 17.250000 17.250000 17.250000 16.750000 16.500000 15.500000 14.250000 12.000000 9.250000 9.000000 8.500000 8.500000 9.250000 11.500000 12.000000 11.750000 11.500000 11.250000 10.750000 10.000000 8.250000 7.250000 6.750000 6.750000 6.750000 6.750000 6.500000 6.500000 6.250000 6.000000 6.000000 5.750000 5.500000 5.500000 6.000000 6.000000 5.500000 4.750000 4.000000 4.250000 4.500000 5.000000 4.750000 4.500000 4.000000 4.250000 4.500000 4.250000 4.500000 4.500000 4.500000 4.750000 4.250000
4.750000 4.750000 4.500000 4.750000 4.750000 5.000000 4.750000 5.000000 5.000000 4.500000 4.750000 5.000000 4.750000 4.750000 5.500000 5.500000 5.750000 6.250000 6.000000 5.500000 6.000000 6.500000 6.750000 7.000000 7.000000 6.250000 6.000000 6.500000 6.750000 6.750000 6.750000 7.000000 7.000000 7.250000 7.250000 8.500000 9.250000 11.000000 12.000000 12.250000 13.250000 13.250000 13.250000 12.750000 12.000000 9.750000 9.250000 9.500000 12.250000 15.250000 16.750000 17.750000 18.750000 19.000000 19.250000 19.000000 18.250000 21.750000 21.000000 23.000000 24.750000 25.750000 26.750000 32.500000 36.250000 37.250000 34.250000 35.750000 46.500000 57.750000 59.250000 64.750000 66.250000 69.000000 70.250000 67.500000 69.000000 70.500000 66.250000 65.000000 64.500000 56.750000 57.500000 49.750000 44.750000 41.250000 33.000000 29.750000 21.750000 12.500000 7.250000 0.000000 0.000000 0.000000 0.000000 0.000000 0.000000 0.000000 0.000000 0.000000 0.000000 0.000000 0.000000 0.000000 0.000000 0.000000 0.000000 0.000000 0.000000 7.250000 15.250000 20.750000 28.250000 31.500000 41.500000 46.750000 50.250000 57.500000 58.500000 62.500000 66.750000 63.000000 68.750000 71.250000 68.000000 68.500000 69.000000 67.000000 63.750000 57.750000 57.750000 50.000000 41.750000 33.250000 31.250000 35.000000 33.500000 30.250000 25.250000 24.750000 23.500000 22.500000 20.250000 18.750000 17.750000 17.500000 18.250000 18.250000 18.500000 17.500000 16.000000 15.000000 13.250000 9.250000 9.000000 8.750000 10.000000 11.750000 12.500000 12.500000 12.500000 12.500000 11.750000 11.500000 10.000000 8.500000 7.750000 7.000000 6.750000 7.250000 6.750000 7.000000 6.500000 6.500000 6.000000 6.000000 6.500000 6.500000 6.250000 6.500000 5.750000 5.500000 4.500000 5.000000 5.500000 5.500000 5.500000 5.250000 4.500000 4.250000 4.750000 4.750000 5.000000 5.000000 4.500000 4.750000 4.750000 4.750000 4.500000 4.750000
4.000000 4.250000 4.500000 4.500000 4.250000 4.750000 4.750000 4.750000 5.000000 4.750000 5.000000 5.250000 5.000000 5.000000 5.000000 5.000000 6.000000 6.000000 6.250000 6.250000 6.750000 6.250000 6.250000 7.250000 7.000000 7.000000 7.500000 7.250000 7.250000 7.000000 6.500000 7.000000 6.750000 7.250000 7.500000 7.500000 7.500000 9.000000 9.500000 11.250000 12.500000 13.250000 13.500000 13.750000 14.000000 13.750000 13.250000 12.250000 9.750000 10.000000 13.750000 16.250000 17.250000 18.750000 19.500000 19.750000 20.250000 20.000000 23.250000 24.500000 22.750000 25.000000 26.250000 27.000000 32.500000 36.750000 39.250000 39.250000 35.750000 45.750000 55.000000 61.750000 69.500000 70.750000 73.000000 76.000000 73.750000 76.000000 77.250000 73.500000 73.500000 72.250000 67.250000 66.750000 57.250000 58.750000 49.750000 45.500000 39.750000 34.250000 25.000000 19.250000 11.000000 4.750000 0.000000 0.000000 0.000000 0.000000 0.000000 0.000000 0.000000 0.000000 0.000000 0.000000 0.000000 0.000000 4.500000 10.250000 19.500000 25.250000 34.250000 38.000000 45.000000 52.500000 57.250000 61.750000 65.500000 69.250000 70.250000 74.250000 73.750000 76.000000 77.000000 74.000000 73.750000 73.000000 71.250000 68.250000 60.500000 55.250000 49.250000 40.250000 33.500000 35.250000 36.500000 34.500000 29.250000 26.250000 25.250000 23.500000 22.500000 22.000000 21.750000 19.000000 19.500000 19.500000 18.750000 18.500000 17.500000 16.000000 13.750000 10.250000 9.500000 10.000000 12.000000 12.750000 13.500000 13.250000 13.000000 13.000000 12.000000 11.250000 9.500000 8.750000 7.500000 7.250000 7.000000 7.250000 7.000000 7.000000 6.750000 6.500000 6.750000 7.250000 7.500000 7.000000 6.750000 6.750000 6.000000 5.750000 6.000000 6.250000 6.000000 6.000000 5.750000 5.250000 4.750000 5.000000 4.750000 4.750000 5.000000 5.000000 5.000000 5.000000 4.750000 4.750000 4.500000 4.750000 4.500000 4.000000
3.000000 3.250000 3.750000 4.000000 4.000000 4.500000 4.750000 4.750000 4.750000 4.750000 5.250000 5.000000 5.000000 5.250000 5.250000 5.250000 5.500000 5.500000 5.250000 6.000000 6.250000 6.750000 7.000000 7.250000 6.750000 7.000000 7.750000 7.750000 7.750000 7.750000 8.000000 8.250000 7.750000 7.500000 7.000000 7.250000 7.500000 7.500000 7.750000 9.250000 9.750000 11.750000 12.750000 13.500000 14.500000 14.500000 14.500000 14.750000 14.750000 13.750000 11.750000 11.500000 15.500000 17.250000 19.000000 19.750000 20.750000 21.000000 21.250000 21.750000 26.750000 27.500000 24.750000 26.250000 27.750000 30.500000 37.250000 40.000000 42.000000 39.500000 45.500000 53.750000 63.250000 67.500000 77.250000 77.750000 81.500000 83.750000 82.750000 84.000000 86.000000 82.250000 80.000000 77.500000 75.500000 71.750000 68.000000 64.500000 55.250000 54.250000 46.250000 39.500000 33.500000 24.750000 20.500000 15.000000 7.750000 3.750000 2.250000 1.250000 1.250000 2.500000 3.750000 8.250000 14.500000 19.500000 27.500000 34.000000 38.500000 48.000000 51.000000 58.500000 64.750000 69.500000 73.250000 78.000000 78.750000 84.000000 82.500000 85.000000 83.250000 84.000000 83.000000 79.750000 76.500000 76.250000 76.750000 60.500000 54.750000 48.500000 39.750000 36.250000 39.000000 37.250000 35.000000 27.000000 26.250000 25.250000 23.500000 25.000000 25.000000 20.250000 20.250000 20.250000 20.250000 18.750000 18.000000 16.750000 15.000000 11.250000 10.250000 12.500000 13.500000 13.750000 14.000000 14.000000 13.750000 13.750000 12.750000 11.750000 9.750000 9.250000 7.500000 7.500000 7.500000 7.250000 7.250000 7.000000 7.250000 7.500000 7.750000 7.750000 8.000000 7.250000 7.250000 7.000000 6.250000 6.250000 6.500000 6.000000 6.250000 6.250000 5.750000 5.000000 5.000000 5.000000 5.000000 5.250000 5.000000 4.750000 5.000000 4.750000 4.750000 4.750000 4.250000 4.500000 4.500000 4.250000 3.750000 3.500000
3.750000 3.750000 3.500000 3.250000 3.750000 4.000000 3.750000 4.250000 4.500000 4.500000 4.500000 5.000000 5.250000 5.250000 5.000000 5.250000 5.500000 5.500000 5.500000 5.500000 5.500000 6.250000 6.500000 6.750000 7.000000 7.000000 7.750000 7.500000 8.250000 9.000000 9.250000 8.750000 8.500000 9.000000 8.750000 8.750000 8.500000 7.250000 7.500000 7.750000 7.750000 9.500000 10.250000 11.750000 13.000000 14.500000 15.000000 15.500000 15.750000 16.000000 15.750000 15.250000 14.250000 14.250000 16.250000 18.250000 19.750000 20.750000 21.500000 22.000000 22.000000 27.750000 29.000000 29.250000 26.000000 27.750000 29.000000 37.750000 41.500000 43.500000 43.250000 45.500000 53.500000 60.250000 67.750000 83.750000 82.500000 87.500000 91.250000 92.500000 91.500000 96.750000 90.750000 95.250000 90.250000 90.750000 82.750000 84.750000 76.000000 71.500000 69.500000 61.500000 57.250000 51.250000 44.750000 37.750000 33.750000 29.750000 26.000000 24.000000 23.750000 25.250000 26.750000 30.750000 39.500000 45.500000 51.000000 56.000000 62.750000 66.250000 71.500000 79.750000 83.250000 83.500000 91.750000 88.000000 95.500000 92.750000 95.500000 95.000000 91.250000 91.250000 87.750000 78.000000 81.250000 74.750000 59.250000 54.750000 48.750000 39.250000 41.250000 41.250000 38.500000 34.750000 27.750000 26.500000 25.500000 28.750000 27.750000 25.250000 21.750000 21.250000 20.500000 20.500000 19.250000 17.750000 16.000000 12.500000 12.000000 14.000000 14.500000 15.000000 15.000000 15.000000 14.750000 14.000000 13.000000 12.000000 10.250000 9.250000 7.750000 7.750000 7.750000 7.500000 7.750000 8.500000 8.250000 8.500000 8.500000 8.250000 7.750000 7.750000 8.000000 7.250000 7.000000 7.000000 7.250000 7.000000 6.750000 6.250000 5.500000 5.500000 5.500000 5.000000 5.250000 5.250000 5.000000 5.250000 5.000000 4.750000 4.750000 4.750000 4.250000 4.250000 4.000000 4.000000 3.500000 3.500000 3.000000 3.500000
4.000000 4.000000 4.250000 4.250000 4.000000 4.000000 4.000000 3.750000 4.500000 5.000000 5.000000 4.500000 4.500000 4.750000 5.000000 5.000000 5.000000 5.500000 5.500000 5.750000 5.750000 5.750000 5.750000 6.000000 6.750000 7.000000 7.500000 7.750000 8.250000 8.000000 8.000000 9.000000 9.750000 9.750000 9.750000 9.500000 9.250000 9.250000 9.500000 9.500000 9.000000 7.750000 8.250000 9.750000 10.750000 11.750000 14.000000 14.250000 15.500000 16.000000 16.750000 16.750000 16.750000 16.250000 16.750000 19.000000 18.500000 19.000000 21.000000 22.250000 22.500000 23.000000 26.500000 30.000000 32.000000 32.250000 28.750000 29.750000 37.750000 42.500000 44.750000 46.500000 52.000000 53.750000 60.250000 66.250000 90.250000 89.250000 93.750000 98.750000 102.500000 104.000000 107.000000 105.750000 107.000000 106.500000 105.000000 100.500000 98.750000 95.750000 90.250000 83.250000 81.250000 77.250000 72.500000 67.250000 62.500000 56.500000 54.750000 54.250000 54.500000 55.750000 57.750000 60.250000 63.500000 69.750000 73.500000 76.000000 86.000000 91.750000 95.750000 99.750000 102.250000 103.750000 105.000000 106.500000 106.250000 105.250000 105.250000 98.750000 98.250000 95.000000 79.250000 85.500000 73.500000 59.750000 54.750000 49.000000 44.250000 43.500000 42.500000 40.000000 34.000000 28.250000 27.000000 30.500000 30.500000 28.250000 23.500000 22.250000 22.000000 21.250000 20.000000 18.750000 17.000000 16.000000 15.250000 15.500000 16.000000 16.000000 15.750000 15.500000 15.000000 14.250000 13.500000 11.750000 10.500000 9.750000 8.250000 7.750000 8.250000 8.750000 9.250000 8.750000 9.250000 9.000000 9.000000 9.000000 9.000000 8.500000 7.750000 8.000000 7.750000 7.500000 7.250000 7.250000 7.000000 6.500000 5.500000 5.500000 5.750000 5.500000 5.500000 5.250000 5.250000 5.250000 5.250000 4.500000 4.500000 4.250000 4.500000 4.500000 4.750000 4.250000 4.000000 4.000000 3.750000 4.000000 4.000000 3.750000
4.000000 4.250000 4.250000 4.000000 4.250000 4.500000 4.500000 4.500000 4.750000 4.250000 4.250000 4.500000 5.250000 5.750000 5.500000 5.500000 5.500000 5.000000 5.250000 5.500000 5.250000 5.250000 6.000000 6.000000 6.000000 6.000000 6.500000 7.500000 7.750000 8.000000 8.000000 8.250000 8.500000 8.750000 9.250000 10.000000 10.750000 10.500000 10.500000 10.250000 9.750000 10.250000 10.500000 10.000000 9.500000 10.250000 11.250000 11.750000 13.750000 15.250000 16.500000 16.750000 17.750000 18.000000 17.750000 17.500000 19.000000 21.500000 21.000000 20.250000 22.000000 23.000000 23.500000 24.250000 30.500000 33.250000 35.000000 34.750000 30.750000 37.000000 42.500000 46.750000 48.500000 55.500000 57.750000 60.000000 68.750000 86.500000 96.500000 105.000000 105.000000 112.750000 115.000000 118.250000 121.750000 119.750000 123.250000 123.000000 116.750000 120.500000 117.500000 110.000000 104.750000 100.750000 97.000000 94.000000 90.500000 87.750000 85.750000 83.750000 87.000000 87.750000 87.250000 90.250000 94.500000 97.000000 101.250000 108.250000 114.000000 118.000000 118.000000 117.750000 124.000000 119.750000 123.000000 119.750000 119.250000 116.000000 114.250000 105.250000 100.750000 84.500000 85.500000 74.500000 60.000000 55.250000 54.750000 47.250000 45.750000 43.750000 39.250000 33.250000 29.000000 32.750000 33.000000 31.750000 28.250000 23.750000 23.250000 22.000000 21.500000 20.000000 20.000000 19.750000 17.750000 17.000000 17.500000 17.250000 16.750000 16.750000 15.500000 14.750000 14.250000 11.250000 11.250000 10.250000 8.250000 9.750000 9.750000 9.750000 10.000000 10.000000 9.750000 10.000000 10.250000 9.750000 9.500000 8.000000 8.000000 8.000000 8.250000 8.250000 7.500000 7.250000 7.000000 6.000000 5.750000 5.750000 5.750000 5.500000 5.500000 5.750000 5.000000 5.000000 4.750000 5.250000 5.000000 5.500000 5.250000 5.250000 4.250000 4.250000 4.500000 4.500000 4.250000 4.250000 4.500000 4.250000 4.250000 4.250000
3.750000 4.250000 4.250000 4.250000 4.500000 4.500000 4.500000 4.500000 4.500000 4.500000 4.750000 4.750000 4.750000 4.750000 4.750000 5.250000 5.750000 6.000000 6.250000 6.000000 6.500000 6.250000 6.000000 5.500000 5.750000 5.750000 6.000000 6.250000 6.250000 7.500000 8.000000 8.000000 8.500000 9.000000 9.000000 9.000000 9.000000 10.500000 11.250000 11.250000 11.750000 11.750000 11.000000 11.250000 11.250000 10.750000 11.000000 12.500000 12.500000 12.250000 14.500000 15.750000 17.000000 17.750000 18.500000 18.750000 18.750000 19.000000 21.500000 24.000000 25.000000 23.500000 23.250000 24.000000 25.250000 30.000000 33.750000 36.250000 37.250000 37.250000 38.500000 43.500000 46.750000 49.750000 57.250000 63.250000 61.500000 71.500000 85.750000 98.250000 113.250000 111.750000 126.000000 127.500000 134.500000 137.500000 140.250000 140.000000 142.500000 141.000000 143.750000 139.250000 136.250000 134.000000 130.750000 127.250000 124.500000 126.000000 124.000000 119.500000 120.250000 120.000000 126.000000 129.000000 130.500000 133.000000 136.250000 139.000000 142.250000 142.500000 141.750000 142.250000 139.750000 140.750000 133.500000 134.250000 128.750000 126.500000 111.500000 106.500000 93.000000 85.750000 75.250000 61.000000 59.250000 59.000000 48.500000 47.000000 44.000000 40.000000 33.250000 36.000000 36.000000 34.750000 31.750000 26.750000 24.250000 23.750000 22.750000 22.750000 23.000000 22.000000 20.250000 18.250000 18.000000 17.500000 17.750000 17.250000 16.500000 15.250000 13.750000 11.750000 11.250000 12.000000 10.500000 10.500000 10.750000 10.750000 10.250000 10.500000 11.000000 11.000000 10.500000 10.000000 8.750000 8.500000 9.000000 8.500000 8.500000 8.000000 8.000000 7.000000 6.250000 6.250000 6.000000 6.000000 5.750000 5.500000 5.500000 5.750000 6.000000 6.000000 6.000000 5.750000 5.750000 5.750000 4.750000 5.000000 4.750000 4.750000 4.750000 4.500000 4.750000 4.750000 4.750000 4.500000 4.500000 4.250000 4.000000 4.000000
3.250000 4.000000 4.000000 4.000000 4.250000 4.250000 4.500000 4.500000 4.500000 5.000000 5.000000 5.000000 5.000000 5.000000 5.000000 5.000000 5.250000 5.250000 5.250000 5.750000 6.500000 6.750000 7.000000 7.000000 7.000000 7.000000 7.250000 7.000000 6.000000 6.250000 6.500000 7.250000 7.750000 8.500000 9.000000 9.000000 9.250000 9.750000 10.000000 10.000000 11.000000 12.000000 12.500000 12.750000 13.000000 13.000000 11.750000 11.750000 12.000000 13.500000 14.500000 14.750000 15.250000 16.000000 17.250000 18.500000 19.250000 19.500000 20.250000 22.000000 23.250000 26.500000 28.000000 27.250000 26.500000 25.500000 28.750000 34.000000 37.250000 39.250000 40.500000 43.500000 46.500000 47.750000 51.250000 59.250000 66.500000 69.750000 73.750000 87.000000 96.750000 118.500000 118.000000 138.500000 143.250000 150.000000 156.500000 159.750000 165.750000 168.000000 166.000000 168.500000 169.750000 169.250000 167.750000 168.750000 167.750000 165.250000 161.750000 162.750000 165.500000 161.500000 162.500000 166.750000 169.750000 171.000000 171.500000 171.500000 167.500000 169.250000 168.750000 163.500000 159.250000 157.750000 149.000000 144.750000 139.000000 119.750000 113.250000 100.500000 87.000000 77.500000 62.750000 66.000000 61.750000 50.500000 48.500000 45.250000 44.000000 38.750000 39.000000 37.250000 35.250000 31.500000 25.750000 24.750000 25.750000 25.500000 26.000000 24.500000 22.500000 20.750000 19.250000 19.250000 18.250000 17.500000 17.000000 15.750000 14.000000 13.750000 13.750000 13.250000 11.500000 11.500000 11.500000 11.250000 12.500000 12.250000 11.750000 12.000000 11.250000 9.500000 9.750000 9.250000 9.000000 8.750000 8.750000 8.250000 8.000000 7.250000 6.250000 6.250000 6.000000 6.500000 6.500000 6.750000 7.000000 6.750000 6.500000 6.750000 6.250000 6.000000 5.000000 5.000000 5.000000 5.000000 4.750000 5.000000 5.000000 4.750000 4.750000 4.750000 4.500000 4.500000 4.500000 4.250000 4.250000 4.250000 3.750000 3.500000
3.250000 3.500000 3.750000 4.250000 4.500000 4.250000 4.000000 4.250000 4.250000 4.750000 4.750000 4.750000 5.000000 5.000000 5.000000 5.250000 5.250000 5.000000 5.500000 5.500000 5.500000 5.750000 5.750000 6.500000 6.750000 7.250000 7.750000 7.750000 7.750000 7.750000 7.750000 7.750000 8.000000 7.250000 8.000000 8.500000 9.000000 9.500000 9.750000 10.000000 10.000000 10.500000 10.500000 12.250000 13.000000 13.250000 13.750000 14.000000 13.750000 14.000000 13.500000 14.750000 15.500000 15.750000 16.750000 18.750000 18.000000 19.250000 20.250000 20.500000 21.000000 23.750000 26.250000 29.000000 30.500000 30.750000 29.000000 29.500000 33.500000 37.750000 41.250000 42.750000 45.000000 52.000000 52.500000 52.500000 61.750000 69.500000 74.250000 83.000000 89.250000 99.250000 125.000000 125.500000 151.000000 168.250000 165.250000 179.500000 186.000000 190.250000 195.750000 199.250000 203.250000 206.000000 207.250000 211.250000 209.000000 209.750000 213.000000 211.500000 208.750000 213.250000 208.500000 209.750000 209.250000 207.250000 204.750000 200.500000 198.500000 197.250000 192.750000 185.250000 178.750000 167.750000 167.250000 150.500000 135.250000 123.000000 105.250000 89.500000 79.750000 72.000000 70.000000 64.250000 52.500000 49.500000 51.250000 47.750000 42.500000 40.250000 38.750000 35.250000 30.000000 28.250000 28.500000 29.500000 29.000000 27.500000 24.000000 22.500000 20.500000 20.000000 19.000000 18.500000 17.750000 17.500000 16.250000 15.500000 15.000000 14.250000 12.500000 12.250000 13.250000 13.250000 13.000000 13.000000 12.500000 11.750000 10.250000 10.000000 9.750000 9.750000 9.750000 8.750000 8.750000 8.250000 7.750000 7.000000 7.500000 7.750000 7.750000 7.500000 7.750000 7.250000 7.500000 7.250000 6.750000 6.250000 5.500000 5.500000 5.250000 5.500000 5.500000 5.250000 5.250000 5.250000 5.000000 5.000000 5.000000 5.000000 4.500000 4.500000 4.500000 4.250000 4.250000 3.750000 3.750000 3.250000 3.750000 3.250000
3.500000 3.500000 3.500000 3.500000 3.500000 4.000000 4.750000 4.750000 4.750000 5.000000 5.000000 5.000000 5.000000 4.750000 4.750000 5.000000 5.000000 5.000000 5.750000 5.750000 5.750000 6.000000 6.000000 5.750000 6.000000 5.750000 5.750000 6.750000 7.500000 7.750000 8.000000 8.500000 8.500000 8.750000 8.500000 9.000000 9.250000 10.250000 10.000000 10.250000 10.000000 10.500000 10.750000 11.250000 11.000000 11.750000 13.250000 13.750000 14.000000 14.500000 15.250000 15.250000 16.000000 17.000000 16.500000 17.750000 17.750000 20.000000 21.250000 21.750000 20.750000 22.000000 24.500000 26.250000 28.500000 31.750000 33.000000 33.500000 33.500000 35.750000 39.000000 41.500000 43.750000 47.250000 55.500000 59.250000 59.250000 63.750000 73.000000 78.500000 89.500000 92.500000 107.750000 126.000000 152.000000 163.250000 187.750000 192.750000 202.250000 212.500000 226.000000 234.250000 240.500000 246.000000 249.500000 258.250000 261.500000 265.250000 266.750000 264.500000 269.500000 264.250000 267.750000 261.250000 259.750000 254.750000 245.000000 240.250000 234.000000 225.000000 212.750000 208.750000 192.250000 186.750000 163.250000 147.000000 125.000000 110.750000 92.500000 89.500000 77.250000 73.250000 66.750000 54.250000 57.000000 55.750000 48.500000 43.750000 41.750000 39.250000 36.500000 33.000000 31.750000 32.500000 31.750000 29.750000 26.000000 24.750000 21.750000 21.250000 20.500000 21.000000 20.500000 19.750000 17.250000 17.000000 16.250000 15.000000 14.500000 14.750000 14.500000 14.250000 14.000000 13.500000 12.500000 11.000000 10.750000 10.750000 10.500000 10.250000 10.000000 9.750000 9.750000 9.500000 9.250000 8.750000 8.500000 8.250000 8.500000 8.750000 8.000000 7.750000 7.500000 6.500000 6.000000 6.000000 6.000000 5.750000 5.750000 5.750000 5.250000 5.250000 5.250000 5.250000 5.000000 5.000000 5.000000 4.750000 4.750000 4.250000 4.250000 4.500000 4.500000 4.500000 4.500000 4.000000 3.500000 3.500000 3.500000 3.500000
3.000000 3.250000 3.250000 3.250000 3.750000 3.750000 3.500000 3.500000 4.000000 4.750000 5.000000 5.000000 5.250000 5.750000 5.750000 5.500000 5.750000 5.500000 6.000000 5.500000 5.500000 5.750000 5.750000 5.750000 6.000000 6.000000 6.000000 6.500000 6.500000 6.500000 6.750000 7.750000 8.250000 8.500000 8.500000 9.000000 9.250000 9.750000 9.750000 11.000000 11.250000 12.000000 12.250000 12.250000 12.000000 12.250000 11.750000 11.750000 12.750000 14.000000 14.750000 15.250000 16.000000 16.250000 17.750000 19.000000 19.250000 19.500000 19.250000 21.750000 23.250000 24.250000 24.750000 24.500000 26.250000 28.500000 31.500000 34.250000 35.500000 37.250000 40.250000 42.000000 45.750000 45.750000 48.750000 56.500000 62.750000 66.250000 71.000000 75.750000 82.000000 97.250000 105.500000 115.250000 130.250000 157.750000 178.000000 207.250000 218.250000 241.250000 252.250000 270.500000 281.000000 291.750000 301.000000 315.000000 321.500000 330.000000 330.000000 336.500000 331.500000 333.000000 326.250000 320.000000 315.250000 305.250000 292.750000 281.000000 268.750000 249.750000 241.000000 214.750000 200.000000 181.750000 156.000000 130.250000 117.250000 102.250000 97.750000 81.750000 76.500000 70.500000 64.000000 62.500000 58.500000 50.500000 46.000000 44.750000 42.750000 39.000000 35.750000 35.750000 34.000000 32.750000 28.000000 27.250000 24.750000 24.250000 23.750000 23.750000 22.000000 20.500000 18.750000 17.750000 18.500000 18.250000 16.000000 15.750000 16.000000 15.250000 14.750000 13.500000 12.000000 11.750000 11.750000 11.250000 11.750000 12.250000 11.750000 11.500000 11.000000 10.500000 9.500000 9.250000 8.750000 8.750000 8.500000 8.250000 7.750000 7.250000 6.250000 6.250000 6.250000 6.250000 6.000000 6.000000 6.000000 5.750000 5.750000 5.500000 5.000000 5.000000 5.000000 5.000000 5.250000 5.750000 5.500000 5.250000 5.000000 5.000000 4.750000 4.500000 3.750000 3.500000 3.500000 3.500000 3.500000 3.500000 3.250000 3.250000
3.000000 3.000000 3.000000 3.750000 3.750000 3.750000 3.500000 3.500000 3.500000 3.750000 4.000000 4.000000 4.750000 5.000000 5.000000 5.500000 5.750000 6.250000 6.000000 6.500000 6.500000 6.250000 6.750000 6.750000 6.500000 6.250000 5.750000 6.000000 6.500000 6.500000 6.750000 6.750000 6.750000 6.750000 6.750000 7.750000 8.250000 9.000000 9.500000 9.500000 10.250000 11.250000 12.000000 12.500000 13.250000 13.750000 14.000000 14.000000 14.500000 14.250000 13.750000 14.250000 15.500000 16.250000 16.500000 17.500000 19.250000 20.500000 21.500000 22.250000 22.500000 22.750000 25.250000 25.750000 27.000000 30.000000 31.500000 32.250000 34.250000 37.000000 38.750000 42.750000 45.500000 49.500000 51.250000 53.500000 57.000000 65.750000 70.250000 77.750000 86.000000 86.250000 104.250000 113.000000 130.500000 137.000000 167.000000 199.250000 230.250000 248.000000 272.250000 285.000000 328.750000 343.750000 357.000000 379.500000 391.000000 402.250000 414.500000 412.500000 416.750000 414.250000 402.000000 388.000000 379.500000 358.750000 343.250000 327.000000 301.500000 280.750000 247.000000 231.500000 195.500000 166.000000 143.250000 127.250000 111.500000 104.500000 89.250000 83.750000 80.000000 70.000000 66.500000 59.750000 54.000000 51.750000 48.000000 45.000000 43.000000 38.750000 37.500000 34.250000 30.750000 31.250000 30.250000 27.250000 26.250000 25.000000 23.500000 20.750000 21.000000 21.500000 20.750000 19.500000 17.250000 17.000000 16.500000 15.750000 14.750000 13.250000 14.000000 14.250000 13.750000 13.750000 13.750000 13.000000 13.000000 12.250000 11.750000 10.250000 10.000000 9.500000 9.500000 9.250000 8.500000 8.000000 7.000000 6.750000 6.750000 6.750000 6.500000 6.250000 6.250000 6.250000 6.000000 6.000000 6.250000 6.250000 6.250000 6.000000 5.750000 6.250000 6.000000 6.000000 5.750000 5.500000 5.250000 4.750000 4.250000 3.750000 4.000000 4.000000 3.500000 3.500000 3.500000 3.000000 3.000000 3.500000 3.250000 2.750000
4.250000 4.250000 3.750000 4.000000 4.000000 3.750000 3.750000 3.750000 4.000000 4.500000 4.750000 5.000000 4.750000 5.000000 4.750000 4.750000 5.250000 5.250000 5.750000 5.750000 6.000000 6.500000 6.500000 6.750000 6.750000 7.000000 7.000000 7.500000 7.500000 7.500000 7.500000 7.750000 7.250000 6.750000 7.000000 7.000000 7.000000 7.250000 7.250000 8.750000 9.500000 10.000000 10.250000 10.500000 12.750000 13.500000 13.750000 15.000000 15.000000 15.750000 15.750000 16.000000 16.250000 16.750000 17.500000 18.500000 19.250000 18.000000 20.750000 22.500000 23.500000 24.000000 24.750000 25.000000 27.250000 28.000000 30.250000 33.500000 35.750000 37.000000 40.500000 41.500000 44.500000 48.750000 52.250000 57.250000 58.500000 65.000000 71.500000 74.250000 84.000000 94.500000 102.500000 113.250000 124.750000 144.000000 160.000000 178.750000 214.000000 257.250000 298.750000 330.750000 350.500000 395.000000 425.250000 457.250000 464.750000 492.750000 508.500000 521.250000 519.250000 504.250000 493.500000 471.000000 446.250000 417.500000 389.500000 350.250000 329.250000 297.250000 257.500000 211.750000 181.250000 160.500000 143.250000 125.500000 111.750000 101.000000 94.250000 84.750000 74.250000 71.250000 64.750000 59.250000 56.000000 53.000000 48.250000 44.750000 40.250000 40.250000 36.500000 35.000000 33.250000 31.500000 28.000000 27.000000 26.000000 24.500000 23.500000 23.250000 22.250000 21.000000 19.000000 18.500000 18.500000 18.000000 16.000000 16.250000 15.750000 15.750000 15.500000 15.000000 14.500000 13.750000 13.000000 12.250000 11.250000 10.500000 10.000000 10.000000 9.250000 8.250000 7.500000 7.500000 7.250000 7.000000 7.000000 6.750000 6.500000 7.000000 6.750000 7.250000 7.250000 7.250000 7.000000 6.750000 6.500000 6.750000 6.500000 6.250000 6.000000 5.750000 5.500000 5.250000 4.750000 4.750000 4.500000 4.500000 4.750000 4.750000 4.500000 4.250000 4.250000 4.000000 4.000000 4.000000 4.000000 4.000000 3.750000 3.750000
4.500000 4.250000 4.250000 4.250000 4.250000 4.500000 4.500000 4.500000 4.500000 4.500000 4.500000 4.500000 4.500000 4.250000 4.750000 5.250000 5.500000 5.750000 5.750000 6.250000 6.750000 7.250000 7.750000 7.750000 8.000000 8.000000 8.000000 8.000000 7.500000 7.750000 8.000000 8.000000 8.250000 8.250000 8.250000 8.750000 8.500000 8.500000 8.500000 8.000000 7.500000 8.000000 8.000000 9.500000 10.250000 10.750000 12.500000 13.250000 14.250000 15.250000 15.500000 16.500000 16.750000 17.500000 17.750000 18.500000 18.000000 20.000000 21.750000 22.000000 24.750000 25.750000 26.500000 26.250000 26.750000 27.750000 30.000000 32.000000 35.250000 36.750000 39.500000 41.000000 45.750000 49.000000 53.750000 55.500000 59.750000 65.500000 72.250000 76.500000 84.250000 93.250000 102.250000 115.500000 127.250000 141.750000 158.250000 184.500000 208.000000 240.750000 282.000000 348.000000 395.750000 435.250000 487.250000 521.250000 562.000000 607.000000 624.500000 633.750000 634.500000 624.750000 606.500000 562.750000 527.250000 485.000000 434.750000 394.750000 348.750000 283.750000 243.750000 208.500000 183.500000 158.000000 140.750000 126.000000 114.250000 102.000000 92.750000 85.250000 77.750000 70.750000 66.250000 60.500000 54.500000 53.250000 50.000000 45.750000 40.750000 39.500000 37.250000 34.500000 31.750000 30.750000 27.500000 27.000000 26.250000 26.000000 25.500000 25.000000 22.750000 21.250000 20.250000 18.500000 17.750000 17.500000 17.250000 17.250000 16.500000 15.750000 15.000000 14.750000 14.000000 13.000000 11.000000 10.500000 9.500000 9.000000 8.000000 7.750000 7.500000 7.500000 8.250000 7.750000 8.250000 8.250000 8.000000 7.750000 8.000000 8.000000 7.750000 7.500000 7.250000 8.000000 8.000000 8.000000 7.750000 7.250000 7.500000 7.250000 6.500000 5.750000 5.500000 5.500000 5.000000 4.750000 4.500000 4.250000 4.500000 4.500000 4.500000 4.500000 4.750000 4.750000 4.750000 4.750000 4.750000 4.500000 4.500000 4.500000
4.750000 4.750000 4.750000 4.750000 4.750000 4.750000 4.750000 4.750000 5.000000 5.000000 5.000000 5.000000 5.000000 5.000000 5.000000 5.000000 5.000000 5.000000 5.000000 5.000000 5.500000 6.250000 6.500000 7.250000 7.750000 8.500000 8.750000 8.750000 9.250000 9.250000 9.500000 10.000000 10.250000 10.250000 10.000000 10.250000 10.250000 10.250000 10.000000 9.750000 9.750000 9.750000 9.500000 9.500000 9.250000 8.750000 9.000000 10.250000 11.750000 13.500000 14.250000 15.000000 16.250000 16.750000 17.500000 18.000000 18.750000 19.250000 19.750000 20.250000 22.750000 24.750000 27.500000 29.000000 30.250000 31.000000 32.500000 32.750000 35.000000 36.750000 40.750000 43.000000 43.250000 45.000000 50.750000 57.750000 62.750000 65.750000 73.750000 79.000000 83.750000 94.250000 104.250000 116.000000 131.000000 142.750000 159.500000 187.250000 211.000000 240.750000 281.500000 332.750000 400.500000 486.500000 555.500000 626.000000 691.250000 759.250000 806.000000 832.250000 830.750000 804.500000 756.500000 696.000000 625.250000 555.500000 484.500000 400.750000 331.000000 282.250000 240.500000 211.500000 186.500000 159.250000 142.500000 130.750000 116.250000 104.500000 93.750000 83.500000 78.250000 73.750000 66.000000 62.250000 58.250000 51.000000 46.000000 43.500000 41.750000 40.750000 36.500000 34.250000 32.500000 32.000000 31.500000 31.250000 29.500000 27.500000 25.250000 22.500000 20.000000 20.250000 19.500000 19.250000 18.500000 17.750000 17.500000 16.500000 15.500000 15.000000 13.250000 12.000000 10.500000 9.250000 8.750000 9.000000 9.250000 9.500000 9.500000 9.500000 9.250000 9.500000 10.000000 10.250000 10.500000 10.000000 9.750000 10.000000 10.000000 10.000000 9.250000 9.250000 9.250000 8.500000 8.250000 8.000000 7.250000 6.500000 6.000000 6.000000 4.750000 4.750000 4.750000 4.750000 4.750000 4.750000 4.750000 4.750000 4.750000 4.750000 4.750000 4.750000 4.750000 4.750000 4.750000 4.500000 4.500000 4.500000 4.500000 4.500000
5.000000 5.000000 5.000000 5.000000 5.000000 5.000000 5.000000 5.000000 5.000000 5.000000 5.000000 5.000000 5.500000 5.500000 5.500000 5.500000 5.500000 5.500000 5.500000 5.500000 5.500000 5.500000 5.500000 5.500000 5.500000 5.500000 6.500000 7.500000 8.500000 9.000000 9.500000 9.750000 10.250000 10.500000 10.750000 11.250000 11.500000 11.750000 11.750000 11.750000 12.500000 12.500000 12.500000 12.250000 12.500000 13.000000 12.750000 12.750000 12.500000 12.000000 11.750000 14.000000 15.250000 15.250000 16.500000 17.500000 18.250000 19.000000 19.750000 20.500000 21.250000 21.750000 22.250000 26.500000 29.750000 32.000000 33.000000 35.250000 36.250000 37.750000 39.000000 46.000000 48.750000 51.500000 52.250000 52.000000 60.500000 66.500000 71.250000 79.250000 90.750000 97.250000 110.000000 118.250000 130.500000 148.500000 172.500000 189.000000 215.750000 256.000000 298.000000 347.250000 414.750000 502.500000 622.250000 755.500000 900.500000 1013.250000 1107.000000 1146.500000 1143.500000 1109.000000 1010.250000 900.000000 757.500000 622.500000 502.250000 414.750000 346.500000 298.250000 255.500000 215.500000 191.000000 172.000000 148.750000 130.000000 118.000000 109.750000 97.750000 90.250000 79.500000 71.500000 66.750000 61.000000 51.750000 52.250000 51.000000 49.250000 45.500000 40.250000 37.750000 36.250000 35.250000 33.750000 31.750000 29.250000 26.750000 22.750000 21.750000 21.500000 20.500000 20.000000 19.250000 18.250000 17.500000 16.500000 15.250000 14.250000 13.750000 12.000000 11.750000 12.250000 12.500000 12.500000 12.250000 12.750000 12.750000 12.250000 12.000000 12.250000 11.750000 12.000000 12.000000 11.500000 11.000000 11.000000 10.250000 10.250000 10.000000 9.500000 9.000000 8.500000 8.250000 6.750000 6.000000 5.750000 5.750000 5.500000 5.500000 5.500000 5.500000 5.500000 5.500000 5.500000 5.500000 5.500000 5.500000 5.500000 5.500000 5.500000 5.500000 5.250000 5.250000 5.250000 5.000000 4.750000 4.750000 4.750000 4.500000 4.500000
4.500000 4.750000 4.750000 4.750000 4.750000 5.000000 5.000000 5.000000 5.000000 5.000000 5.000000 5.250000 5.250000 5.500000 5.500000 5.500000 5.500000 5.750000 5.750000 5.750000 5.750000 6.000000 6.000000 6.000000 6.000000 6.000000 6.000000 6.000000 6.000000 6.000000 6.500000 7.000000 8.500000 9.750000 10.000000 10.500000 11.000000 11.500000 12.000000 12.250000 12.750000 12.750000 13.250000 13.750000 14.000000 13.750000 14.250000 14.750000 14.500000 14.750000 15.500000 15.000000 15.250000 16.500000 17.750000 19.750000 20.750000 21.750000 22.500000 22.750000 22.750000 22.750000 22.500000 23.000000 24.250000 26.750000 31.000000 34.000000 36.500000 38.250000 40.250000 42.000000 45.750000 52.250000 57.000000 60.000000 63.500000 69.000000 77.750000 81.250000 86.500000 98.500000 108.500000 122.750000 139.000000 156.750000 174.500000 201.500000 234.000000 274.500000 321.250000 387.500000 475.250000 606.500000 726.000000 863.000000 1020.000000 1168.250000 1288.000000 1340.500000 1338.500000 1279.000000 1175.000000 1020.000000 867.000000 730.250000 603.500000 476.000000 387.250000 321.250000 273.750000 233.250000 203.000000 175.000000 157.250000 139.500000 122.750000 108.500000 98.000000 86.750000 81.750000 77.500000 69.250000 63.000000 60.000000 56.250000 52.250000 46.000000 41.750000 40.000000 38.500000 36.000000 34.000000 30.750000 26.750000 23.750000 23.000000 23.250000 23.000000 22.750000 22.000000 22.250000 21.750000 21.000000 19.500000 18.250000 16.250000 15.250000 14.500000 15.250000 15.250000 14.750000 14.500000 14.250000 14.000000 14.000000 13.500000 13.250000 13.000000 13.000000 12.500000 12.000000 11.750000 10.750000 10.750000 9.750000 9.500000 8.500000 7.750000 6.750000 6.500000 6.250000 6.000000 6.000000 6.000000 6.000000 6.000000 6.000000 6.000000 5.750000 5.750000 5.750000 5.500000 5.500000 5.500000 5.500000 5.250000 5.250000 5.250000 5.250000 5.250000 5.250000 5.000000 5.000000 5.000000 4.750000 4.750000 4.750000 4.750000 4.500000
4.250000 4.250000 4.250000 4.250000 4.250000 4.500000 4.500000 4.750000 5.000000 5.000000 5.000000 5.250000 5.250000 5.500000 5.500000 5.500000 5.500000 5.500000 5.500000 5.500000 5.750000 6.000000 6.000000 6.000000 6.000000 6.250000 6.250000 6.500000 6.500000 6.500000 6.500000 6.500000 6.500000 6.500000 8.000000 8.500000 8.500000 9.250000 10.250000 11.000000 11.750000 12.250000 12.500000 13.250000 13.750000 13.750000 14.750000 15.250000 15.500000 15.750000 16.250000 16.250000 16.750000 17.250000 17.500000 17.500000 19.750000 20.750000 22.250000 24.250000 26.000000 26.750000 28.000000 28.750000 30.000000 30.750000 30.750000 33.000000 35.000000 39.000000 41.750000 44.250000 46.500000 49.000000 53.000000 58.500000 64.000000 68.500000 77.000000 84.000000 93.750000 103.500000 113.750000 126.000000 144.250000 163.500000 187.750000 218.750000 254.750000 305.500000 389.750000 471.500000 559.250000 649.250000 753.000000 871.750000 1002.000000 1138.000000 1265.250000 1343.750000 1342.750000 1274.250000 1146.750000 1005.000000 872.000000 749.000000 647.500000 558.750000 474.250000 386.000000 305.500000 255.500000 217.250000 189.500000 164.750000 143.500000 126.750000 114.250000 102.750000 94.250000 83.000000 76.500000 69.000000 64.000000 58.000000 54.000000 49.000000 47.000000 44.500000 42.750000 39.000000 34.750000 32.750000 31.250000 30.500000 30.000000 28.750000 27.750000 27.000000 25.500000 24.750000 21.750000 20.750000 19.250000 17.750000 17.500000 17.000000 17.000000 16.750000 16.250000 16.000000 16.000000 15.000000 14.750000 14.500000 14.000000 13.500000 12.750000 12.000000 11.750000 10.500000 10.000000 8.750000 8.500000 8.000000 7.500000 6.750000 6.750000 6.750000 6.500000 6.500000 6.500000 6.500000 6.500000 6.500000 6.000000 6.000000 6.000000 6.000000 5.750000 5.750000 5.750000 5.500000 5.500000 5.500000 5.500000 5.500000 5.500000 5.000000 4.750000 4.750000 4.750000 4.750000 4.500000 4.500000 4.500000 4.500000 4.250000 4.250000 4.250000
3.500000 3.500000 3.500000 3.500000 3.750000 4.000000 4.250000 4.500000 4.500000 4.500000 4.750000 4.750000 4.750000 4.750000 4.750000 5.000000 5.250000 5.250000 5.250000 5.500000 5.750000 6.000000 6.000000 6.000000 6.250000 6.250000 6.250000 6.500000 6.500000 6.500000 6.500000 6.500000 6.750000 7.000000 7.000000 7.000000 7.250000 8.000000 8.750000 9.000000 9.500000 10.000000 10.500000 10.750000 12.000000 13.000000 13.500000 14.500000 14.750000 15.500000 16.000000 16.000000 17.250000 17.750000 18.250000 18.500000 19.000000 19.750000 21.250000 22.500000 24.000000 25.000000 26.500000 29.000000 30.750000 31.500000 33.500000 35.000000 37.250000 40.250000 43.000000 45.000000 49.250000 52.250000 54.000000 60.500000 65.750000 70.250000 79.000000 88.500000 98.000000 106.500000 123.000000 137.000000 152.750000 177.000000 204.500000 242.750000 311.750000 375.000000 430.500000 491.500000 555.750000 633.250000 720.250000 824.750000 938.250000 1068.750000 1175.750000 1246.500000 1246.250000 1177.000000 1066.750000 940.750000 829.000000 718.500000 636.500000 559.500000 498.000000 432.750000 373.750000 312.250000 242.750000 203.250000 180.000000 154.000000 137.750000 121.250000 106.000000 97.250000 88.250000 79.500000 70.500000 65.500000 59.750000 54.750000 52.500000 49.000000 44.750000 43.250000 40.250000 36.500000 35.500000 33.250000 32.250000 30.500000 28.750000 25.750000 25.000000 23.500000 22.250000 20.750000 19.500000 19.250000 18.250000 18.250000 18.000000 16.750000 16.250000 16.000000 15.250000 14.500000 14.000000 13.500000 12.500000 11.750000 10.750000 10.000000 10.000000 9.500000 9.000000 8.250000 7.500000 7.500000 7.250000 7.000000 7.000000 7.000000 6.750000 6.750000 6.500000 6.500000 6.500000 6.250000 6.250000 6.000000 5.750000 5.750000 5.750000 5.750000 5.500000 5.250000 5.250000 5.250000 5.000000 4.750000 4.750000 4.750000 4.750000 4.750000 4.500000 4.250000 4.000000 4.000000 4.000000 4.000000 3.750000 3.500000 3.500000 3.250000
2.750000 2.750000 3.250000 3.250000 4.000000 4.000000 4.000000 4.250000 4.250000 4.250000 4.500000 4.750000 5.000000 5.250000 5.250000 5.500000 5.500000 5.750000 5.750000 5.750000 6.250000 6.250000 6.250000 6.250000 6.500000 6.500000 6.500000 7.000000 7.000000 7.000000 7.000000 7.000000 7.250000 7.500000 7.500000 7.500000 7.750000 7.750000 8.000000 8.750000 8.750000 9.500000 10.250000 10.500000 11.000000 11.250000 11.750000 11.750000 12.500000 12.500000 14.000000 15.250000 16.000000 16.500000 17.250000 18.000000 18.750000 19.500000 20.000000 21.250000 22.250000 24.000000 25.250000 27.250000 28.500000 29.500000 31.500000 34.500000 36.500000 39.000000 42.000000 46.750000 49.750000 52.500000 55.000000 61.000000 68.000000 76.000000 81.000000 87.250000 99.000000 110.750000 123.500000 143.500000 168.250000 196.250000 255.250000 292.500000 333.000000 374.750000 414.750000 465.250000 520.000000 576.750000 643.000000 724.500000 812.500000 900.500000 988.750000 1043.250000 1042.500000 987.750000 902.750000 806.250000 724.000000 643.250000 578.750000 517.750000 461.250000 415.500000 374.250000 334.000000 295.500000 250.500000 194.250000 167.750000 136.500000 123.000000 112.000000 97.000000 88.000000 82.000000 75.250000 66.250000 61.500000 56.000000 52.750000 50.250000 46.500000 42.000000 39.750000 37.500000 35.750000 32.000000 30.500000 28.750000 27.500000 26.750000 24.250000 23.000000 22.000000 21.250000 20.750000 19.750000 19.250000 18.250000 17.500000 16.750000 15.750000 14.500000 13.250000 13.250000 12.750000 12.250000 11.500000 11.250000 10.750000 10.250000 9.000000 8.750000 8.500000 8.500000 8.500000 8.500000 8.500000 8.000000 8.000000 7.750000 7.750000 7.500000 7.750000 7.250000 7.250000 7.000000 7.000000 7.000000 6.750000 6.000000 6.000000 6.000000 6.000000 6.000000 6.000000 5.750000 5.750000 5.500000 5.500000 5.250000 4.750000 4.500000 4.250000 4.250000 4.250000 4.000000 3.750000 3.500000 3.500000 3.000000 3.000000 2.750000
3.250000 3.000000 3.250000 3.250000 3.500000 3.500000 3.500000 3.750000 3.750000 3.750000 4.000000 4.000000 4.000000 4.500000 5.000000 5.250000 5.500000 5.500000 6.250000 6.500000 6.500000 6.750000 6.750000 6.500000 7.000000 7.250000 7.500000 7.500000 7.750000 8.000000 8.000000 8.500000 8.500000 8.500000 9.000000 9.250000 9.500000 9.500000 9.750000 9.750000 10.000000 10.250000 10.750000 10.750000 11.500000 12.750000 13.250000 13.750000 14.750000 15.000000 15.250000 16.250000 16.500000 17.500000 17.500000 18.250000 19.500000 21.000000 22.500000 23.000000 24.000000 25.250000 26.500000 29.750000 31.250000 33.250000 34.750000 36.750000 38.500000 40.250000 43.250000 46.500000 52.250000 57.500000 62.250000 66.000000 70.750000 75.000000 89.000000 99.250000 108.750000 119.500000 141.750000 166.500000 206.250000 237.750000 268.000000 292.000000 320.750000 349.500000 379.500000 414.500000 452.500000 487.250000 524.250000 568.000000 610.500000 647.500000 678.000000 700.000000 701.500000 680.750000 648.250000 611.000000 568.500000 528.000000 488.750000 448.750000 414.750000 385.750000 357.750000 329.500000 291.500000 264.750000 237.750000 202.250000 166.000000 138.500000 120.250000 109.000000 98.500000 86.750000 76.000000 71.000000 67.000000 61.750000 57.250000 50.000000 46.250000 42.500000 41.000000 39.000000 37.250000 35.250000 33.000000 30.750000 28.250000 26.500000 25.500000 24.000000 23.500000 22.500000 21.000000 19.000000 18.250000 17.500000 17.500000 16.250000 16.250000 15.750000 14.750000 14.250000 13.750000 12.500000 11.750000 11.500000 10.750000 10.750000 10.500000 10.250000 10.000000 9.750000 9.750000 9.250000 9.000000 9.250000 9.000000 9.000000 8.750000 8.250000 8.000000 8.000000 7.500000 7.500000 7.000000 6.750000 6.750000 6.750000 6.500000 6.000000 5.750000 5.750000 5.750000 5.500000 5.000000 4.500000 4.500000 4.250000 4.000000 3.750000 3.750000 3.750000 3.750000 3.750000 3.500000 3.500000 3.250000 3.250000 3.000000 2.750000
3.500000 3.500000 4.000000 4.000000 4.000000 4.250000 4.500000 4.500000 4.500000 4.750000 5.000000 5.000000 5.250000 5.500000 5.250000 5.250000 5.250000 5.750000 6.000000 6.000000 6.000000 5.750000 6.000000 6.000000 6.000000 6.500000 7.000000 7.250000 7.750000 7.500000 8.000000 8.250000 8.750000 8.500000 8.750000 9.000000 9.250000 9.250000 9.500000 10.000000 10.250000 10.500000 10.750000 11.000000 11.500000 11.500000 12.000000 12.250000 13.500000 14.000000 15.250000 16.000000 16.750000 17.500000 18.250000 18.500000 19.500000 20.250000 21.000000 21.250000 22.250000 22.500000 25.250000 27.250000 28.500000 31.000000 34.000000 36.500000 39.250000 41.250000 44.000000 46.500000 48.500000 51.000000 58.500000 66.250000 73.000000 79.750000 88.000000 100.000000 114.750000 137.250000 166.000000 194.000000 217.250000 241.500000 254.000000 274.000000 293.250000 314.500000 327.000000 344.750000 359.000000 370.250000 376.500000 369.750000 353.750000 311.000000 255.500000 206.000000 206.500000 252.750000 312.000000 349.750000 365.500000 374.000000 369.000000 360.250000 345.750000 328.750000 311.250000 295.750000 277.500000 253.750000 233.000000 218.750000 192.750000 169.000000 135.500000 115.250000 99.500000 90.250000 82.250000 73.750000 65.500000 54.250000 52.000000 48.500000 46.000000 43.750000 40.750000 38.500000 35.500000 32.500000 29.000000 27.750000 26.500000 24.000000 23.000000 22.000000 21.500000 20.750000 20.000000 19.000000 18.250000 17.500000 17.000000 16.250000 15.750000 14.750000 13.750000 13.000000 12.500000 12.500000 12.000000 12.250000 12.000000 11.250000 11.250000 11.000000 10.500000 10.500000 10.500000 10.250000 10.000000 9.750000 9.500000 8.750000 8.750000 8.500000 8.500000 7.500000 7.250000 6.750000 6.750000 6.250000 6.250000 6.250000 6.500000 6.000000 6.000000 5.750000 5.750000 5.500000 5.500000 5.750000 5.500000 5.250000 5.000000 5.000000 5.000000 5.250000 5.000000 5.000000 4.250000 4.000000 4.000000 4.000000 3.500000 3.250000
3.750000 4.000000 4.000000 4.000000 4.000000 4.000000 4.500000 4.750000 4.750000 5.000000 5.000000 5.250000 5.750000 6.000000 5.750000 6.000000 6.000000 6.000000 6.250000 6.500000 6.750000 7.000000 7.250000 7.250000 7.500000 7.500000 7.750000 7.250000 7.750000 8.000000 8.000000 8.000000 8.500000 8.500000 8.750000 9.000000 9.000000 9.750000 10.250000 11.000000 11.000000 11.500000 12.000000 12.250000 12.750000 13.000000 13.750000 14.000000 14.250000 14.500000 15.000000 15.500000 17.500000 18.000000 19.250000 19.500000 21.250000 22.000000 22.750000 23.750000 24.750000 25.500000 26.250000 27.750000 28.500000 30.750000 33.000000 34.500000 41.000000 44.750000 48.750000 52.750000 56.750000 60.750000 65.500000 70.000000 79.000000 87.500000 101.000000 115.750000 139.250000 165.250000 181.250000 192.500000 212.500000 224.000000 237.250000 246.750000 255.750000 263.750000 264.750000 265.750000 251.000000 237.250000 205.750000 150.500000 61.750000 0.000000 0.000000 0.000000 0.000000 0.000000 0.000000 63.000000 151.500000 204.500000 237.750000 255.500000 264.750000 266.500000 258.750000 257.000000 243.750000 234.250000 225.250000 216.250000 198.250000 179.500000 160.750000 139.500000 114.750000 98.250000 88.250000 77.500000 71.750000 66.000000 62.000000 57.500000 53.000000 48.750000 44.250000 37.750000 36.250000 34.750000 33.000000 31.750000 29.750000 28.250000 26.500000 24.500000 23.500000 22.750000 21.750000 21.250000 20.000000 19.000000 17.750000 16.000000 16.250000 15.250000 15.000000 14.250000 13.750000 13.250000 13.250000 12.500000 12.250000 11.750000 11.500000 11.000000 10.250000 9.500000 9.250000 8.750000 9.000000 8.750000 8.500000 8.500000 8.250000 8.250000 8.000000 8.000000 7.750000 7.750000 7.250000 7.000000 7.000000 7.000000 7.000000 7.000000 7.000000 6.500000 6.250000 6.250000 6.000000 5.750000 5.750000 5.750000 5.250000 5.000000 4.500000 4.000000 4.000000 4.000000 4.000000 4.250000 4.250000 4.000000 4.000000 4.000000
4.500000 4.500000 4.500000 4.500000 4.250000 4.250000 4.500000 4.500000 4.500000 4.500000 4.500000 4.500000 5.000000 5.250000 5.500000 5.750000 6.000000 6.500000 6.750000 6.500000 6.750000 6.750000 7.250000 7.500000 7.500000 7.250000 7.750000 8.000000 8.000000 8.250000 8.250000 8.500000 8.750000 9.250000 9.500000 9.500000 10.000000 10.000000 9.500000 10.000000 10.250000 10.500000 10.750000 11.000000 11.500000 11.000000 11.750000 11.750000 12.750000 13.750000 14.250000 15.250000 16.250000 17.500000 18.500000 20.000000 22.250000 23.500000 25.250000 26.750000 28.250000 29.250000 31.000000 33.000000 34.250000 35.750000 37.500000 39.250000 41.250000 44.000000 47.500000 52.250000 56.000000 61.500000 69.000000 75.750000 84.000000 94.000000 115.500000 137.750000 154.750000 161.000000 177.250000 183.500000 193.500000 201.250000 200.000000 205.750000 202.750000 194.750000 190.000000 173.500000 143.500000 100.500000 32.500000 0.000000 0.000000 0.000000 0.000000 0.000000 0.000000 0.000000 0.000000 0.000000 0.000000 32.750000 100.500000 145.750000 172.000000 186.250000 200.750000 207.750000 206.500000 202.250000 197.750000 194.500000 189.000000 167.750000 161.250000 157.000000 137.000000 114.000000 97.250000 85.750000 74.500000 65.500000 60.000000 55.000000 49.250000 46.750000 44.000000 42.250000 39.750000 37.750000 36.500000 34.500000 32.500000 31.000000 29.500000 27.500000 26.250000 24.500000 22.750000 21.000000 20.250000 19.250000 18.000000 17.000000 15.750000 14.250000 14.000000 13.000000 12.500000 11.750000 12.000000 11.250000 11.250000 11.000000 11.000000 10.500000 10.500000 10.000000 9.750000 9.750000 9.500000 9.000000 9.000000 9.250000 9.000000 8.500000 8.250000 8.000000 7.750000 7.500000 7.250000 7.250000 7.250000 7.000000 6.750000 6.500000 6.250000 6.000000 6.000000 5.750000 5.000000 4.750000 4.750000 4.750000 4.750000 5.000000 4.750000 4.500000 4.500000 4.500000 4.500000 4.500000 4.500000 4.250000 4.250000 4.250000
4.250000 4.500000 4.750000 4.750000 4.750000 4.250000 4.250000 4.500000 4.500000 4.750000 4.750000 4.750000 4.750000 5.000000 5.000000 5.250000 5.250000 5.500000 5.500000 5.250000 5.750000 6.250000 6.500000 6.750000 6.750000 7.250000 7.500000 7.750000 8.000000 8.500000 8.500000 8.500000 8.500000 9.000000 9.250000 9.500000 10.000000 9.750000 10.750000 11.000000 11.750000 12.250000 13.000000 13.250000 13.500000 14.000000 14.500000 15.000000 15.250000 16.000000 17.000000 16.750000 17.750000 18.500000 18.750000 19.250000 19.750000 20.500000 21.500000 23.000000 25.750000 27.750000 29.750000 32.250000 34.000000 36.500000 38.000000 40.500000 42.250000 45.500000 48.000000 53.500000 58.250000 66.250000 73.750000 83.250000 95.000000 112.750000 125.250000 136.000000 150.000000 159.500000 160.500000 167.750000 170.000000 168.500000 167.750000 164.000000 154.000000 138.250000 110.000000 76.750000 30.500000 0.000000 0.000000 0.000000 0.000000 0.000000 0.000000 0.000000 0.000000 0.000000 0.000000 0.000000 0.000000 0.000000 0.000000 30.250000 77.250000 112.500000 137.000000 151.000000 158.250000 166.000000 170.750000 171.250000 167.500000 163.500000 158.000000 150.500000 135.750000 129.750000 118.000000 94.750000 82.000000 71.000000 64.750000 59.000000 54.500000 50.750000 46.750000 41.750000 39.000000 36.750000 34.500000 31.750000 30.250000 27.500000 25.000000 23.500000 22.750000 21.500000 20.750000 20.000000 19.750000 19.750000 19.000000 18.000000 17.500000 17.000000 16.250000 16.000000 15.250000 14.750000 14.500000 14.250000 13.500000 13.500000 12.750000 12.500000 12.000000 11.500000 11.000000 10.750000 10.250000 9.500000 8.750000 9.000000 8.250000 8.000000 7.750000 7.250000 7.000000 7.250000 7.000000 6.000000 6.250000 5.750000 5.750000 5.500000 5.250000 5.250000 5.250000 5.250000 5.000000 4.750000 5.000000 5.000000 5.250000 5.000000 5.000000 4.750000 4.750000 4.750000 4.750000 4.500000 4.500000 4.500000 4.250000 4.250000
4.250000 4.250000 4.250000 4.250000 4.750000 4.500000 4.500000 4.500000 4.500000 4.500000 5.000000 4.750000 4.750000 4.750000 4.750000 5.250000 5.250000 5.000000 5.000000 5.500000 5.500000 5.500000 5.250000 5.500000 5.750000 6.250000 6.500000 7.500000 8.250000 8.500000 9.000000 9.250000 9.500000 10.250000 10.750000 11.000000 11.750000 12.000000 12.000000 12.750000 12.750000 13.250000 13.750000 14.500000 14.500000 15.000000 15.500000 16.250000 16.250000 16.750000 17.750000 18.000000 18.500000 19.000000 19.500000 20.500000 21.000000 21.750000 22.500000 23.250000 24.000000 24.500000 25.750000 28.250000 30.750000 34.750000 37.500000 40.250000 43.250000 46.750000 50.250000 56.500000 63.250000 71.750000 82.500000 101.000000 108.750000 124.000000 132.750000 135.250000 138.500000 143.250000 145.000000 142.750000 137.750000 130.750000 121.500000 109.000000 93.250000 69.750000 33.250000 0.000000 0.000000 0.000000 0.000000 0.000000 0.000000 0.000000 0.000000 0.000000 0.000000 0.000000 0.000000 0.000000 0.000000 0.000000 0.000000 0.000000 0.000000 33.250000 69.750000 93.000000 108.750000 122.250000 130.500000 137.000000 142.250000 145.000000 143.750000 138.500000 135.500000 131.500000 124.250000 111.000000 100.000000 81.500000 70.000000 63.000000 57.750000 52.500000 47.750000 43.500000 40.250000 37.000000 33.750000 31.000000 28.750000 27.500000 24.750000 24.000000 23.000000 22.250000 21.250000 21.000000 20.000000 20.000000 19.000000 18.500000 18.000000 17.500000 16.750000 16.250000 16.250000 15.250000 15.250000 14.500000 14.000000 13.750000 13.250000 12.500000 12.500000 11.750000 11.750000 11.500000 10.750000 10.750000 10.250000 9.750000 9.000000 8.250000 8.000000 8.000000 7.500000 7.500000 7.000000 7.000000 6.500000 6.250000 6.000000 5.750000 5.250000 5.000000 5.000000 5.250000 5.250000 4.750000 4.750000 4.750000 4.750000 4.750000 4.750000 4.500000 4.500000 4.500000 4.500000 4.500000 4.250000 4.250000 4.250000 4.250000
4.000000 4.000000 4.000000 3.750000 4.000000 4.000000 4.250000 4.250000 4.250000 4.250000 4.250000 4.750000 5.000000 5.250000 5.250000 5.750000 6.000000 6.000000 6.250000 6.750000 6.500000 6.750000 6.750000 7.250000 7.250000 7.250000 7.750000 7.750000 8.000000 8.000000 8.500000 8.500000 9.000000 9.000000 9.750000 10.500000 10.750000 11.500000 11.750000 12.250000 13.000000 13.000000 13.500000 14.000000 14.250000 15.000000 15.000000 15.500000 16.500000 16.250000 16.750000 17.750000 18.750000 18.500000 19.250000 20.000000 20.750000 21.500000 23.500000 25.000000 26.250000 28.500000 29.750000 31.750000 33.250000 36.500000 39.500000 42.000000 48.000000 52.000000 57.750000 63.750000 71.250000 85.250000 98.750000 107.750000 110.250000 113.750000 121.000000 124.500000 123.000000 118.750000 113.500000 109.250000 104.250000 94.000000 78.000000 61.500000 35.500000 0.000000 0.000000 0.000000 0.000000 0.000000 0.000000 0.000000 0.000000 0.000000 0.000000 0.000000 0.000000 0.000000 0.000000 0.000000 0.000000 0.000000 0.000000 0.000000 0.000000 0.000000 0.000000 36.250000 60.000000 83.750000 98.000000 108.500000 116.000000 120.250000 122.500000 122.500000 124.250000 121.750000 112.500000 110.000000 108.250000 102.000000 89.000000 73.500000 61.750000 55.500000 50.000000 46.500000 43.500000 40.750000 38.500000 36.500000 33.750000 32.000000 29.750000 26.750000 25.750000 24.250000 23.000000 21.500000 19.750000 18.500000 18.000000 17.500000 17.000000 16.250000 15.750000 15.500000 15.000000 14.500000 14.000000 13.250000 12.750000 13.000000 12.000000 11.750000 10.500000 10.500000 9.750000 9.500000 9.500000 9.250000 9.000000 9.000000 8.750000 8.500000 8.000000 8.000000 8.000000 7.500000 7.750000 7.250000 7.000000 7.000000 7.000000 7.000000 6.500000 6.500000 6.750000 6.500000 6.000000 5.750000 5.500000 5.750000 5.250000 5.000000 5.000000 4.750000 5.000000 4.250000 3.750000 3.750000 3.750000 3.750000 3.750000 3.750000
3.250000 3.500000 3.250000 4.000000 4.000000 4.000000 4.250000 4.250000 4.750000 5.000000 5.000000 4.750000 5.250000 5.250000 5.250000 5.500000 5.750000 5.750000 6.250000 6.000000 6.000000 6.250000 6.500000 6.500000 6.750000 7.000000 7.250000 7.000000 7.000000 7.750000 7.750000 8.000000 8.000000 7.750000 8.250000 8.500000 8.750000 8.750000 9.250000 9.250000 9.500000 10.250000 11.000000 11.250000 12.000000 12.250000 12.750000 13.500000 14.000000 14.500000 15.250000 15.500000 17.250000 19.000000 19.750000 21.250000 22.250000 24.250000 26.250000 27.250000 29.750000 31.500000 32.750000 35.250000 37.500000 39.500000 42.500000 45.750000 49.000000 54.750000 62.250000 72.250000 84.250000 96.000000 100.000000 101.750000 109.750000 109.250000 107.750000 107.750000 107.250000 104.000000 97.000000 86.500000 72.000000 58.250000 35.000000 10.750000 0.000000 0.000000 0.000000 0.000000 0.000000 0.000000 0.000000 0.000000 0.000000 0.000000 0.000000 0.000000 0.000000 0.000000 0.000000 0.000000 0.000000 0.000000 0.000000 0.000000 0.000000 0.000000 0.000000 0.000000 10.000000 35.500000 59.250000 73.500000 84.000000 92.000000 98.250000 104.750000 107.000000 106.000000 104.750000 106.000000 108.000000 96.500000 89.500000 86.500000 72.750000 63.000000 56.000000 51.000000 45.000000 40.500000 38.000000 35.500000 33.000000 31.250000 29.000000 27.500000 26.750000 25.000000 23.500000 22.000000 20.750000 19.500000 18.000000 16.500000 15.250000 14.000000 13.000000 11.250000 10.500000 10.000000 9.250000 9.000000 8.750000 8.500000 8.500000 8.250000 8.000000 8.000000 7.750000 7.750000 7.500000 7.250000 7.250000 7.250000 6.750000 7.000000 6.750000 6.750000 6.750000 6.250000 6.250000 6.250000 5.750000 5.750000 6.000000 5.750000 5.750000 5.750000 5.250000 5.250000 5.250000 5.000000 5.000000 5.000000 4.750000 4.750000 4.750000 4.500000 4.250000 4.250000 4.250000 3.750000 4.000000 4.000000 3.750000 3.750000
4.000000 4.500000 4.250000 4.250000 4.500000 4.500000 4.750000 4.500000 4.750000 4.750000 5.000000 5.000000 5.250000 5.250000 5.500000 5.500000 5.500000 5.750000 5.750000 5.750000 5.750000 6.250000 6.000000 6.000000 6.500000 6.500000 7.000000 6.750000 6.500000 7.000000 7.000000 7.500000 7.500000 7.000000 7.500000 7.500000 8.000000 7.750000 8.000000 8.500000 8.500000 8.750000 8.500000 9.000000 9.250000 9.750000 10.750000 11.750000 12.000000 14.500000 16.250000 17.500000 19.000000 19.750000 21.000000 22.250000 23.250000 25.000000 26.250000 27.500000 29.000000 30.500000 32.250000 34.250000 36.250000 40.750000 44.500000 49.250000 55.000000 62.000000 75.500000 78.250000 79.750000 91.250000 98.250000 95.750000 97.750000 97.250000 95.000000 92.000000 86.500000 78.750000 68.250000 52.000000 39.000000 14.500000 0.000000 0.000000 0.000000 0.000000 0.000000 0.000000 0.000000 0.000000 0.000000 0.000000 0.000000 0.000000 0.000000 0.000000 0.000000 0.000000 0.000000 0.000000 0.000000 0.000000 0.000000 0.000000 0.000000 0.000000 0.000000 0.000000 0.000000 0.000000 16.500000 38.750000 52.500000 63.250000 77.000000 85.750000 92.000000 96.750000 98.500000 98.500000 96.000000 93.750000 90.750000 88.500000 81.750000 73.750000 61.500000 54.750000 49.750000 45.500000 42.000000 38.750000 35.500000 31.500000 30.000000 29.000000 27.000000 25.000000 24.500000 22.750000 21.250000 19.750000 19.000000 18.250000 17.250000 16.500000 15.500000 15.250000 14.250000 13.750000 12.750000 11.500000 10.500000 9.500000 8.500000 8.500000 8.250000 8.000000 8.000000 7.500000 7.750000 7.500000 7.500000 7.250000 7.000000 7.250000 7.000000 7.000000 6.750000 6.500000 6.500000 6.000000 6.500000 6.500000 6.000000 6.000000 6.000000 5.500000 5.750000 5.750000 5.750000 5.500000 5.500000 5.500000 5.000000 5.000000 5.250000 5.250000 4.750000 4.750000 4.750000 4.500000 4.500000 4.250000 4.250000 4.000000
4.500000 4.750000 4.750000 4.500000 4.750000 5.000000 5.000000 5.000000 5.250000 5.500000 5.500000 5.250000 5.250000 5.500000 5.500000 5.500000 6.000000 6.000000 5.750000 6.250000 6.000000 6.000000 6.500000 6.250000 6.500000 6.750000 6.500000 6.750000 6.750000 7.000000 7.250000 7.250000 7.500000 7.250000 7.500000 7.750000 7.750000 8.000000 8.000000 9.250000 10.000000 11.000000 12.000000 12.500000 13.500000 14.250000 14.750000 15.500000 16.000000 17.000000 18.000000 18.500000 19.000000 19.750000 20.750000 21.250000 22.500000 23.250000 24.750000 27.000000 28.250000 32.500000 35.250000 38.000000 41.500000 45.500000 49.750000 55.000000 64.750000 75.000000 79.750000 85.250000 84.000000 87.000000 87.750000 88.000000 86.500000 82.750000 76.250000 67.500000 60.250000 51.500000 38.250000 22.250000 1.750000 0.000000 0.000000 0.000000 0.000000 0.000000 0.000000 0.000000 0.000000 0.000000 0.000000 0.000000 0.000000 0.000000 0.000000 0.000000 0.000000 0.000000 0.000000 0.000000 0.000000 0.000000 0.000000 0.000000 0.000000 0.000000 0.000000 0.000000 0.000000 0.000000 0.000000 0.750000 22.500000 34.250000 49.750000 59.750000 67.000000 73.500000 78.000000 82.250000 84.500000 85.750000 86.000000 86.000000 85.250000 83.000000 71.750000 65.000000 53.250000 45.500000 41.500000 38.750000 36.750000 34.000000 31.750000 29.750000 27.250000 24.500000 23.250000 22.750000 21.500000 21.250000 20.000000 19.750000 19.000000 18.250000 17.750000 17.000000 16.250000 15.750000 15.250000 14.500000 14.250000 13.750000 12.750000 12.500000 12.000000 11.000000 10.250000 9.500000 8.000000 7.250000 7.250000 7.250000 7.000000 6.750000 7.000000 6.750000 6.750000 6.750000 6.250000 6.500000 6.500000 6.250000 6.250000 6.000000 5.750000 6.000000 5.750000 5.750000 5.750000 5.750000 5.250000 5.500000 5.500000 5.250000 5.000000 5.250000 5.250000 5.000000 4.750000 5.000000 5.000000 5.000000 4.500000 4.500000
4.750000 4.750000 4.750000 5.000000 5.000000 5.000000 4.750000 5.000000 5.250000 5.250000 5.250000 5.750000 5.500000 5.250000 5.500000 5.750000 5.750000 6.000000 6.250000 5.750000 6.000000 6.250000 6.250000 6.500000 6.250000 6.500000 6.500000 6.750000 6.500000 6.500000 7.000000 7.000000 7.000000 8.500000 9.750000 10.500000 11.000000 11.750000 12.000000 12.500000 13.500000 13.750000 14.250000 14.750000 15.500000 15.750000 16.250000 16.750000 17.750000 17.500000 18.750000 19.250000 20.000000 20.500000 21.250000 22.250000 23.000000 25.750000 27.500000 30.000000 31.500000 33.750000 36.000000 38.250000 41.500000 45.000000 55.500000 63.250000 71.750000 77.750000 79.250000 78.500000 78.500000 78.750000 77.750000 74.500000 69.750000 64.500000 57.000000 47.000000 35.250000 25.000000 8.000000 0.000000 0.000000 0.000000 0.000000 0.000000 0.000000 0.000000 0.000000 0.000000 0.000000 0.000000 0.000000 0.000000 0.000000 0.000000 0.000000 0.000000 0.000000 0.000000 0.000000 0.000000 0.000000 0.000000 0.000000 0.000000 0.000000 0.000000 0.000000 0.000000 0.000000 0.000000 0.000000 0.000000 0.000000 9.000000 23.250000 34.750000 45.750000 57.000000 61.500000 68.250000 73.500000 77.750000 81.250000 81.500000 79.750000 80.000000 72.500000 70.000000 62.250000 54.250000 46.750000 42.500000 38.250000 34.250000 32.500000 30.500000 29.250000 27.750000 26.500000 25.000000 24.250000 21.750000 20.000000 19.250000 18.750000 18.500000 17.750000 17.750000 17.000000 16.500000 16.000000 15.750000 15.250000 14.750000 14.250000 13.500000 13.000000 13.000000 12.750000 12.000000 11.500000 11.000000 10.250000 10.250000 9.500000 9.250000 8.500000 7.250000 6.750000 6.000000 6.250000 6.250000 6.000000 5.750000 5.750000 6.000000 5.750000 5.750000 5.750000 5.250000 5.500000 5.500000 5.500000 5.250000 5.250000 5.250000 4.750000 5.000000 5.250000 5.250000 5.000000 4.750000 4.750000 4.750000 4.500000 4.500000
4.750000 4.750000 4.500000 5.000000 4.750000 4.750000 4.750000 5.250000 5.000000 5.000000 5.250000 5.250000 5.250000 5.250000 5.250000 5.500000 5.250000 5.500000 5.500000 5.750000 5.750000 5.500000 6.000000 5.750000 6.000000 6.500000 7.250000 8.250000 8.750000 9.500000 10.000000 10.250000 10.750000 11.750000 11.500000 12.000000 12.250000 12.500000 13.250000 13.500000 13.750000 14.500000 14.500000 15.000000 15.500000 15.500000 16.000000 16.500000 17.000000 17.750000 18.000000 18.750000 19.000000 21.500000 22.750000 24.000000 25.500000 25.750000 26.500000 28.000000 29.750000 31.750000 36.250000 41.000000 46.750000 54.500000 64.250000 66.500000 68.500000 70.250000 72.000000 74.250000 73.000000 69.250000 64.750000 58.750000 47.000000 41.750000 35.250000 25.000000 12.750000 0.000000 0.000000 0.000000 0.000000 0.000000 0.000000 0.000000 0.000000 0.000000 0.000000 0.000000 0.000000 0.000000 0.000000 0.000000 0.000000 0.000000 0.000000 0.000000 0.000000 0.000000 0.000000 0.000000 0.000000 0.000000 0.000000 0.000000 0.000000 0.000000 0.000000 0.000000 0.000000 0.000000 0.000000 0.000000 0.000000 0.000000 0.000000 12.500000 23.750000 38.750000 47.750000 53.750000 57.500000 61.000000 65.250000 69.750000 72.250000 73.750000 69.750000 67.500000 66.750000 66.250000 61.250000 49.500000 42.500000 39.000000 35.750000 32.750000 29.750000 26.750000 25.500000 24.000000 22.750000 21.750000 20.500000 19.250000 18.500000 17.000000 15.250000 15.000000 15.250000 15.000000 15.000000 15.000000 14.750000 13.750000 14.000000 13.750000 13.000000 13.250000 12.750000 12.250000 12.250000 11.750000 12.000000 11.250000 10.500000 11.000000 10.500000 9.500000 9.500000 9.250000 8.750000 8.000000 7.500000 7.000000 6.250000 6.000000 5.750000 5.750000 5.250000 5.000000 5.000000 5.000000 4.750000 5.000000 5.000000 5.000000 4.500000 4.500000 5.000000 4.750000 4.500000 4.500000 4.500000 4.250000 4.500000 4.500000
4.500000 4.500000 4.500000 4.250000 4.500000 4.500000 4.500000 4.750000 4.500000 4.500000 4.750000 4.750000 4.750000 4.750000 4.750000 4.750000 5.250000 5.750000 5.500000 6.000000 7.000000 7.250000 8.000000 8.500000 9.000000 9.250000 9.250000 9.500000 10.500000 10.000000 10.750000 11.000000 11.250000 11.250000 12.000000 12.000000 12.250000 12.250000 12.250000 12.750000 13.000000 13.000000 12.750000 12.750000 12.750000 13.500000 13.750000 14.250000 15.500000 17.000000 18.500000 19.500000 20.750000 21.500000 22.500000 23.750000 25.000000 26.500000 29.750000 32.250000 36.000000 39.250000 43.250000 52.750000 62.500000 63.500000 64.000000 64.250000 65.500000 67.750000 65.500000 60.750000 54.500000 50.750000 47.500000 44.000000 37.000000 21.500000 15.250000 3.000000 0.000000 0.000000 0.000000 0.000000 0.000000 0.000000 0.000000 0.000000 0.000000 0.000000 0.000000 0.000000 0.000000 0.000000 0.000000 0.000000 0.000000 0.000000 0.000000 0.000000 0.000000 0.000000 0.000000 0.000000 0.000000 0.000000 0.000000 0.000000 0.000000 0.000000 0.000000 0.000000 0.000000 0.000000 0.000000 0.000000 0.000000 0.000000 0.000000 0.000000 3.000000 16.250000 27.500000 37.250000 47.000000 53.500000 56.750000 59.250000 58.500000 60.750000 62.750000 64.750000 65.500000 62.750000 62.750000 62.750000 53.500000 46.000000 40.750000 35.500000 32.750000 30.750000 28.750000 26.750000 24.750000 22.250000 21.500000 20.250000 19.250000 18.750000 17.750000 17.000000 16.500000 14.750000 13.250000 12.750000 12.250000 12.000000 11.500000 11.750000 11.250000 10.750000 10.500000 10.500000 10.000000 10.500000 10.250000 10.500000 10.000000 10.250000 10.000000 9.750000 9.500000 9.250000 9.250000 9.000000 8.750000 8.000000 8.000000 8.250000 7.500000 7.500000 6.500000 6.500000 5.500000 5.250000 5.250000 5.250000 4.750000 4.500000 4.750000 4.000000 4.000000 4.000000 4.000000 4.250000 4.000000 3.750000 4.000000 4.000000
3.500000 3.750000 4.000000 3.750000 3.750000 3.750000 3.750000 4.000000 4.250000 4.500000 4.750000 5.000000 5.250000 5.250000 6.500000 6.500000 6.750000 7.000000 7.500000 7.750000 7.750000 8.000000 8.250000 8.500000 8.750000 8.750000 9.500000 9.000000 9.000000 9.250000 9.000000 9.000000 9.500000 9.750000 9.750000 10.000000 10.750000 10.750000 11.000000 11.500000 11.500000 12.000000 12.250000 12.500000 13.750000 15.000000 16.000000 16.750000 17.750000 19.000000 19.750000 20.250000 21.250000 22.000000 23.750000 26.250000 28.250000 30.250000 32.500000 35.500000 41.000000 46.750000 59.750000 59.250000 58.000000 56.250000 59.250000 60.750000 59.000000 56.000000 52.750000 50.750000 49.500000 44.500000 36.500000 27.000000 17.500000 5.750000 0.000000 0.000000 0.000000 0.000000 0.000000 0.000000 0.000000 0.000000 0.000000 0.000000 0.000000 0.000000 0.000000 0.000000 0.000000 0.000000 0.000000 0.000000 0.000000 0.000000 0.000000 0.000000 0.000000 0.000000 0.000000 0.000000 0.000000 0.000000 0.000000 0.000000 0.000000 0.000000 0.000000 0.000000 0.000000 0.000000 0.000000 0.000000 0.000000 0.000000 0.000000 0.000000 0.000000 0.000000 5.250000 20.000000 29.000000 35.500000 43.500000 51.000000 55.250000 58.250000 59.000000 58.000000 60.750000 63.250000 65.000000 57.750000 56.000000 51.000000 44.750000 39.500000 35.500000 31.750000 27.500000 25.500000 24.500000 23.750000 22.500000 21.250000 20.000000 17.750000 17.500000 16.500000 16.000000 15.750000 15.000000 14.750000 13.750000 12.750000 11.500000 10.750000 10.500000 10.250000 10.000000 9.750000 9.500000 9.250000 9.250000 9.000000 8.500000 8.750000 8.250000 8.000000 7.750000 7.750000 7.750000 7.000000 7.000000 6.500000 6.750000 7.250000 6.750000 7.000000 6.500000 7.000000 6.500000 6.500000 6.250000 5.750000 5.500000 5.250000 4.250000 4.500000 4.250000 4.000000 4.000000 4.250000 4.000000 3.500000 3.250000 3.250000
3.250000 3.000000 3.500000 3.500000 3.750000 3.500000 3.750000 4.750000 5.000000 4.750000 5.500000 6.000000 5.750000 5.750000 6.250000 6.000000 6.250000 6.000000 6.250000 6.500000 6.500000 6.500000 7.250000 7.250000 7.500000 8.000000 7.750000 8.000000 8.250000 8.500000 8.750000 8.750000 9.500000 9.000000 9.500000 9.750000 10.000000 10.250000 10.000000 10.750000 12.000000 12.750000 13.250000 14.500000 14.750000 15.500000 16.250000 16.750000 16.750000 17.500000 18.000000 20.250000 21.000000 22.500000 24.000000 26.000000 27.250000 32.000000 35.750000 40.250000 48.750000 52.000000 54.500000 55.000000 60.500000 58.750000 56.500000 53.500000 50.250000 50.750000 47.750000 42.000000 33.750000 29.000000 22.000000 7.000000 0.000000 0.000000 0.000000 0.000000 0.000000 0.000000 0.000000 0.000000 0.000000 0.000000 0.000000 0.000000 0.000000 0.000000 0.000000 0.000000 0.000000 0.000000 0.000000 0.000000 0.000000 0.000000 0.000000 0.000000 0.000000 0.000000 0.000000 0.000000 0.000000 0.000000 0.000000 0.000000 0.000000 0.000000 0.000000 0.000000 0.000000 0.000000 0.000000 0.000000 0.000000 0.000000 0.000000 0.000000 0.000000 0.000000 0.000000 0.000000 11.250000 20.750000 30.000000 36.000000 40.250000 44.250000 51.250000 54.250000 55.750000 55.500000 55.000000 55.500000 55.000000 47.250000 44.250000 42.750000 38.750000 35.250000 32.250000 30.000000 27.500000 24.000000 23.250000 21.750000 20.750000 20.250000 19.000000 17.750000 16.500000 14.500000 14.000000 13.750000 13.250000 12.500000 12.000000 11.750000 11.000000 10.750000 9.500000 8.500000 8.000000 8.000000 7.750000 7.750000 7.750000 7.250000 7.250000 7.250000 7.000000 6.750000 6.750000 6.250000 6.500000 6.000000 6.250000 5.750000 5.750000 5.500000 5.750000 5.250000 5.250000 4.750000 4.750000 4.250000 4.500000 4.000000 4.000000 3.750000 3.500000 4.000000 3.500000 3.500000 3.500000 2.750000 2.750000 2.500000
2.000000 2.500000 2.750000 2.750000 3.250000 3.250000 3.750000 3.750000 3.750000 4.000000 4.250000 4.500000 4.750000 4.750000 5.000000 5.250000 5.250000 5.500000 5.500000 5.750000 6.000000 6.250000 6.250000 6.250000 6.750000 7.000000 6.750000 7.250000 7.250000 7.250000 7.500000 7.750000 7.750000 8.000000 8.000000 8.250000 9.500000 10.750000 11.000000 11.750000 12.000000 12.750000 13.000000 13.750000 14.000000 14.250000 15.000000 17.000000 18.250000 19.000000 20.500000 21.250000 22.500000 24.000000 26.750000 29.750000 32.500000 34.750000 41.250000 42.000000 43.500000 46.000000 54.000000 53.750000 52.000000 49.750000 49.000000 47.500000 43.500000 38.250000 35.000000 30.500000 23.500000 12.250000 3.250000 0.000000 0.000000 0.000000 0.000000 0.000000 0.000000 0.000000 0.000000 0.000000 0.000000 0.000000 0.000000 0.000000 0.000000 0.000000 0.000000 0.000000 0.000000 0.000000 0.000000 0.000000 0.000000 0.000000 0.000000 0.000000 0.000000 0.000000 0.000000 0.000000 0.000000 0.000000 0.000000 0.000000 0.000000 0.000000 0.000000 0.000000 0.000000 0.000000 0.000000 0.000000 0.000000 0.000000 0.000000 0.000000 0.000000 0.000000 0.000000 0.000000 0.000000 1.750000 13.750000 19.000000 30.250000 36.250000 40.250000 43.250000 45.250000 49.000000 51.500000 52.000000 49.750000 51.500000 52.250000 48.000000 41.750000 41.000000 34.000000 30.750000 28.500000 26.000000 24.250000 22.250000 21.000000 19.500000 19.250000 18.500000 17.750000 17.250000 16.000000 15.250000 14.500000 13.250000 12.500000 12.500000 12.000000 11.750000 11.250000 10.750000 10.250000 9.750000 9.000000 7.750000 7.500000 7.500000 7.500000 7.250000 7.250000 7.250000 6.750000 7.000000 6.750000 6.750000 6.250000 6.500000 6.250000 6.000000 5.750000 5.750000 5.500000 5.500000 5.500000 5.500000 5.250000 5.000000 4.750000 4.500000 4.250000 4.250000 4.250000 4.000000 3.750000 3.500000 3.250000 3.500000
3.250000 3.750000 3.750000 4.000000 4.000000 4.250000 4.500000 4.750000 5.000000 4.750000 5.250000 5.250000 5.250000 5.250000 5.500000 5.750000 6.000000 5.750000 6.250000 6.250000 6.750000 6.250000 6.500000 6.750000 6.500000 7.000000 7.000000 7.000000 7.500000 7.750000 7.500000 7.750000 8.750000 9.750000 10.250000 10.500000 11.000000 11.750000 11.500000 12.250000 12.500000 13.000000 13.250000 14.750000 15.750000 16.500000 17.500000 17.750000 18.500000 19.000000 18.750000 21.750000 24.000000 26.250000 28.500000 32.000000 36.250000 40.250000 41.000000 44.500000 50.250000 49.500000 47.500000 44.750000 45.500000 41.000000 40.500000 38.500000 35.500000 30.750000 23.750000 15.000000 8.000000 0.000000 0.000000 0.000000 0.000000 0.000000 0.000000 0.000000 0.000000 0.000000 0.000000 0.000000 0.000000 0.000000 0.000000 0.000000 0.000000 0.000000 0.000000 0.000000 0.000000 0.000000 0.000000 0.000000 0.000000 0.000000 0.000000 0.000000 0.000000 0.000000 0.000000 0.000000 0.000000 0.000000 0.000000 0.000000 0.000000 0.000000 0.000000 0.000000 0.000000 0.000000 0.000000 0.000000 0.000000 0.000000 0.000000 0.000000 0.000000 0.000000 0.000000 0.000000 0.000000 0.000000 0.000000 7.750000 15.750000 20.250000 29.500000 35.750000 40.000000 43.250000 45.000000 46.000000 45.750000 47.000000 48.000000 47.750000 49.250000 47.250000 42.000000 35.250000 31.750000 29.000000 27.250000 25.250000 23.750000 21.750000 20.250000 18.250000 16.500000 15.250000 15.000000 15.000000 15.000000 14.500000 14.250000 13.500000 12.750000 11.750000 11.250000 11.250000 11.000000 10.750000 10.000000 9.750000 9.750000 9.250000 8.500000 7.500000 7.250000 7.000000 6.750000 7.000000 6.500000 6.750000 6.500000 6.500000 6.500000 6.500000 6.250000 5.750000 6.000000 6.250000 5.750000 5.750000 5.500000 5.500000 5.500000 5.250000 5.000000 5.000000 5.000000 4.500000 4.500000 4.250000 4.250000 4.500000
4.000000 4.500000 4.500000 5.000000 4.750000 4.750000 5.250000 5.000000 5.250000 5.250000 5.750000 5.750000 6.000000 5.750000 6.000000 6.250000 6.250000 6.000000 6.500000 6.500000 6.500000 6.500000 7.000000 6.750000 7.000000 6.750000 7.000000 7.000000 8.250000 9.250000 9.500000 9.750000 10.000000 10.750000 10.750000 11.250000 11.250000 11.750000 11.750000 12.750000 13.500000 14.250000 14.250000 14.000000 14.500000 15.500000 16.250000 17.000000 20.000000 21.500000 23.500000 25.500000 27.000000 30.000000 33.250000 38.000000 38.750000 44.750000 47.500000 45.750000 43.500000 41.000000 41.250000 41.250000 40.500000 38.250000 35.500000 30.750000 23.250000 16.250000 11.000000 0.000000 0.000000 0.000000 0.000000 0.000000 0.000000 0.000000 0.000000 0.000000 0.000000 0.000000 0.000000 0.000000 0.000000 0.000000 0.000000 0.000000 0.000000 0.000000 0.000000 0.000000 0.000000 0.000000 0.000000 0.000000 0.000000 0.000000 0.000000 0.000000 0.000000 0.000000 0.000000 0.000000 0.000000 0.000000 0.000000 0.000000 0.000000 0.000000 0.000000 0.000000 0.000000 0.000000 0.000000 0.000000 0.000000 0.000000 0.000000 0.000000 0.000000 0.000000 0.000000 0.000000 0.000000 0.000000 0.000000 0.000000 1.500000 10.250000 17.000000 21.000000 27.250000 34.250000 39.000000 42.500000 44.250000 45.500000 45.250000 45.250000 45.000000 42.750000 45.500000 45.000000 40.750000 31.250000 28.500000 27.000000 25.500000 24.000000 22.750000 21.250000 20.250000 18.750000 17.250000 14.750000 14.250000 14.000000 13.500000 12.750000 12.000000 11.750000 12.000000 11.250000 11.500000 10.250000 10.000000 10.000000 9.750000 10.000000 9.500000 9.500000 8.750000 8.250000 8.000000 7.250000 6.500000 6.750000 6.250000 6.250000 6.500000 6.000000 6.500000 6.000000 6.000000 6.000000 6.000000 5.750000 5.750000 5.750000 5.750000 5.500000 5.250000 5.500000 5.000000 5.250000 5.250000 4.750000 5.000000 4.750000
4.750000 5.000000 5.250000 4.750000 5.250000 5.250000 5.500000 5.750000 5.500000 5.500000 5.750000 5.750000 5.750000 6.000000 6.000000 6.000000 6.250000 6.250000 6.250000 6.250000 6.750000 6.250000 6.500000 6.750000 7.750000 8.500000 8.500000 8.750000 9.250000 9.500000 9.750000 10.000000 10.000000 10.250000 10.000000 10.500000 11.000000 11.000000 11.750000 12.750000 13.500000 13.750000 14.250000 14.750000 15.250000 18.000000 20.000000 21.500000 22.750000 24.500000 25.750000 27.500000 30.250000 34.250000 37.750000 43.250000 43.750000 40.500000 39.000000 41.000000 41.250000 41.000000 40.000000 38.000000 34.750000 30.250000 21.000000 17.750000 13.250000 3.500000 0.000000 0.000000 0.000000 0.000000 0.000000 0.000000 0.000000 0.000000 0.000000 0.000000 0.000000 0.000000 0.000000 0.000000 0.000000 0.000000 0.000000 0.000000 0.000000 0.000000 0.000000 0.000000 0.000000 0.000000 0.000000 0.000000 0.000000 0.000000 0.000000 0.000000 0.000000 0.000000 0.000000 0.000000 0.000000 0.000000 0.000000 0.000000 0.000000 0.000000 0.000000 0.000000 0.000000 0.000000 0.000000 0.000000 0.000000 0.000000 0.000000 0.000000 0.000000 0.000000 0.000000 0.000000 0.000000 0.000000 0.000000 0.000000 0.000000 0.000000 4.500000 12.250000 18.000000 21.750000 24.750000 32.250000 37.000000 41.000000 43.250000 44.250000 44.250000 44.500000 44.250000 44.250000 43.000000 41.500000 32.250000 28.500000 24.750000 24.000000 23.500000 22.000000 21.000000 20.500000 19.250000 18.250000 17.250000 15.750000 13.750000 13.250000 13.000000 12.500000 12.250000 11.500000 11.000000 10.250000 10.000000 9.500000 9.000000 8.000000 8.750000 8.750000 8.750000 8.750000 8.500000 8.000000 8.250000 7.750000 7.750000 6.750000 6.000000 6.000000 6.000000 5.750000 6.250000 5.750000 5.750000 6.000000 5.750000 5.500000 5.750000 5.500000 5.500000 5.250000 5.500000 5.500000 5.250000 5.250000 5.000000 5.000000
5.000000 5.250000 5.500000 5.000000 5.500000 5.500000 5.500000 5.500000 5.500000 5.750000 5.500000 5.750000 5.750000 5.750000 5.750000 6.000000 5.750000 6.000000 5.750000 6.500000 7.250000 7.500000 8.000000 8.250000 8.500000 8.750000 8.250000 8.500000 8.500000 8.750000 7.750000 8.500000 9.500000 10.500000 10.750000 11.500000 11.750000 12.500000 12.500000 13.250000 14.000000 14.250000 16.750000 18.000000 19.000000 20.500000 21.000000 22.250000 24.000000 24.750000 26.250000 28.500000 34.750000 40.000000 40.750000 39.750000 40.000000 40.750000 40.500000 40.000000 39.250000 37.250000 33.750000 29.000000 21.750000 18.750000 14.750000 6.750000 0.000000 0.000000 0.000000 0.000000 0.000000 0.000000 0.000000 0.000000 0.000000 0.000000 0.000000 0.000000 0.000000 0.000000 0.000000 0.000000 0.000000 0.000000 0.000000 0.000000 0.000000 0.000000 0.000000 0.000000 0.000000 0.000000 0.000000 0.000000 0.000000 0.000000 0.000000 0.000000 0.000000 0.000000 0.000000 0.000000 0.000000 0.000000 0.000000 0.000000 0.000000 0.000000 0.000000 0.000000 0.000000 0.000000 0.000000 0.000000 0.000000 0.000000 0.000000 0.000000 0.000000 0.000000 0.000000 0.000000 0.000000 0.000000 0.000000 0.000000 0.000000 0.000000 0.000000 0.000000 5.750000 13.500000 18.750000 22.250000 25.500000 27.250000 34.750000 38.500000 41.000000 42.000000 42.000000 42.500000 43.000000 43.500000 39.250000 34.500000 29.500000 26.000000 22.750000 20.000000 18.750000 19.000000 19.000000 18.500000 17.750000 17.250000 16.250000 16.250000 14.750000 12.500000 12.750000 12.250000 11.500000 11.500000 11.000000 10.750000 10.000000 9.750000 9.500000 8.750000 8.000000 6.750000 7.000000 6.500000 7.000000 7.500000 7.500000 7.250000 7.500000 7.500000 6.500000 6.500000 5.500000 5.500000 5.250000 5.500000 5.250000 5.750000 5.250000 5.250000 5.500000 5.500000 5.250000 5.250000 5.500000 5.000000 5.000000 5.250000
5.000000 5.500000 5.000000 5.250000 5.500000 5.500000 5.250000 5.250000 5.750000 5.250000 5.500000 5.500000 5.500000 5.250000 5.250000 5.750000 6.750000 6.750000 7.250000 7.250000 7.250000 7.500000 7.250000 7.000000 6.750000 7.000000 7.000000 7.750000 8.500000 9.250000 9.750000 10.500000 10.750000 11.000000 11.750000 12.250000 12.250000 12.750000 13.000000 15.000000 16.500000 17.500000 18.000000 19.000000 19.250000 20.500000 21.000000 20.500000 21.750000 25.500000 31.000000 39.000000 40.500000 38.750000 40.000000 39.750000 39.250000 38.750000 38.250000 36.000000 32.000000 24.750000 22.500000 19.750000 15.750000 9.250000 3.000000 0.000000 0.000000 0.000000 0.000000 0.000000 0.000000 0.000000 0.000000 0.000000 0.000000 0.000000 0.000000 0.000000 0.000000 0.000000 0.000000 0.000000 0.000000 0.000000 0.000000 0.000000 0.000000 0.000000 0.000000 0.000000 0.000000 0.000000 0.000000 0.000000 0.000000 0.000000 0.000000 0.000000 0.000000 0.000000 0.000000 0.000000 0.000000 0.000000 0.000000 0.000000 0.000000 0.000000 0.000000 0.000000 0.000000 0.000000 0.000000 0.000000 0.000000 0.000000 0.000000 0.000000 0.000000 0.000000 0.000000 0.000000 0.000000 0.000000 0.000000 0.000000 0.000000 0.000000 0.000000 0.000000 0.000000 3.500000 7.000000 13.750000 19.250000 22.750000 25.500000 27.250000 31.750000 36.250000 39.000000 39.250000 38.250000 37.250000 36.250000 35.000000 33.250000 28.500000 25.750000 23.500000 21.750000 18.000000 17.250000 17.000000 16.250000 15.500000 15.000000 14.750000 14.750000 14.500000 13.750000 13.000000 11.000000 11.250000 10.750000 10.750000 10.500000 10.000000 9.750000 9.500000 9.500000 9.250000 8.500000 8.000000 7.250000 6.750000 6.250000 6.000000 5.500000 5.750000 5.750000 6.250000 6.000000 6.250000 6.000000 5.750000 5.500000 4.750000 5.250000 4.750000 5.000000 5.000000 5.250000 5.250000 4.750000 5.250000 5.000000 5.000000
5.000000 4.750000 5.250000 5.250000 5.000000 5.000000 5.000000 5.000000 4.750000 5.000000 4.500000 5.500000 6.250000 6.500000 6.500000 6.500000 6.250000 5.500000 5.750000 6.000000 6.500000 6.250000 6.500000 6.750000 8.000000 8.500000 8.750000 9.500000 9.750000 10.000000 10.750000 10.750000 11.000000 11.250000 11.750000 11.750000 14.000000 14.500000 15.250000 15.500000 16.000000 16.250000 16.500000 17.000000 18.000000 19.000000 19.750000 23.750000 27.500000 33.000000 36.500000 38.250000 38.250000 37.500000 37.250000 36.500000 36.000000 33.750000 30.000000 25.000000 23.250000 20.250000 16.500000 10.750000 5.000000 0.000000 0.000000 0.000000 0.000000 0.000000 0.000000 0.000000 0.000000 0.000000 0.000000 0.000000 0.000000 0.000000 0.000000 0.000000 0.000000 0.000000 0.000000 0.000000 0.000000 0.000000 0.000000 0.000000 0.000000 0.000000 0.000000 0.000000 0.000000 0.000000 0.000000 0.000000 0.000000 0.000000 0.000000 0.000000 0.000000 0.000000 0.000000 0.000000 0.000000 0.000000 0.000000 0.000000 0.000000 0.000000 0.000000 0.000000 0.000000 0.000000 0.000000 0.000000 0.000000 0.000000 0.000000 0.000000 0.000000 0.000000 0.000000 0.000000 0.000000 0.000000 0.000000 0.000000 0.000000 0.000000 0.000000 0.000000 0.000000 0.000000 0.000000 5.000000 7.750000 14.500000 19.500000 22.500000 25.750000 27.750000 29.500000 33.250000 36.250000 36.750000 36.000000 35.000000 34.750000 33.500000 32.500000 26.250000 22.500000 20.000000 19.000000 18.000000 15.500000 15.250000 15.000000 14.750000 14.250000 13.750000 13.000000 12.750000 12.000000 11.250000 11.500000 10.250000 9.500000 9.750000 10.000000 9.500000 9.250000 9.500000 9.000000 8.750000 8.250000 8.250000 7.750000 7.250000 7.000000 6.500000 5.500000 5.500000 5.250000 5.500000 5.250000 5.250000 5.000000 5.250000 5.250000 5.000000 5.000000 4.500000 4.250000 4.500000 4.250000 4.500000 4.500000 4.500000
4.500000 4.750000 4.500000 4.500000 4.500000 4.000000 4.250000 4.750000 5.000000 5.250000 4.750000 4.750000 5.250000 5.250000 5.750000 5.500000 6.000000 6.000000 6.250000 6.000000 7.750000 7.750000 8.250000 8.750000 9.000000 9.000000 9.500000 10.000000 9.750000 10.250000 10.250000 10.500000 11.000000 12.250000 12.750000 12.750000 12.750000 13.750000 14.250000 14.750000 15.250000 16.000000 16.500000 17.500000 18.750000 21.250000 22.000000 26.500000 29.750000 32.000000 33.500000 34.250000 34.500000 34.500000 34.000000 32.250000 27.000000 25.750000 23.500000 20.750000 17.250000 12.000000 6.000000 2.000000 0.000000 0.000000 0.000000 0.000000 0.000000 0.000000 0.000000 0.000000 0.000000 0.000000 0.000000 0.000000 0.000000 0.000000 0.000000 0.000000 0.000000 0.000000 0.000000 0.000000 0.000000 0.000000 0.000000 0.000000 0.000000 0.000000 0.000000 0.000000 0.000000 0.000000 0.000000 0.000000 0.000000 0.000000 0.000000 0.000000 0.000000 0.000000 0.000000 0.000000 0.000000 0.000000 0.000000 0.000000 0.000000 0.000000 0.000000 0.000000 0.000000 0.000000 0.000000 0.000000 0.000000 0.000000 0.000000 0.000000 0.000000 0.000000 0.000000 0.000000 0.000000 0.000000 0.000000 0.000000 0.000000 0.000000 0.000000 0.000000 0.000000 0.000000 0.000000 0.000000 0.000000 6.250000 8.500000 14.750000 19.500000 22.750000 25.500000 27.750000 29.750000 30.750000 33.000000 34.750000 34.000000 33.500000 33.000000 32.500000 32.000000 26.000000 21.000000 19.250000 17.750000 16.000000 13.750000 12.750000 13.250000 13.500000 13.250000 13.000000 12.750000 12.000000 12.000000 11.250000 10.500000 10.000000 9.000000 7.750000 7.750000 8.000000 8.000000 8.250000 8.250000 8.250000 8.000000 7.750000 7.750000 7.500000 7.250000 7.250000 6.750000 5.750000 5.250000 5.000000 5.000000 5.000000 5.000000 4.500000 4.500000 4.500000 4.000000 4.000000 4.000000 3.500000 3.750000 3.500000
3.750000 3.750000 3.500000 4.250000 3.750000 4.250000 4.250000 4.500000 4.500000 4.750000 5.250000 5.250000 5.500000 5.500000 6.000000 5.500000 6.500000 7.250000 7.250000 8.000000 8.250000 8.500000 8.250000 8.750000 9.000000 8.750000 9.250000 9.000000 8.750000 8.500000 9.750000 11.000000 11.750000 11.750000 12.500000 13.250000 13.500000 14.000000 14.250000 14.500000 14.500000 13.750000 16.500000 19.250000 21.250000 24.750000 28.750000 31.250000 31.750000 32.250000 32.750000 32.500000 31.500000 28.000000 27.250000 25.750000 23.500000 21.000000 17.500000 12.750000 7.000000 4.250000 0.000000 0.000000 0.000000 0.000000 0.000000 0.000000 0.000000 0.000000 0.000000 0.000000 0.000000 0.000000 0.000000 0.000000 0.000000 0.000000 0.000000 0.000000 0.000000 0.000000 0.000000 0.000000 0.000000 0.000000 0.000000 0.000000 0.000000 0.000000 0.000000 0.000000 0.000000 0.000000 0.000000 0.000000 0.000000 0.000000 0.000000 0.000000 0.000000 0.000000 0.000000 0.000000 0.000000 0.000000 0.000000 0.000000 0.000000 0.000000 0.000000 0.000000 0.000000 0.000000 0.000000 0.000000 0.000000 0.000000 0.000000 0.000000 0.000000 0.000000 0.000000 0.000000 0.000000 0.000000 0.000000 0.000000 0.000000 0.000000 0.000000 0.000000 0.000000 0.000000 0.000000 0.000000 0.000000 0.000000 3.500000 6.750000 9.000000 14.750000 19.500000 22.750000 25.250000 27.500000 29.500000 30.750000 31.500000 31.750000 31.750000 31.750000 31.500000 31.750000 31.000000 25.250000 20.000000 19.000000 17.500000 15.750000 14.000000 11.750000 11.000000 10.500000 11.750000 11.750000 11.750000 11.500000 11.500000 11.000000 10.750000 10.000000 9.500000 8.500000 7.250000 7.250000 7.000000 7.000000 6.500000 6.750000 6.750000 7.000000 7.000000 7.000000 7.000000 6.500000 6.500000 6.250000 5.750000 5.750000 4.500000 4.750000 4.750000 4.500000 4.250000 4.500000 4.000000 4.000000 4.000000 3.500000
3.750000 3.750000 4.000000 4.500000 4.500000 4.750000 4.500000 4.750000 5.000000 5.000000 5.000000 5.500000 5.750000 6.750000 7.000000 6.750000 7.500000 7.500000 7.500000 8.000000 7.500000 7.750000 7.500000 6.750000 7.500000 7.500000 8.000000 9.500000 10.250000 10.750000 11.500000 11.500000 12.000000 12.500000 12.500000 12.500000 12.250000 11.500000 12.000000 14.250000 16.250000 18.500000 20.750000 23.000000 28.750000 30.250000 30.750000 31.000000 30.500000 30.000000 27.750000 28.000000 27.250000 25.500000 24.000000 21.250000 18.000000 13.500000 7.750000 5.500000 0.000000 0.000000 0.000000 0.000000 0.000000 0.000000 0.000000 0.000000 0.000000 0.000000 0.000000 0.000000 0.000000 0.000000 0.000000 0.000000 0.000000 0.000000 0.000000 0.000000 0.000000 0.000000 0.000000 0.000000 0.000000 0.000000 0.000000 0.000000 0.000000 0.000000 0.000000 0.000000 0.000000 0.000000 0.000000 0.000000 0.000000 0.000000 0.000000 0.000000 0.000000 0.000000 0.000000 0.000000 0.000000 0.000000 0.000000 0.000000 0.000000 0.000000 0.000000 0.000000 0.000000 0.000000 0.000000 0.000000 0.000000 0.000000 0.000000 0.000000 0.000000 0.000000 0.000000 0.000000 0.000000 0.000000 0.000000 0.000000 0.000000 0.000000 0.000000 0.000000 0.000000 0.000000 0.000000 0.000000 0.000000 0.000000 0.000000 0.000000 4.750000 7.500000 9.500000 13.750000 19.000000 22.500000 25.500000 27.250000 29.250000 30.250000 31.500000 31.000000 28.000000 29.750000 30.250000 30.250000 27.750000 24.000000 20.500000 17.750000 16.250000 15.250000 14.250000 13.000000 10.250000 10.250000 10.000000 9.750000 10.000000 10.250000 10.500000 10.500000 9.750000 9.750000 9.250000 9.000000 8.000000 7.000000 6.750000 6.750000 6.750000 6.250000 6.500000 6.000000 6.000000 5.750000 5.750000 5.750000 6.000000 5.750000 5.750000 5.500000 5.250000 4.750000 4.250000 4.500000 4.250000 4.250000 4.000000 3.750000
4.250000 4.250000 4.500000 4.250000 4.500000 4.750000 4.500000 4.750000 5.500000 5.750000 6.500000 6.500000 6.500000 6.250000 6.250000 6.500000 6.000000 6.250000 6.250000 6.750000 6.750000 7.000000 7.000000 7.750000 8.750000 9.250000 10.000000 10.500000 10.500000 10.750000 11.000000 11.000000 9.750000 10.250000 10.750000 11.250000 12.250000 14.750000 16.250000 17.750000 19.500000 21.750000 28.500000 29.000000 29.500000 29.000000 28.250000 26.250000 27.750000 28.500000 27.250000 25.750000 24.000000 21.250000 18.000000 13.750000 8.250000 6.500000 2.750000 0.000000 0.000000 0.000000 0.000000 0.000000 0.000000 0.000000 0.000000 0.000000 0.000000 0.000000 0.000000 0.000000 0.000000 0.000000 0.000000 0.000000 0.000000 0.000000 0.000000 0.000000 0.000000 0.000000 0.000000 0.000000 0.000000 0.000000 0.000000 0.000000 0.000000 0.000000 0.000000 0.000000 0.000000 0.000000 0.000000 0.000000 0.000000 0.000000 0.000000 0.000000 0.000000 0.000000 0.000000 0.000000 0.000000 0.000000 0.000000 0.000000 0.000000 0.000000 0.000000 0.000000 0.000000 0.000000 0.000000 0.000000 0.000000 0.000000 0.000000 0.000000 0.000000 0.000000 0.000000 0.000000 0.000000 0.000000 0.000000 0.000000 0.000000 0.000000 0.000000 0.000000 0.000000 0.000000 0.000000 0.000000 0.000000 0.000000 0.000000 0.000000 0.000000 0.000000 5.750000 8.000000 9.750000 13.250000 18.750000 22.000000 24.750000 27.250000 29.000000 30.500000 31.500000 31.000000 27.500000 26.500000 28.250000 28.750000 25.000000 22.500000 20.250000 17.000000 16.000000 15.250000 14.500000 13.250000 11.750000 10.000000 9.250000 9.250000 9.000000 8.750000 8.250000 8.750000 9.500000 9.500000 9.250000 9.000000 8.250000 7.750000 6.500000 6.500000 6.750000 6.250000 6.250000 6.000000 6.000000 5.500000 6.000000 5.500000 5.500000 5.000000 4.750000 4.750000 4.750000 4.750000 4.750000 4.500000 3.750000 3.750000
4.250000 4.000000 4.250000 4.250000 5.000000 5.000000 5.250000 5.250000 5.250000 5.250000 5.250000 5.500000 5.750000 6.000000 6.000000 6.250000 6.500000 6.500000 6.500000 6.750000 7.500000 8.250000 9.000000 9.000000 9.750000 9.750000 10.000000 9.500000 9.000000 9.000000 9.750000 10.000000 10.500000 10.750000 12.750000 14.750000 16.000000 17.250000 18.750000 20.750000 26.500000 28.500000 28.000000 27.500000 25.250000 26.250000 27.750000 28.250000 27.500000 25.500000 23.750000 21.250000 18.250000 13.500000 8.750000 7.000000 4.250000 0.000000 0.000000 0.000000 0.000000 0.000000 0.000000 0.000000 0.000000 0.000000 0.000000 0.000000 0.000000 0.000000 0.000000 0.000000 0.000000 0.000000 0.000000 0.000000 0.000000 0.000000 0.000000 0.000000 0.000000 0.000000 0.000000 0.000000 0.000000 0.000000 0.000000 0.000000 0.000000 0.000000 0.000000 0.000000 0.000000 0.000000 0.000000 0.000000 0.000000 0.000000 0.000000 0.000000 0.000000 0.000000 0.000000 0.000000 0.000000 0.000000 0.000000 0.000000 0.000000 0.000000 0.000000 0.000000 0.000000 0.000000 0.000000 0.000000 0.000000 0.000000 0.000000 0.000000 0.000000 0.000000 0.000000 0.000000 0.000000 0.000000 0.000000 0.000000 0.000000 0.000000 0.000000 0.000000 0.000000 0.000000 0.000000 0.000000 0.000000 0.000000 0.000000 0.000000 0.000000 0.000000 0.000000 2.750000 6.250000 10.000000 12.000000 11.500000 18.000000 21.750000 24.500000 26.500000 28.500000 30.250000 31.500000 30.750000 27.000000 26.250000 25.750000 24.750000 22.500000 20.750000 19.250000 17.250000 15.000000 14.250000 13.750000 13.000000 12.000000 10.250000 9.250000 9.000000 8.750000 8.500000 8.250000 7.750000 7.750000 8.000000 8.250000 8.500000 8.000000 8.000000 7.250000 6.250000 6.000000 6.000000 6.250000 6.000000 6.000000 5.750000 5.500000 6.000000 5.500000 5.250000 5.000000 5.000000 4.750000 4.750000 4.250000 4.000000
4.250000 4.500000 4.000000 4.500000 4.750000 5.000000 5.250000 5.250000 5.250000 5.750000 5.750000 6.000000 6.000000 6.250000 6.250000 6.000000 6.000000 7.000000 8.000000 8.250000 8.500000 8.500000 8.750000 8.500000 7.750000 8.500000 9.000000 9.250000 9.500000 9.750000 10.000000 11.250000 12.750000 14.250000 15.250000 16.250000 17.500000 20.250000 24.000000 27.000000 26.500000 24.500000 25.000000 25.750000 27.500000 28.250000 27.250000 25.500000 23.750000 21.250000 17.750000 13.750000 9.250000 7.500000 5.500000 0.000000 0.000000 0.000000 0.000000 0.000000 0.000000 0.000000 0.000000 0.000000 0.000000 0.000000 0.000000 0.000000 0.000000 0.000000 0.000000 0.000000 0.000000 0.000000 0.000000 0.000000 0.000000 0.000000 0.000000 0.000000 0.000000 0.000000 0.000000 0.000000 0.000000 0.000000 0.000000 0.000000 0.000000 0.000000 0.000000 0.000000 0.000000 0.000000 0.000000 0.000000 0.000000 0.000000 0.000000 0.000000 0.000000 0.000000 0.000000 0.000000 0.000000 0.000000 0.000000 0.000000 0.000000 0.000000 0.000000 0.000000 0.000000 0.000000 0.000000 0.000000 0.000000 0.000000 0.000000 0.000000 0.000000 0.000000 0.000000 0.000000 0.000000 0.000000 0.000000 0.000000 0.000000 0.000000 0.000000 0.000000 0.000000 0.000000 0.000000 0.000000 0.000000 0.000000 0.000000 0.000000 0.000000 0.000000 0.000000 0.000000 0.000000 3.750000 9.250000 12.000000 13.000000 12.500000 17.500000 20.750000 23.750000 26.000000 28.000000 29.750000 31.250000 30.750000 26.500000 26.000000 25.500000 21.500000 19.250000 18.750000 17.500000 16.500000 14.250000 13.500000 13.250000 12.500000 11.500000 10.750000 9.000000 8.750000 8.750000 8.250000 8.250000 7.750000 7.250000 7.500000 7.250000 6.750000 7.250000 7.500000 7.500000 7.000000 6.500000 5.500000 5.500000 5.750000 5.750000 5.750000 5.500000 5.500000 5.500000 5.500000 5.000000 5.250000 4.750000 4.750000
4.500000 4.500000 4.750000 5.250000 5.000000 5.250000 5.250000 5.750000 5.500000 6.000000 5.750000 5.750000 6.000000 5.750000 6.500000 7.250000 7.750000 7.750000 8.000000 7.000000 7.250000 7.750000 7.750000 8.250000 8.750000 9.000000 9.000000 9.500000 9.500000 11.500000 12.750000 13.750000 14.750000 15.250000 16.500000 19.500000 22.000000 25.500000 24.000000 24.250000 24.500000 25.250000 27.000000 28.000000 27.000000 25.500000 23.750000 21.000000 18.000000 13.000000 9.750000 8.250000 6.250000 2.750000 0.000000 0.000000 0.000000 0.000000 0.000000 0.000000 0.000000 0.000000 0.000000 0.000000 0.000000 0.000000 0.000000 0.000000 0.000000 0.000000 0.000000 0.000000 0.000000 0.000000 0.000000 0.000000 0.000000 0.000000 0.000000 0.000000 0.000000 0.000000 0.000000 0.000000 0.000000 0.000000 0.000000 0.000000 0.000000 0.000000 0.000000 0.000000 0.000000 0.000000 0.000000 0.000000 0.000000 0.000000 0.000000 0.000000 0.000000 0.000000 0.000000 0.000000 0.000000 0.000000 0.000000 0.000000 0.000000 0.000000 0.000000 0.000000 0.000000 0.000000 0.000000 0.000000 0.000000 0.000000 0.000000 0.000000 0.000000 0.000000 0.000000 0.000000 0.000000 0.000000 0.000000 0.000000 0.000000 0.000000 0.000000 0.000000 0.000000 0.000000 0.000000 0.000000 0.000000 0.000000 0.000000 0.000000 0.000000 0.000000 0.000000 0.000000 0.000000 0.000000 0.000000 6.500000 10.750000 13.000000 14.000000 13.750000 16.250000 20.000000 22.500000 25.000000 26.750000 29.000000 30.250000 30.750000 25.750000 25.500000 22.000000 19.500000 18.000000 16.500000 15.750000 15.500000 14.250000 12.750000 12.000000 12.000000 11.500000 11.250000 9.750000 8.250000 8.250000 8.250000 8.000000 7.750000 7.500000 7.500000 7.000000 6.750000 6.250000 6.000000 6.500000 6.500000 6.500000 6.000000 5.500000 5.250000 5.250000 5.500000 5.750000 5.250000 5.250000 5.250000 5.250000 5.000000
5.250000 5.000000 5.000000 5.250000 5.500000 5.500000 5.500000 5.500000 5.500000 5.750000 5.500000 6.000000 6.750000 7.000000 7.000000 6.250000 6.500000 7.250000 7.500000 7.750000 7.750000 8.000000 8.250000 8.750000 8.750000 9.250000 10.500000 11.500000 12.250000 13.000000 13.750000 14.000000 15.750000 17.750000 19.500000 22.000000 23.750000 24.000000 24.250000 24.750000 26.750000 27.750000 26.750000 25.250000 23.250000 20.750000 17.750000 12.250000 10.000000 8.750000 7.000000 4.250000 0.000000 0.000000 0.000000 0.000000 0.000000 0.000000 0.000000 0.000000 0.000000 0.000000 0.000000 0.000000 0.000000 0.000000 0.000000 0.000000 0.000000 0.000000 0.000000 0.000000 0.000000 0.000000 0.000000 0.000000 0.000000 0.000000 0.000000 0.000000 0.000000 0.000000 0.000000 0.000000 0.000000 0.000000 0.000000 0.000000 0.000000 0.000000 0.000000 0.000000 0.000000 0.000000 0.000000 0.000000 0.000000 0.000000 0.000000 0.000000 0.000000 0.000000 0.000000 0.000000 0.000000 0.000000 0.000000 0.000000 0.000000 0.000000 0.000000 0.000000 0.000000 0.000000 0.000000 0.000000 0.000000 0.000000 0.000000 0.000000 0.000000 0.000000 0.000000 0.000000 0.000000 0.000000 0.000000 0.000000 0.000000 0.000000 0.000000 0.000000 0.000000 0.000000 0.000000 0.000000 0.000000 0.000000 0.000000 0.000000 0.000000 0.000000 0.000000 0.000000 0.000000 0.000000 0.000000 0.000000 0.000000 8.750000 12.000000 14.000000 14.500000 14.500000 15.000000 19.000000 21.750000 23.750000 25.500000 27.250000 29.000000 30.000000 24.750000 21.750000 19.500000 18.250000 16.750000 15.750000 14.500000 13.500000 13.000000 11.500000 11.500000 11.750000 10.750000 10.500000 9.750000 9.000000 7.750000 7.750000 7.750000 7.500000 7.250000 7.250000 7.000000 6.750000 6.500000 6.250000 6.000000 5.250000 5.250000 5.750000 5.500000 4.750000 5.000000 5.000000 5.000000 5.000000 5.250000 5.000000
5.000000 5.250000 5.000000 5.000000 5.500000 5.250000 5.000000 4.750000 5.500000 6.250000 6.250000 5.750000 6.250000 6.250000 6.750000 7.000000 7.500000 7.250000 7.750000 8.000000 8.250000 8.250000 8.500000 8.500000 10.250000 11.250000 12.000000 12.500000 13.000000 13.250000 15.250000 15.250000 16.750000 19.750000 23.500000 23.750000 23.750000 24.500000 26.500000 27.250000 26.250000 24.500000 22.500000 20.500000 17.250000 11.250000 10.250000 9.000000 7.500000 5.250000 0.000000 0.000000 0.000000 0.000000 0.000000 0.000000 0.000000 0.000000 0.000000 0.000000 0.000000 0.000000 0.000000 0.000000 0.000000 0.000000 0.000000 0.000000 0.000000 0.000000 0.000000 0.000000 0.000000 0.000000 0.000000 0.000000 0.000000 0.000000 0.000000 0.000000 0.000000 0.000000 0.000000 0.000000 0.000000 0.000000 0.000000 0.000000 0.000000 0.000000 0.000000 0.000000 0.000000 0.000000 0.000000 0.000000 0.000000 0.000000 0.000000 0.000000 0.000000 0.000000 0.000000 0.000000 0.000000 0.000000 0.000000 0.000000 0.000000 0.000000 0.000000 0.000000 0.000000 0.000000 0.000000 0.000000 0.000000 0.000000 0.000000 0.000000 0.000000 0.000000 0.000000 0.000000 0.000000 0.000000 0.000000 0.000000 0.000000 0.000000 0.000000 0.000000 0.000000 0.000000 0.000000 0.000000 0.000000 0.000000 0.000000 0.000000 0.000000 0.000000 0.000000 0.000000 0.000000 0.000000 0.000000 0.000000 0.000000 0.000000 4.750000 10.000000 12.750000 14.250000 15.000000 14.750000 13.000000 18.000000 20.500000 22.750000 24.000000 25.250000 25.500000 24.000000 17.250000 18.000000 17.250000 16.500000 15.750000 14.750000 14.000000 13.000000 11.750000 10.250000 10.000000 10.250000 10.250000 10.000000 9.250000 9.000000 8.000000 7.250000 7.250000 7.250000 7.000000 6.750000 7.000000 6.500000 6.250000 6.250000 6.000000 5.750000 5.500000 5.000000 4.500000 4.750000 4.500000 4.500000 4.750000 4.750000
5.000000 5.000000 4.750000 4.750000 4.500000 5.500000 5.000000 5.250000 5.750000 6.000000 6.000000 6.250000 6.500000 7.250000 7.500000 7.250000 7.750000 7.750000 8.000000 7.750000 8.000000 9.250000 10.000000 11.000000 10.750000 11.500000 11.500000 11.750000 13.000000 14.750000 16.000000 18.000000 20.750000 23.500000 23.500000 23.750000 25.500000 27.250000 25.750000 24.000000 22.000000 19.750000 17.000000 11.750000 10.500000 9.250000 8.000000 5.750000 2.250000 0.000000 0.000000 0.000000 0.000000 0.000000 0.000000 0.000000 0.000000 0.000000 0.000000 0.000000 0.000000 0.000000 0.000000 0.000000 0.000000 0.000000 0.000000 0.000000 0.000000 0.000000 0.000000 0.000000 0.000000 0.000000 0.000000 0.000000 0.000000 0.000000 0.000000 0.000000 0.000000 0.000000 0.000000 0.000000 0.000000 0.000000 0.000000 0.000000 0.000000 0.000000 0.000000 0.000000 0.000000 0.000000 0.000000 0.000000 0.000000 0.000000 0.000000 0.000000 0.000000 0.000000 0.000000 0.000000 0.000000 0.000000 0.000000 0.000000 0.000000 0.000000 0.000000 0.000000 0.000000 0.000000 0.000000 0.000000 0.000000 0.000000 0.000000 0.000000 0.000000 0.000000 0.000000 0.000000 0.000000 0.000000 0.000000 0.000000 0.000000 0.000000 0.000000 0.000000 0.000000 0.000000 0.000000 0.000000 0.000000 0.000000 0.000000 0.000000 0.000000 0.000000 0.000000 0.000000 0.000000 0.000000 0.000000 0.000000 0.000000 0.000000 0.000000 1.500000 7.000000 11.250000 13.750000 14.750000 15.250000 15.000000 13.250000 17.250000 19.500000 21.750000 22.750000 24.000000 24.250000 21.000000 15.750000 14.750000 14.250000 14.750000 14.500000 14.000000 13.250000 12.750000 11.500000 10.250000 8.250000 8.750000 9.250000 9.250000 9.000000 8.750000 8.250000 6.750000 7.000000 6.750000 7.000000 6.500000 6.750000 6.750000 6.250000 6.250000 6.000000 6.000000 5.750000 5.250000 5.000000 4.500000 3.750000 3.750000
4.250000 4.000000 4.000000 4.750000 5.000000 5.500000 5.750000 6.250000 6.500000 6.250000 6.750000 7.000000 6.750000 7.250000 7.500000 7.500000 7.250000 7.500000 7.750000 9.250000 9.750000 10.750000 10.750000 10.500000 10.000000 11.250000 12.750000 14.250000 15.000000 16.750000 18.500000 21.000000 22.750000 23.000000 23.750000 26.250000 24.500000 23.250000 21.500000 19.250000 16.000000 11.750000 10.750000 9.750000 8.250000 6.500000 3.750000 0.000000 0.000000 0.000000 0.000000 0.000000 0.000000 0.000000 0.000000 0.000000 0.000000 0.000000 0.000000 0.000000 0.000000 0.000000 0.000000 0.000000 0.000000 0.000000 0.000000 0.000000 0.000000 0.000000 0.000000 0.000000 0.000000 0.000000 0.000000 0.000000 0.000000 0.000000 0.000000 0.000000 0.000000 0.000000 0.000000 0.000000 0.000000 0.000000 0.000000 0.000000 0.000000 0.000000 0.000000 0.000000 0.000000 0.000000 0.000000 0.000000 0.000000 0.000000 0.000000 0.000000 0.000000 0.000000 0.000000 0.000000 0.000000 0.000000 0.000000 0.000000 0.000000 0.000000 0.000000 0.000000 0.000000 0.000000 0.000000 0.000000 0.000000 0.000000 0.000000 0.000000 0.000000 0.000000 0.000000 0.000000 0.000000 0.000000 0.000000 0.000000 0.000000 0.000000 0.000000 0.000000 0.000000 0.000000 0.000000 0.000000 0.000000 0.000000 0.000000 0.000000 0.000000 0.000000 0.000000 0.000000 0.000000 0.000000 0.000000 0.000000 0.000000 0.000000 0.000000 0.000000 0.000000 3.000000 8.500000 12.250000 14.250000 15.000000 15.750000 15.500000 13.250000 15.750000 18.750000 20.750000 22.000000 23.000000 23.250000 19.500000 15.000000 13.750000 13.000000 12.000000 12.750000 12.500000 12.250000 12.000000 11.250000 10.250000 9.250000 8.000000 7.500000 8.250000 8.500000 8.500000 8.250000 7.750000 6.250000 6.500000 6.250000 6.750000 6.250000 6.500000 6.250000 6.000000 5.750000 5.750000 5.750000 5.250000 5.250000 4.750000
4.750000 4.750000 5.250000 5.500000 5.750000 6.000000 6.250000 6.250000 6.500000 6.750000 6.750000 7.000000 7.000000 7.000000 7.000000 6.750000 8.500000 9.000000 9.250000 9.250000 9.250000 8.250000 9.000000 11.250000 12.750000 13.500000 14.500000 15.500000 16.750000 17.750000 19.000000 21.250000 21.000000 24.250000 23.750000 22.250000 20.750000 18.500000 15.000000 11.750000 11.000000 10.000000 8.500000 7.000000 4.500000 0.000000 0.000000 0.000000 0.000000 0.000000 0.000000 0.000000 0.000000 0.000000 0.000000 0.000000 0.000000 0.000000 0.000000 0.000000 0.000000 0.000000 0.000000 0.000000 0.000000 0.000000 0.000000 0.000000 0.000000 0.000000 0.000000 0.000000 0.000000 0.000000 0.000000 0.000000 0.000000 0.000000 0.000000 0.000000 0.000000 0.000000 0.000000 0.000000 0.000000 0.000000 0.000000 0.000000 0.000000 0.000000 0.000000 0.000000 0.000000 0.000000 0.000000 0.000000 0.000000 0.000000 0.000000 0.000000 0.000000 0.000000 0.000000 0.000000 0.000000 0.000000 0.000000 0.000000 0.000000 0.000000 0.000000 0.000000 0.000000 0.000000 0.000000 0.000000 0.000000 0.000000 0.000000 0.000000 0.000000 0.000000 0.000000 0.000000 0.000000 0.000000 0.000000 0.000000 0.000000 0.000000 0.000000 0.000000 0.000000 0.000000 0.000000 0.000000 0.000000 0.000000 0.000000 0.000000 0.000000 0.000000 0.000000 0.000000 0.000000 0.000000 0.000000 0.000000 0.000000 0.000000 0.000000 0.000000 0.000000 0.000000 1.750000 4.000000 10.000000 12.750000 14.500000 15.750000 16.000000 15.250000 13.500000 14.250000 17.750000 20.250000 21.250000 22.250000 22.750000 18.250000 14.250000 13.250000 12.250000 11.750000 11.000000 10.750000 11.250000 11.000000 10.750000 10.250000 9.250000 7.500000 7.500000 7.000000 6.750000 7.500000 8.000000 7.500000 6.750000 5.750000 6.250000 6.250000 6.000000 6.000000 6.000000 6.250000 5.750000 6.000000 5.500000 5.500000
5.250000 5.750000 5.750000 6.000000 6.250000 6.250000 6.500000 6.250000 6.500000 6.500000 6.500000 6.750000 6.750000 7.250000 8.000000 8.500000 8.500000 8.250000 8.000000 8.500000 9.500000 11.000000 12.250000 13.000000 13.500000 14.000000 14.500000 14.000000 14.500000 16.250000 18.250000 23.000000 22.750000 21.500000 20.000000 17.750000 13.750000 12.000000 11.250000 10.000000 8.750000 7.500000 5.250000 0.000000 0.000000 0.000000 0.000000 0.000000 0.000000 0.000000 0.000000 0.000000 0.000000 0.000000 0.000000 0.000000 0.000000 0.000000 0.000000 0.000000 0.000000 0.000000 0.000000 0.000000 0.000000 0.000000 0.000000 0.000000 0.000000 0.000000 0.000000 0.000000 0.000000 0.000000 0.000000 0.000000 0.000000 0.000000 0.000000 0.000000 0.000000 0.000000 0.000000 0.000000 0.000000 0.000000 0.000000 0.000000 0.000000 0.000000 0.000000 0.000000 0.000000 0.000000 0.000000 0.000000 0.000000 0.000000 0.000000 0.000000 0.000000 0.000000 0.000000 0.000000 0.000000 0.000000 0.000000 0.000000 0.000000 0.000000 0.000000 0.000000 0.000000 0.000000 0.000000 0.000000 0.000000 0.000000 0.000000 0.000000 0.000000 0.000000 0.000000 0.000000 0.000000 0.000000 0.000000 0.000000 0.000000 0.000000 0.000000 0.000000 0.000000 0.000000 0.000000 0.000000 0.000000 0.000000 0.000000 0.000000 0.000000 0.000000 0.000000 0.000000 0.000000 0.000000 0.000000 0.000000 0.000000 0.000000 0.000000 0.000000 0.000000 0.000000 0.000000 0.000000 3.250000 4.750000 10.750000 13.500000 14.750000 15.750000 16.000000 15.750000 13.750000 14.500000 16.750000 19.250000 20.500000 21.750000 22.250000 17.000000 13.500000 12.750000 12.000000 11.250000 10.750000 10.000000 9.750000 10.250000 10.000000 9.750000 9.000000 7.500000 7.000000 6.500000 6.750000 6.250000 6.250000 6.750000 6.750000 6.000000 5.750000 5.750000 6.000000 5.500000 5.750000 6.000000 5.500000 5.500000
5.500000 6.000000 6.000000 6.250000 6.500000 6.250000 6.250000 6.250000 6.500000 6.250000 6.000000 7.500000 7.750000 7.250000 6.750000 7.250000 7.750000 8.000000 9.750000 10.500000 11.500000 12.250000 12.500000 12.250000 11.750000 12.500000 14.000000 15.000000 16.750000 22.000000 21.500000 20.500000 19.250000 17.000000 13.000000 12.250000 11.250000 10.500000 9.250000 7.500000 5.750000 2.500000 0.000000 0.000000 0.000000 0.000000 0.000000 0.000000 0.000000 0.000000 0.000000 0.000000 0.000000 0.000000 0.000000 0.000000 0.000000 0.000000 0.000000 0.000000 0.000000 0.000000 0.000000 0.000000 0.000000 0.000000 0.000000 0.000000 0.000000 0.000000 0.000000 0.000000 0.000000 0.000000 0.000000 0.000000 0.000000 0.000000 0.000000 0.000000 0.000000 0.000000 0.000000 0.000000 0.000000 0.000000 0.000000 0.000000 0.000000 0.000000 0.000000 0.000000 0.000000 0.000000 0.000000 0.000000 0.000000 0.000000 0.000000 0.000000 0.000000 0.000000 0.000000 0.000000 0.000000 0.000000 0.000000 0.000000 0.000000 0.000000 0.000000 0.000000 0.000000 0.000000 0.000000 0.000000 0.000000 0.000000 0.000000 0.000000 0.000000 0.000000 0.000000 0.000000 0.000000 0.000000 0.000000 0.000000 0.000000 0.000000 0.000000 0.000000 0.000000 0.000000 0.000000 0.000000 0.000000 0.000000 0.000000 0.000000 0.000000 0.000000 0.000000 0.000000 0.000000 0.000000 0.000000 0.000000 0.000000 0.000000 0.000000 0.000000 0.000000 0.000000 0.000000 0.000000 0.000000 2.000000 4.000000 7.000000 11.750000 14.000000 15.250000 16.000000 16.250000 15.500000 13.500000 14.250000 15.000000 18.250000 19.750000 21.250000 21.750000 16.250000 12.500000 12.250000 11.500000 11.000000 10.500000 10.000000 9.250000 8.750000 9.250000 9.250000 9.000000 7.750000 6.750000 6.750000 6.500000 6.500000 6.000000 5.500000 5.750000 5.750000 4.750000 5.250000 5.250000 5.500000 5.500000 5.500000
5.750000 6.000000 5.750000 6.000000 5.750000 6.000000 5.750000 5.750000 6.250000 6.750000 6.500000 6.500000 6.750000 7.250000 7.500000 7.500000 9.750000 9.750000 10.750000 11.000000 10.500000 10.750000 11.500000 12.250000 13.250000 14.000000 15.250000 21.250000 21.000000 20.000000 18.500000 16.250000 13.250000 12.500000 11.750000 10.500000 9.250000 8.000000 6.250000 3.750000 0.000000 0.000000 0.000000 0.000000 0.000000 0.000000 0.000000 0.000000 0.000000 0.000000 0.000000 0.000000 0.000000 0.000000 0.000000 0.000000 0.000000 0.000000 0.000000 0.000000 0.000000 0.000000 0.000000 0.000000 0.000000 0.000000 0.000000 0.000000 0.000000 0.000000 0.000000 0.000000 0.000000 0.000000 0.000000 0.000000 0.000000 0.000000 0.000000 0.000000 0.000000 0.000000 0.000000 0.000000 0.000000 0.000000 0.000000 0.000000 0.000000 0.000000 0.000000 0.000000 0.000000 0.000000 0.000000 0.000000 0.000000 0.000000 0.000000 0.000000 0.000000 0.000000 0.000000 0.000000 0.000000 0.000000 0.000000 0.000000 0.000000 0.000000 0.000000 0.000000 0.000000 0.000000 0.000000 0.000000 0.000000 0.000000 0.000000 0.000000 0.000000 0.000000 0.000000 0.000000 0.000000 0.000000 0.000000 0.000000 0.000000 0.000000 0.000000 0.000000 0.000000 0.000000 0.000000 0.000000 0.000000 0.000000 0.000000 0.000000 0.000000 0.000000 0.000000 0.000000 0.000000 0.000000 0.000000 0.000000 0.000000 0.000000 0.000000 0.000000 0.000000 0.000000 0.000000 0.000000 0.000000 0.000000 0.000000 3.250000 5.000000 8.500000 12.250000 14.250000 15.750000 16.250000 16.250000 15.750000 13.500000 14.250000 15.000000 17.250000 19.500000 20.500000 21.250000 15.500000 12.000000 11.500000 10.750000 10.750000 10.000000 9.500000 9.250000 8.500000 8.000000 7.750000 8.000000 7.750000 6.500000 6.250000 6.250000 6.000000 6.000000 5.500000 5.250000 4.750000 5.000000 4.250000 4.500000 4.750000
5.500000 5.750000 5.750000 5.500000 5.250000 5.500000 6.000000 5.500000 6.000000 6.500000 6.500000 6.750000 7.250000 8.000000 8.750000 9.750000 9.750000 9.000000 9.750000 10.500000 11.000000 11.750000 12.750000 13.500000 14.250000 20.750000 20.500000 19.750000 18.000000 15.250000 13.250000 12.500000 11.750000 10.750000 9.750000 8.250000 6.500000 4.250000 0.000000 0.000000 0.000000 0.000000 0.000000 0.000000 0.000000 0.000000 0.000000 0.000000 0.000000 0.000000 0.000000 0.000000 0.000000 0.000000 0.000000 0.000000 0.000000 0.000000 0.000000 0.000000 0.000000 0.000000 0.000000 0.000000 0.000000 0.000000 0.000000 0.000000 0.000000 0.000000 0.000000 0.000000 0.000000 0.000000 0.000000 0.000000 0.000000 0.000000 0.000000 0.000000 0.000000 0.000000 0.000000 0.000000 0.000000 0.000000 0.000000 0.000000 0.000000 0.000000 0.000000 0.000000 0.000000 0.000000 0.000000 0.000000 0.000000 0.000000 0.000000 0.000000 0.000000 0.000000 0.000000 0.000000 0.000000 0.000000 0.000000 0.000000 0.000000 0.000000 0.000000 0.000000 0.000000 0.000000 0.000000 0.000000 0.000000 0.000000 0.000000 0.000000 0.000000 0.000000 0.000000 0.000000 0.000000 0.000000 0.000000 0.000000 0.000000 0.000000 0.000000 0.000000 0.000000 0.000000 0.000000 0.000000 0.000000 0.000000 0.000000 0.000000 0.000000 0.000000 0.000000 0.000000 0.000000 0.000000 0.000000 0.000000 0.000000 0.000000 0.000000 0.000000 0.000000 0.000000 0.000000 0.000000 0.000000 0.000000 0.000000 0.000000 1.750000 4.250000 5.500000 9.500000 12.750000 14.750000 15.750000 16.250000 16.000000 15.500000 13.500000 14.250000 15.000000 15.500000 18.750000 20.000000 18.750000 14.750000 11.750000 11.250000 10.500000 10.250000 10.000000 9.500000 9.000000 8.500000 7.750000 7.000000 6.750000 7.250000 6.750000 5.750000 6.000000 5.750000 5.500000 5.500000 5.250000 5.250000 4.250000 4.000000
5.250000 4.750000 4.500000 4.750000 5.000000 5.500000 6.000000 6.250000 6.500000 6.250000 6.750000 8.000000 8.500000 9.000000 8.250000 8.500000 9.500000 10.250000 10.750000 11.250000 12.000000 12.750000 13.750000 20.250000 20.000000 19.000000 17.250000 14.000000 13.250000 12.500000 11.750000 11.000000 9.750000 8.750000 8.250000 6.500000 0.000000 0.000000 0.000000 0.000000 0.000000 0.000000 0.000000 0.000000 0.000000 0.000000 0.000000 0.000000 0.000000 0.000000 0.000000 0.000000 0.000000 0.000000 0.000000 0.000000 0.000000 0.000000 0.000000 0.000000 0.000000 0.000000 0.000000 0.000000 0.000000 0.000000 0.000000 0.000000 0.000000 0.000000 0.000000 0.000000 0.000000 0.000000 0.000000 0.000000 0.000000 0.000000 0.000000 0.000000 0.000000 0.000000 0.000000 0.000000 0.000000 0.000000 0.000000 0.000000 0.000000 0.000000 0.000000 0.000000 0.000000 0.000000 0.000000 0.000000 0.000000 0.000000 0.000000 0.000000 0.000000 0.000000 0.000000 0.000000 0.000000 0.000000 0.000000 0.000000 0.000000 0.000000 0.000000 0.000000 0.000000 0.000000 0.000000 0.000000 0.000000 0.000000 0.000000 0.000000 0.000000 0.000000 0.000000 0.000000 0.000000 0.000000 0.000000 0.000000 0.000000 0.000000 0.000000 0.000000 0.000000 0.000000 0.000000 0.000000 0.000000 0.000000 0.000000 0.000000 0.000000 0.000000 0.000000 0.000000 0.000000 0.000000 0.000000 0.000000 0.000000 0.000000 0.000000 0.000000 0.000000 0.000000 0.000000 0.000000 0.000000 0.000000 0.000000 0.000000 0.000000 0.000000 3.250000 4.750000 5.750000 10.250000 13.000000 14.750000 16.000000 16.250000 16.250000 15.750000 14.000000 14.250000 15.000000 15.750000 17.750000 19.250000 17.250000 13.750000 10.750000 10.500000 10.250000 9.750000 9.500000 9.250000 9.000000 8.250000 7.500000 7.500000 6.750000 6.000000 6.500000 5.250000 5.250000 5.750000 5.500000 5.250000 5.250000 5.000000
4.000000 4.500000 5.250000 5.750000 5.750000 6.250000 6.000000 6.250000 6.000000 7.500000 7.500000 7.500000 8.000000 8.750000 9.250000 10.000000 10.250000 11.000000 11.750000 12.000000 12.750000 18.250000 19.250000 18.500000 16.750000 14.000000 13.250000 12.750000 12.000000 11.000000 10.000000 9.250000 9.500000 7.750000 3.750000 0.000000 0.000000 0.000000 0.000000 0.000000 0.000000 0.000000 0.000000 0.000000 0.000000 0.000000 0.000000 0.000000 0.000000 0.000000 0.000000 0.000000 0.000000 0.000000 0.000000 0.000000 0.000000 0.000000 0.000000 0.000000 0.000000 0.000000 0.000000 0.000000 0.000000 0.000000 0.000000 0.000000 0.000000 0.000000 0.000000 0.000000 0.000000 0.000000 0.000000 0.000000 0.000000 0.000000 0.000000 0.000000 0.000000 0.000000 0.000000 0.000000 0.000000 0.000000 0.000000 0.000000 0.000000 0.000000 0.000000 0.000000 0.000000 0.000000 0.000000 0.000000 0.000000 0.000000 0.000000 0.000000 0.000000 0.000000 0.000000 0.000000 0.000000 0.000000 0.000000 0.000000 0.000000 0.000000 0.000000 0.000000 0.000000 0.000000 0.000000 0.000000 0.000000 0.000000 0.000000 0.000000 0.000000 0.000000 0.000000 0.000000 0.000000 0.000000 0.000000 0.000000 0.000000 0.000000 0.000000 0.000000 0.000000 0.000000 0.000000 0.000000 0.000000 0.000000 0.000000 0.000000 0.000000 0.000000 0.000000 0.000000 0.000000 0.000000 0.000000 0.000000 0.000000 0.000000 0.000000 0.000000 0.000000 0.000000 0.000000 0.000000 0.000000 0.000000 0.000000 0.000000 0.000000 0.000000 0.000000 1.000000 4.000000 5.250000 6.250000 11.000000 13.500000 15.250000 15.750000 16.250000 16.000000 15.750000 14.000000 14.500000 15.000000 15.750000 16.000000 18.500000 15.500000 13.000000 10.250000 10.000000 9.750000 9.500000 9.250000 9.000000 8.500000 8.000000 7.750000 7.500000 6.750000 6.250000 5.500000 5.250000 4.750000 5.250000 5.250000 5.250000
5.000000 5.250000 5.500000 5.750000 5.500000 5.750000 6.000000 6.500000 6.500000 7.500000 8.000000 8.500000 9.000000 9.500000 10.250000 10.500000 11.000000 11.500000 12.000000 16.000000 19.000000 18.000000 15.500000 14.000000 13.500000 12.750000 12.000000 11.250000 10.000000 10.000000 10.000000 8.500000 5.500000 1.000000 0.000000 0.000000 0.000000 0.000000 0.000000 0.000000 0.000000 0.000000 0.000000 0.000000 0.000000 0.000000 0.000000 0.000000 0.000000 0.000000 0.000000 0.000000 0.000000 0.000000 0.000000 0.000000 0.000000 0.000000 0.000000 0.000000 0.000000 0.000000 0.000000 0.000000 0.000000 0.000000 0.000000 0.000000 0.000000 0.000000 0.000000 0.000000 0.000000 0.000000 0.000000 0.000000 0.000000 0.000000 0.000000 0.000000 0.000000 0.000000 0.000000 0.000000 0.000000 0.000000 0.000000 0.000000 0.000000 0.000000 0.000000 0.000000 0.000000 0.000000 0.000000 0.000000 0.000000 0.000000 0.000000 0.000000 0.000000 0.000000 0.000000 0.000000 0.000000 0.000000 0.000000 0.000000 0.000000 0.000000 0.000000 0.000000 0.000000 0.000000 0.000000 0.000000 0.000000 0.000000 0.000000 0.000000 0.000000 0.000000 0.000000 0.000000 0.000000 0.000000 0.000000 0.000000 0.000000 0.000000 0.000000 0.000000 0.000000 0.000000 0.000000 0.000000 0.000000 0.000000 0.000000 0.000000 0.000000 0.000000 0.000000 0.000000 0.000000 0.000000 0.000000 0.000000 0.000000 0.000000 0.000000 0.000000 0.000000 0.000000 0.000000 0.000000 0.000000 0.000000 0.000000 0.000000 0.000000 0.000000 0.000000 0.000000 0.000000 3.000000 4.750000 5.750000 6.500000 11.500000 13.500000 15.250000 16.000000 16.000000 16.000000 15.500000 14.000000 14.500000 15.250000 15.500000 16.000000 17.750000 14.000000 12.250000 9.500000 9.500000 9.250000 9.250000 9.000000 8.500000 8.500000 8.000000 7.750000 7.250000 7.000000 6.500000 5.750000 4.750000 3.750000 4.500000
5.500000 5.250000 5.000000 5.000000 5.500000 6.250000 6.750000 7.000000 8.000000 8.500000 8.750000 9.500000 9.750000 10.000000 10.750000 11.250000 11.250000 14.750000 18.750000 17.500000 14.500000 14.000000 13.500000 12.750000 12.000000 11.250000 10.500000 10.250000 10.250000 9.000000 6.500000 2.250000 0.000000 0.000000 0.000000 0.000000 0.000000 0.000000 0.000000 0.000000 0.000000 0.000000 0.000000 0.000000 0.000000 0.000000 0.000000 0.000000 0.000000 0.000000 0.000000 0.000000 0.000000 0.000000 0.000000 0.000000 0.000000 0.000000 0.000000 0.000000 0.000000 0.000000 0.000000 0.000000 0.000000 0.000000 0.000000 0.000000 0.000000 0.000000 0.000000 0.000000 0.000000 0.000000 0.000000 0.000000 0.000000 0.000000 0.000000 0.000000 0.000000 0.000000 0.000000 0.000000 0.000000 0.000000 0.000000 0.000000 0.000000 0.000000 0.000000 0.000000 0.000000 0.000000 0.000000 0.000000 0.000000 0.000000 0.000000 0.000000 0.000000 0.000000 0.000000 0.000000 0.000000 0.000000 0.000000 0.000000 0.000000 0.000000 0.000000 0.000000 0.000000 0.000000 0.000000 0.000000 0.000000 0.000000 0.000000 0.000000 0.000000 0.000000 0.000000 0.000000 0.000000 0.000000 0.000000 0.000000 0.000000 0.000000 0.000000 0.000000 0.000000 0.000000 0.000000 0.000000 0.000000 0.000000 0.000000 0.000000 0.000000 0.000000 0.000000 0.000000 0.000000 0.000000 0.000000 0.000000 0.000000 0.000000 0.000000 0.000000 0.000000 0.000000 0.000000 0.000000 0.000000 0.000000 0.000000 0.000000 0.000000 0.000000 0.000000 0.000000 0.000000 0.000000 0.000000 3.750000 5.500000 6.250000 7.000000 11.750000 14.000000 15.000000 15.750000 16.000000 15.750000 15.750000 14.000000 14.500000 15.250000 15.500000 16.000000 15.000000 13.000000 11.250000 9.000000 9.250000 9.000000 9.000000 8.500000 8.250000 8.500000 8.000000 7.750000 7.250000 7.000000 6.250000 6.000000 5.500000
4.750000 4.000000 5.250000 6.000000 6.750000 7.250000 7.750000 8.500000 8.750000 9.250000 9.500000 9.750000 10.250000 10.500000 10.750000 13.500000 18.000000 16.750000 14.500000 14.250000 13.500000 12.750000 12.250000 11.250000 10.500000 10.750000 10.750000 9.750000 7.750000 2.750000 1.750000 0.000000 0.000000 0.000000 0.000000 0.000000 0.000000 0.000000 0.000000 0.000000 0.000000 0.000000 0.000000 0.000000 0.000000 0.000000 0.000000 0.000000 0.000000 0.000000 0.000000 0.000000 0.000000 0.000000 0.000000 0.000000 0.000000 0.000000 0.000000 0.000000 0.000000 0.000000 0.000000 0.000000 0.000000 0.000000 0.000000 0.000000 0.000000 0.000000 0.000000 0.000000 0.000000 0.000000 0.000000 0.000000 0.000000 0.000000 0.000000 0.000000 0.000000 0.000000 0.000000 0.000000 0.000000 0.000000 0.000000 0.000000 0.000000 0.000000 0.000000 0.000000 0.000000 0.000000 0.000000 0.000000 0.000000 0.000000 0.000000 0.000000 0.000000 0.000000 0.000000 0.000000 0.000000 0.000000 0.000000 0.000000 0.000000 0.000000 0.000000 0.000000 0.000000 0.000000 0.000000 0.000000 0.000000 0.000000 0.000000 0.000000 0.000000 0.000000 0.000000 0.000000 0.000000 0.000000 0.000000 0.000000 0.000000 0.000000 0.000000 0.000000 0.000000 0.000000 0.000000 0.000000 0.000000 0.000000 0.000000 0.000000 0.000000 0.000000 0.000000 0.000000 0.000000 0.000000 0.000000 0.000000 0.000000 0.000000 0.000000 0.000000 0.000000 0.000000 0.000000 0.000000 0.000000 0.000000 0.000000 0.000000 0.000000 0.000000 0.000000 0.000000 0.000000 0.000000 0.000000 0.000000 2.500000 4.750000 5.750000 6.500000 8.250000 12.000000 13.750000 15.000000 15.750000 15.750000 15.750000 15.250000 14.000000 14.500000 15.000000 15.500000 16.250000 13.250000 12.000000 11.000000 8.500000 8.500000 8.750000 8.500000 8.500000 8.250000 8.250000 7.750000 7.250000 7.000000 7.000000 6.250000
5.250000 6.000000 6.750000 7.250000 7.500000 8.250000 8.500000 9.000000 9.250000 9.500000 10.000000 9.750000 10.250000 12.500000 17.500000 15.500000 14.500000 14.250000 13.500000 13.000000 12.250000 11.500000 10.750000 10.750000 10.750000 10.000000 8.500000 4.250000 2.750000 0.000000 0.000000 0.000000 0.000000 0.000000 0.000000 0.000000 0.000000 0.000000 0.000000 0.000000 0.000000 0.000000 0.000000 0.000000 0.000000 0.000000 0.000000 0.000000 0.000000 0.000000 0.000000 0.000000 0.000000 0.000000 0.000000 0.000000 0.000000 0.000000 0.000000 0.000000 0.000000 0.000000 0.000000 0.000000 0.000000 0.000000 0.000000 0.000000 0.000000 0.000000 0.000000 0.000000 0.000000 0.000000 0.000000 0.000000 0.000000 0.000000 0.000000 0.000000 0.000000 0.000000 0.000000 0.000000 0.000000 0.000000 0.000000 0.000000 0.000000 0.000000 0.000000 0.000000 0.000000 0.000000 0.000000 0.000000 0.000000 0.000000 0.000000 0.000000 0.000000 0.000000 0.000000 0.000000 0.000000 0.000000 0.000000 0.000000 0.000000 0.000000 0.000000 0.000000 0.000000 0.000000 0.000000 0.000000 0.000000 0.000000 0.000000 0.000000 0.000000 0.000000 0.000000 0.000000 0.000000 0.000000 0.000000 0.000000 0.000000 0.000000 0.000000 0.000000 0.000000 0.000000 0.000000 0.000000 0.000000 0.000000 0.000000 0.000000 0.000000 0.000000 0.000000 0.000000 0.000000 0.000000 0.000000 0.000000 0.000000 0.000000 0.000000 0.000000 0.000000 0.000000 0.000000 0.000000 0.000000 0.000000 0.000000 0.000000 0.000000 0.000000 0.000000 0.000000 0.000000 0.000000 0.000000 0.000000 0.000000 0.000000 3.500000 5.250000 6.250000 7.000000 9.000000 12.250000 14.250000 15.250000 15.500000 15.500000 15.750000 15.250000 14.000000 14.250000 15.000000 15.500000 16.000000 12.250000 10.000000 10.250000 8.000000 8.250000 8.250000 8.000000 8.250000 8.000000 7.750000 7.500000 7.250000 7.000000
6.750000 7.250000 7.500000 8.250000 8.500000 8.750000 9.000000 9.000000 9.250000 9.500000 9.750000 11.750000 15.750000 15.000000 14.500000 14.250000 13.750000 13.000000 12.500000 11.500000 10.750000 10.500000 11.000000 10.500000 9.000000 5.750000 3.250000 2.000000 0.000000 0.000000 0.000000 0.000000 0.000000 0.000000 0.000000 0.000000 0.000000 0.000000 0.000000 0.000000 0.000000 0.000000 0.000000 0.000000 0.000000 0.000000 0.000000 0.000000 0.000000 0.000000 0.000000 0.000000 0.000000 0.000000 0.000000 0.000000 0.000000 0.000000 0.000000 0.000000 0.000000 0.000000 0.000000 0.000000 0.000000 0.000000 0.000000 0.000000 0.000000 0.000000 0.000000 0.000000 0.000000 0.000000 0.000000 0.000000 0.000000 0.000000 0.000000 0.000000 0.000000 0.000000 0.000000 0.000000 0.000000 0.000000 0.000000 0.000000 0.000000 0.000000 0.000000 0.000000 0.000000 0.000000 0.000000 0.000000 0.000000 0.000000 0.000000 0.000000 0.000000 0.000000 0.000000 0.000000 0.000000 0.000000 0.000000 0.000000 0.000000 0.000000 0.000000 0.000000 0.000000 0.000000 0.000000 0.000000 0.000000 0.000000 0.000000 0.000000 0.000000 0.000000 0.000000 0.000000 0.000000 0.000000 0.000000 0.000000 0.000000 0.000000 0.000000 0.000000 0.000000 0.000000 0.000000 0.000000 0.000000 0.000000 0.000000 0.000000 0.000000 0.000000 0.000000 0.000000 0.000000 0.000000 0.000000 0.000000 0.000000 0.000000 0.000000 0.000000 0.000000 0.000000 0.000000 0.000000 0.000000 0.000000 0.000000 0.000000 0.000000 0.000000 0.000000 0.000000 0.000000 0.000000 0.000000 0.000000 0.000000 0.000000 0.000000 2.000000 4.500000 5.750000 6.750000 7.250000 9.750000 12.500000 14.000000 14.750000 15.250000 15.750000 15.500000 15.500000 13.750000 14.250000 15.000000 15.750000 14.750000 11.750000 9.750000 8.750000 7.500000 7.500000 7.750000 7.750000 7.500000 7.750000 7.500000 7.500000
7.250000 7.750000 8.000000 8.500000 8.750000 8.750000 9.000000 9.000000 9.000000 10.750000 13.500000 15.000000 14.500000 14.250000 13.750000 13.000000 12.500000 11.500000 10.750000 11.000000 11.000000 10.750000 9.250000 7.000000 3.750000 3.000000 0.000000 0.000000 0.000000 0.000000 0.000000 0.000000 0.000000 0.000000 0.000000 0.000000 0.000000 0.000000 0.000000 0.000000 0.000000 0.000000 0.000000 0.000000 0.000000 0.000000 0.000000 0.000000 0.000000 0.000000 0.000000 0.000000 0.000000 0.000000 0.000000 0.000000 0.000000 0.000000 0.000000 0.000000 0.000000 0.000000 0.000000 0.000000 0.000000 0.000000 0.000000 0.000000 0.000000 0.000000 0.000000 0.000000 0.000000 0.000000 0.000000 0.000000 0.000000 0.000000 0.000000 0.000000 0.000000 0.000000 0.000000 0.000000 0.000000 0.000000 0.000000 0.000000 0.000000 0.000000 0.000000 0.000000 0.000000 0.000000 0.000000 0.000000 0.000000 0.000000 0.000000 0.000000 0.000000 0.000000 0.000000 0.000000 0.000000 0.000000 0.000000 0.000000 0.000000 0.000000 0.000000 0.000000 0.000000 0.000000 0.000000 0.000000 0.000000 0.000000 0.000000 0.000000 0.000000 0.000000 0.000000 0.000000 0.000000 0.000000 0.000000 0.000000 0.000000 0.000000 0.000000 0.000000 0.000000 0.000000 0.000000 0.000000 0.000000 0.000000 0.000000 0.000000 0.000000 0.000000 0.000000 0.000000 0.000000 0.000000 0.000000 0.000000 0.000000 0.000000 0.000000 0.000000 0.000000 0.000000 0.000000 0.000000 0.000000 0.000000 0.000000 0.000000 0.000000 0.000000 0.000000 0.000000 0.000000 0.000000 0.000000 0.000000 0.000000 0.000000 0.000000 0.000000 0.000000 3.250000 5.000000 6.000000 6.750000 7.250000 10.000000 12.500000 14.250000 15.000000 14.750000 15.500000 15.500000 15.000000 13.750000 14.500000 15.000000 15.750000 12.750000 10.750000 9.250000 8.000000 7.250000 7.250000 7.250000 7.500000 7.500000 7.500000
8.000000 8.250000 8.250000 8.500000 8.750000 8.500000 8.500000 9.500000 11.250000 14.750000 14.750000 14.250000 13.750000 13.000000 12.750000 11.750000 10.750000 10.750000 11.250000 11.000000 9.750000 7.500000 4.250000 3.500000 2.250000 0.000000 0.000000 0.000000 0.000000 0.000000 0.000000 0.000000 0.000000 0.000000 0.000000 0.000000 0.000000 0.000000 0.000000 0.000000 0.000000 0.000000 0.000000 0.000000 0.000000 0.000000 0.000000 0.000000 0.000000 0.000000 0.000000 0.000000 0.000000 0.000000 0.000000 0.000000 0.000000 0.000000 0.000000 0.000000 0.000000 0.000000 0.000000 0.000000 0.000000 0.000000 0.000000 0.000000 0.000000 0.000000 0.000000 0.000000 0.000000 0.000000 0.000000 0.000000 0.000000 0.000000 0.000000 0.000000 0.000000 0.000000 0.000000 0.000000 0.000000 0.000000 0.000000 0.000000 0.000000 0.000000 0.000000 0.000000 0.000000 0.000000 0.000000 0.000000 0.000000 0.000000 0.000000 0.000000 0.000000 0.000000 0.000000 0.000000 0.000000 0.000000 0.000000 0.000000 0.000000 0.000000 0.000000 0.000000 0.000000 0.000000 0.000000 0.000000 0.000000 0.000000 0.000000 0.000000 0.000000 0.000000 0.000000 0.000000 0.000000 0.000000 0.000000 0.000000 0.000000 0.000000 0.000000 0.000000 0.000000 0.000000 0.000000 0.000000 0.000000 0.000000 0.000000 0.000000 0.000000 0.000000 0.000000 0.000000 0.000000 0.000000 0.000000 0.000000 0.000000 0.000000 0.000000 0.000000 0.000000 0.000000 0.000000 0.000000 0.000000 0.000000 0.000000 0.000000 0.000000 0.000000 0.000000 0.000000 0.000000 0.000000 0.000000 0.000000 0.000000 0.000000 0.000000 0.000000 0.000000 0.000000 1.250000 4.250000 5.500000 6.500000 7.000000 7.500000 10.250000 12.750000 13.750000 14.500000 14.750000 15.000000 15.000000 15.000000 13.500000 14.500000 15.000000 15.500000 12.000000 10.250000 9.000000 7.750000 6.000000 6.500000 6.750000 6.750000
8.250000 8.000000 8.000000 8.000000 7.750000 8.250000 10.500000 15.000000 14.750000 14.250000 13.750000 13.000000 12.750000 11.750000 11.000000 10.750000 11.000000 10.750000 10.000000 8.000000 4.250000 3.750000 3.000000 0.250000 0.000000 0.000000 0.000000 0.000000 0.000000 0.000000 0.000000 0.000000 0.000000 0.000000 0.000000 0.000000 0.000000 0.000000 0.000000 0.000000 0.000000 0.000000 0.000000 0.000000 0.000000 0.000000 0.000000 0.000000 0.000000 0.000000 0.000000 0.000000 0.000000 0.000000 0.000000 0.000000 0.000000 0.000000 0.000000 0.000000 0.000000 0.000000 0.000000 0.000000 0.000000 0.000000 0.000000 0.000000 0.000000 0.000000 0.000000 0.000000 0.000000 0.000000 0.000000 0.000000 0.000000 0.000000 0.000000 0.000000 0.000000 0.000000 0.000000 0.000000 0.000000 0.000000 0.000000 0.000000 0.000000 0.000000 0.000000 0.000000 0.000000 0.000000 0.000000 0.000000 0.000000 0.000000 0.000000 0.000000 0.000000 0.000000 0.000000 0.000000 0.000000 0.000000 0.000000 0.000000 0.000000 0.000000 0.000000 0.000000 0.000000 0.000000 0.000000 0.000000 0.000000 0.000000 0.000000 0.000000 0.000000 0.000000 0.000000 0.000000 0.000000 0.000000 0.000000 0.000000 0.000000 0.000000 0.000000 0.000000 0.000000 0.000000 0.000000 0.000000 0.000000 0.000000 0.000000 0.000000 0.000000 0.000000 0.000000 0.000000 0.000000 0.000000 0.000000 0.000000 0.000000 0.000000 0.000000 0.000000 0.000000 0.000000 0.000000 0.000000 0.000000 0.000000 0.000000 0.000000 0.000000 0.000000 0.000000 0.000000 0.000000 0.000000 0.000000 0.000000 0.000000 0.000000 0.000000 0.000000 0.000000 0.000000 0.000000 0.000000 3.000000 4.750000 5.750000 6.750000 7.500000 7.500000 10.750000 12.750000 13.500000 14.000000 14.250000 14.500000 14.750000 14.500000 13.500000 14.250000 14.750000 13.000000 11.000000 10.000000 8.250000 7.500000 6.000000 5.500000
7.500000 7.750000 7.500000 7.000000 10.000000 13.500000 14.750000 14.500000 13.750000 13.250000 12.500000 11.750000 11.000000 10.500000 11.250000 11.250000 10.000000 8.750000 4.500000 4.250000 3.500000 2.000000 0.000000 0.000000 0.000000 0.000000 0.000000 0.000000 0.000000 0.000000 0.000000 0.000000 0.000000 0.000000 0.000000 0.000000 0.000000 0.000000 0.000000 0.000000 0.000000 0.000000 0.000000 0.000000 0.000000 0.000000 0.000000 0.000000 0.000000 0.000000 0.000000 0.000000 0.000000 0.000000 0.000000 0.000000 0.000000 0.000000 0.000000 0.000000 0.000000 0.000000 0.000000 0.000000 0.000000 0.000000 0.000000 0.000000 0.000000 0.000000 0.000000 0.000000 0.000000 0.000000 0.000000 0.000000 0.000000 0.000000 0.000000 0.000000 0.000000 0.000000 0.000000 0.000000 0.000000 0.000000 0.000000 0.000000 0.000000 0.000000 0.000000 0.000000 0.000000 0.000000 0.000000 0.000000 0.000000 0.000000 0.000000 0.000000 0.000000 0.000000 0.000000 0.000000 0.000000 0.000000 0.000000 0.000000 0.000000 0.000000 0.000000 0.000000 0.000000 0.000000 0.000000 0.000000 0.000000 0.000000 0.000000 0.000000 0.000000 0.000000 0.000000 0.000000 0.000000 0.000000 0.000000 0.000000 0.000000 0.000000 0.000000 0.000000 0.000000 0.000000 0.000000 0.000000 0.000000 0.000000 0.000000 0.000000 0.000000 0.000000 0.000000 0.000000 0.000000 0.000000 0.000000 0.000000 0.000000 0.000000 0.000000 0.000000 0.000000 0.000000 0.000000 0.000000 0.000000 0.000000 0.000000 0.000000 0.000000 0.000000 0.000000 0.000000 0.000000 0.000000 0.000000 0.000000 0.000000 0.000000 0.000000 0.000000 0.000000 0.000000 0.000000 0.000000 0.000000 0.000000 3.750000 5.250000 6.250000 7.000000 7.500000 7.750000 10.750000 12.750000 13.750000 13.750000 14.000000 14.250000 14.750000 14.750000 13.500000 14.250000 15.000000 12.000000 10.250000 9.250000 8.500000 7.000000
6.500000 6.750000 9.500000 12.000000 14.750000 14.500000 13.750000 13.250000 12.500000 11.750000 11.000000 10.000000 11.250000 11.000000 10.500000 9.000000 6.000000 4.500000 4.000000 3.000000 0.000000 0.000000 0.000000 0.000000 0.000000 0.000000 0.000000 0.000000 0.000000 0.000000 0.000000 0.000000 0.000000 0.000000 0.000000 0.000000 0.000000 0.000000 0.000000 0.000000 0.000000 0.000000 0.000000 0.000000 0.000000 0.000000 0.000000 0.000000 0.000000 0.000000 0.000000 0.000000 0.000000 0.000000 0.000000 0.000000 0.000000 0.000000 0.000000 0.000000 0.000000 0.000000 0.000000 0.000000 0.000000 0.000000 0.000000 0.000000 0.000000 0.000000 0.000000 0.000000 0.000000 0.000000 0.000000 0.000000 0.000000 0.000000 0.000000 0.000000 0.000000 0.000000 0.000000 0.000000 0.000000 0.000000 0.000000 0.000000 0.000000 0.000000 0.000000 0.000000 0.000000 0.000000 0.000000 0.000000 0.000000 0.000000 0.000000 0.000000 0.000000 0.000000 0.000000 0.000000 0.000000 0.000000 0.000000 0.000000 0.000000 0.000000 0.000000 0.000000 0.000000 0.000000 0.000000 0.000000 0.000000 0.000000 0.000000 0.000000 0.000000 0.000000 0.000000 0.000000 0.000000 0.000000 0.000000 0.000000 0.000000 0.000000 0.000000 0.000000 0.000000 0.000000 0.000000 0.000000 0.000000 0.000000 0.000000 0.000000 0.000000 0.000000 0.000000 0.000000 0.000000 0.000000 0.000000 0.000000 0.000000 0.000000 0.000000 0.000000 0.000000 0.000000 0.000000 0.000000 0.000000 0.000000 0.000000 0.000000 0.000000 0.000000 0.000000 0.000000 0.000000 0.000000 0.000000 0.000000 0.000000 0.000000 0.000000 0.000000 0.000000 0.000000 0.000000 0.000000 0.000000 0.000000 0.000000 2.250000 4.500000 5.750000 6.750000 7.250000 7.750000 7.750000 11.000000 12.500000 13.250000 13.500000 13.500000 14.000000 14.250000 14.500000 13.250000 14.250000 12.500000 10.750000 9.750000 9.000000
8.750000 11.000000 14.750000 14.500000 14.000000 13.250000 12.500000 12.000000 11.250000 10.000000 11.000000 10.750000 10.500000 9.500000 6.750000 4.750000 4.250000 3.750000 2.250000 0.000000 0.000000 0.000000 0.000000 0.000000 0.000000 0.000000 0.000000 0.000000 0.000000 0.000000 0.000000 0.000000 0.000000 0.000000 0.000000 0.000000 0.000000 0.000000 0.000000 0.000000 0.000000 0.000000 0.000000 0.000000 0.000000 0.000000 0.000000 0.000000 0.000000 0.000000 0.000000 0.000000 0.000000 0.000000 0.000000 0.000000 0.000000 0.000000 0.000000 0.000000 0.000000 0.000000 0.000000 0.000000 0.000000 0.000000 0.000000 0.000000 0.000000 0.000000 0.000000 0.000000 0.000000 0.000000 0.000000 0.000000 0.000000 0.000000 0.000000 0.000000 0.000000 0.000000 0.000000 0.000000 0.000000 0.000000 0.000000 0.000000 0.000000 0.000000 0.000000 0.000000 0.000000 0.000000 0.000000 0.000000 0.000000 0.000000 0.000000 0.000000 0.000000 0.000000 0.000000 0.000000 0.000000 0.000000 0.000000 0.000000 0.000000 0.000000 0.000000 0.000000 0.000000 0.000000 0.000000 0.000000 0.000000 0.000000 0.000000 0.000000 0.000000 0.000000 0.000000 0.000000 0.000000 0.000000 0.000000 0.000000 0.000000 0.000000 0.000000 0.000000 0.000000 0.000000 0.000000 0.000000 0.000000 0.000000 0.000000 0.000000 0.000000 0.000000 0.000000 0.000000 0.000000 0.000000 0.000000 0.000000 0.000000 0.000000 0.000000 0.000000 0.000000 0.000000 0.000000 0.000000 0.000000 0.000000 0.000000 0.000000 0.000000 0.000000 0.000000 0.000000 0.000000 0.000000 0.000000 0.000000 0.000000 0.000000 0.000000 0.000000 0.000000 0.000000 0.000000 0.000000 0.000000 0.000000 0.000000 0.000000 0.000000 3.250000 5.000000 6.000000 7.000000 7.500000 7.750000 8.000000 11.000000 12.250000 12.750000 12.750000 13.000000 13.250000 13.500000 14.250000 13.250000 12.750000 11.000000 10.000000
14.250000 14.500000 14.000000 13.250000 12.750000 12.000000 11.250000 10.250000 11.000000 11.000000 10.500000 9.250000 7.250000 5.000000 4.750000 4.250000 3.000000 0.000000 0.000000 0.000000 0.000000 0.000000 0.000000 0.000000 0.000000 0.000000 0.000000 0.000000 0.000000 0.000000 0.000000 0.000000 0.000000 0.000000 0.000000 0.000000 0.000000 0.000000 0.000000 0.000000 0.000000 0.000000 0.000000 0.000000 0.000000 0.000000 0.000000 0.000000 0.000000 0.000000 0.000000 0.000000 0.000000 0.000000 0.000000 0.000000 0.000000 0.000000 0.000000 0.000000 0.000000 0.000000 0.000000 0.000000 0.000000 0.000000 0.000000 0.000000 0.000000 0.000000 0.000000 0.000000 0.000000 0.000000 0.000000 0.000000 0.000000 0.000000 0.000000 0.000000 0.000000 0.000000 0.000000 0.000000 0.000000 0.000000 0.000000 0.000000 0.000000 0.000000 0.000000 0.000000 0.000000 0.000000 0.000000 0.000000 0.000000 0.000000 0.000000 0.000000 0.000000 0.000000 0.000000 0.000000 0.000000 0.000000 0.000000 0.000000 0.000000 0.000000 0.000000 0.000000 0.000000 0.000000 0.000000 0.000000 0.000000 0.000000 0.000000 0.000000 0.000000 0.000000 0.000000 0.000000 0.000000 0.000000 0.000000 0.000000 0.000000 0.000000 0.000000 0.000000 0.000000 0.000000 0.000000 0.000000 0.000000 0.000000 0.000000 0.000000 0.000000 0.000000 0.000000 0.000000 0.000000 0.000000 0.000000 0.000000 0.000000 0.000000 0.000000 0.000000 0.000000 0.000000 0.000000 0.000000 0.000000 0.000000 0.000000 0.000000 0.000000 0.000000 0.000000 0.000000 0.000000 0.000000 0.000000 0.000000 0.000000 0.000000 0.000000 0.000000 0.000000 0.000000 0.000000 0.000000 0.000000 0.000000 0.000000 0.000000 0.000000 0.000000 1.250000 4.000000 5.250000 6.500000 7.000000 7.750000 8.000000 8.000000 10.750000 12.000000 12.250000 12.250000 12.500000 12.250000 12.500000 13.250000 12.250000 10.250000
14.000000 13.250000 12.750000 12.000000 11.250000 10.250000 11.000000 11.000000 10.250000 9.750000 8.000000 5.000000 5.000000 4.500000 3.500000 2.000000 0.000000 0.000000 0.000000 0.000000 0.000000 0.000000 0.000000 0.000000 0.000000 0.000000 0.000000 0.000000 0.000000 0.000000 0.000000 0.000000 0.000000 0.000000 0.000000 0.000000 0.000000 0.000000 0.000000 0.000000 0.000000 0.000000 0.000000 0.000000 0.000000 0.000000 0.000000 0.000000 0.000000 0.000000 0.000000 0.000000 0.000000 0.000000 0.000000 0.000000 0.000000 0.000000 0.000000 0.000000 0.000000 0.000000 0.000000 0.000000 0.000000 0.000000 0.000000 0.000000 0.000000 0.000000 0.000000 0.000000 0.000000 0.000000 0.000000 0.000000 0.000000 0.000000 0.000000 0.000000 0.000000 0.000000 0.000000 0.000000 0.000000 0.000000 0.000000 0.000000 0.000000 0.000000 0.000000 0.000000 0.000000 0.000000 0.000000 0.000000 0.000000 0.000000 0.000000 0.000000 0.000000 0.000000 0.000000 0.000000 0.000000 0.000000 0.000000 0.000000 0.000000 0.000000 0.000000 0.000000 0.000000 0.000000 0.000000 0.000000 0.000000 0.000000 0.000000 0.000000 0.000000 0.000000 0.000000 0.000000 0.000000 0.000000 0.000000 0.000000 0.000000 0.000000 0.000000 0.000000 0.000000 0.000000 0.000000 0.000000 0.000000 0.000000 0.000000 0.000000 0.000000 0.000000 0.000000 0.000000 0.000000 0.000000 0.000000 0.000000 0.000000 0.000000 0.000000 0.000000 0.000000 0.000000 0.000000 0.000000 0.000000 0.000000 0.000000 0.000000 0.000000 0.000000 0.000000 0.000000 0.000000 0.000000 0.000000 0.000000 0.000000 0.000000 0.000000 0.000000 0.000000 0.000000 0.000000 0.000000 0.000000 0.000000 0.000000 0.000000 0.000000 0.000000 0.000000 0.000000 2.750000 4.500000 5.750000 6.750000 7.500000 8.000000 8.000000 8.250000 11.000000 11.750000 12.000000 11.750000 11.750000 11.750000 11.250000 10.000000
12.750000 12.000000 11.000000 10.250000 11.000000 10.750000 10.500000 9.500000 8.000000 5.000000 5.000000 4.750000 4.000000 3.000000 0.000000 0.000000 0.000000 0.000000 0.000000 0.000000 0.000000 0.000000 0.000000 0.000000 0.000000 0.000000 0.000000 0.000000 0.000000 0.000000 0.000000 0.000000 0.000000 0.000000 0.000000 0.000000 0.000000 0.000000 0.000000 0.000000 0.000000 0.000000 0.000000 0.000000 0.000000 0.000000 0.000000 0.000000 0.000000 0.000000 0.000000 0.000000 0.000000 0.000000 0.000000 0.000000 0.000000 0.000000 0.000000 0.000000 0.000000 0.000000 0.000000 0.000000 0.000000 0.000000 0.000000 0.000000 0.000000 0.000000 0.000000 0.000000 0.000000 0.000000 0.000000 0.000000 0.000000 0.000000 0.000000 0.000000 0.000000 0.000000 0.000000 0.000000 0.000000 0.000000 0.000000 0.000000 0.000000 0.000000 0.000000 0.000000 0.000000 0.000000 0.000000 0.000000 0.000000 0.000000 0.000000 0.000000 0.000000 0.000000 0.000000 0.000000 0.000000 0.000000 0.000000 0.000000 0.000000 0.000000 0.000000 0.000000 0.000000 0.000000 0.000000 0.000000 0.000000 0.000000 0.000000 0.000000 0.000000 0.000000 0.000000 0.000000 0.000000 0.000000 0.000000 0.000000 0.000000 0.000000 0.000000 0.000000 0.000000 0.000000 0.000000 0.000000 0.000000 0.000000 0.000000 0.000000 0.000000 0.000000 0.000000 0.000000 0.000000 0.000000 0.000000 0.000000 0.000000 0.000000 0.000000 0.000000 0.000000 0.000000 0.000000 0.000000 0.000000 0.000000 0.000000 0.000000 0.000000 0.000000 0.000000 0.000000 0.000000 0.000000 0.000000 0.000000 0.000000 0.000000 0.000000 0.000000 0.000000 0.000000 0.000000 0.000000 0.000000 0.000000 0.000000 0.000000 0.000000 0.000000 0.000000 0.000000 0.000000 0.000000 3.750000 5.000000 6.250000 7.000000 7.500000 8.000000 8.250000 8.250000 10.750000 11.250000 11.500000 11.500000 11.000000 11.000000
11.000000 10.000000 10.500000 10.750000 10.250000 9.750000 8.500000 5.250000 5.250000 5.000000 4.500000 3.750000 1.750000 0.000000 0.000000 0.000000 0.000000 0.000000 0.000000 0.000000 0.000000 0.000000 0.000000 0.000000 0.000000 0.000000 0.000000 0.000000 0.000000 0.000000 0.000000 0.000000 0.000000 0.000000 0.000000 0.000000 0.000000 0.000000 0.000000 0.000000 0.000000 0.000000 0.000000 0.000000 0.000000 0.000000 0.000000 0.000000 0.000000 0.000000 0.000000 0.000000 0.000000 0.000000 0.000000 0.000000 0.000000 0.000000 0.000000 0.000000 0.000000 0.000000 0.000000 0.000000 0.000000 0.000000 0.000000 0.000000 0.000000 0.000000 0.000000 0.000000 0.000000 0.000000 0.000000 0.000000 0.000000 0.000000 0.000000 0.000000 0.000000 0.000000 0.000000 0.000000 0.000000 0.000000 0.000000 0.000000 0.000000 0.000000 0.000000 0.000000 0.000000 0.000000 0.000000 0.000000 0.000000 0.000000 0.000000 0.000000 0.000000 0.000000 0.000000 0.000000 0.000000 0.000000 0.000000 0.000000 0.000000 0.000000 0.000000 0.000000 0.000000 0.000000 0.000000 0.000000 0.000000 0.000000 0.000000 0.000000 0.000000 0.000000 0.000000 0.000000 0.000000 0.000000 0.000000 0.000000 0.000000 0.000000 0.000000 0.000000 0.000000 0.000000 0.000000 0.000000 0.000000 0.000000 0.000000 0.000000 0.000000 0.000000 0.000000 0.000000 0.000000 0.000000 0.000000 0.000000 0.000000 0.000000 0.000000 0.000000 0.000000 0.000000 0.000000 0.000000 0.000000 0.000000 0.000000 0.000000 0.000000 0.000000 0.000000 0.000000 0.000000 0.000000 0.000000 0.000000 0.000000 0.000000 0.000000 0.000000 0.000000 0.000000 0.000000 0.000000 0.000000 0.000000 0.000000 0.000000 0.000000 0.000000 0.000000 0.000000 0.000000 0.000000 0.000000 2.000000 4.250000 5.500000 6.500000 7.250000 7.750000 8.250000 8.250000 8.000000 10.500000 11.000000 11.000000 11.000000
10.250000 10.500000 10.250000 9.250000 8.750000 5.250000 5.500000 5.250000 4.750000 4.000000 3.000000 0.000000 0.000000 0.000000 0.000000 0.000000 0.000000 0.000000 0.000000 0.000000 0.000000 0.000000 0.000000 0.000000 0.000000 0.000000 0.000000 0.000000 0.000000 0.000000 0.000000 0.000000 0.000000 0.000000 0.000000 0.000000 0.000000 0.000000 0.000000 0.000000 0.000000 0.000000 0.000000 0.000000 0.000000 0.000000 0.000000 0.000000 0.000000 0.000000 0.000000 0.000000 0.000000 0.000000 0.000000 0.000000 0.000000 0.000000 0.000000 0.000000 0.000000 0.000000 0.000000 0.000000 0.000000 0.000000 0.000000 0.000000 0.000000 0.000000 0.000000 0.000000 0.000000 0.000000 0.000000 0.000000 0.000000 0.000000 0.000000 0.000000 0.000000 0.000000 0.000000 0.000000 0.000000 0.000000 0.000000 0.000000 0.000000 0.000000 0.000000 0.000000 0.000000 0.000000 0.000000 0.000000 0.000000 0.000000 0.000000 0.000000 0.000000 0.000000 0.000000 0.000000 0.000000 0.000000 0.000000 0.000000 0.000000 0.000000 0.000000 0.000000 0.000000 0.000000 0.000000 0.000000 0.000000 0.000000 0.000000 0.000000 0.000000 0.000000 0.000000 0.000000 0.000000 0.000000 0.000000 0.000000 0.000000 0.000000 0.000000 0.000000 0.000000 0.000000 0.000000 0.000000 0.000000 0.000000 0.000000 0.000000 0.000000 0.000000 0.000000 0.000000 0.000000 0.000000 0.000000 0.000000 0.000000 0.000000 0.000000 0.000000 0.000000 0.000000 0.000000 0.000000 0.000000 0.000000 0.000000 0.000000 0.000000 0.000000 0.000000 0.000000 0.000000 0.000000 0.000000 0.000000 0.000000 0.000000 0.000000 0.000000 0.000000 0.000000 0.000000 0.000000 0.000000 0.000000 0.000000 0.000000 0.000000 0.000000 0.000000 0.000000 0.000000 0.000000 0.000000 0.000000 0.000000 3.000000 4.750000 6.000000 7.000000 7.500000 7.750000 8.250000 8.250000 8.250000 10.500000 10.750000
10.000000 9.500000 8.750000 6.000000 5.250000 5.500000 5.000000 4.500000 3.500000 1.500000 0.000000 0.000000 0.000000 0.000000 0.000000 0.000000 0.000000 0.000000 0.000000 0.000000 0.000000 0.000000 0.000000 0.000000 0.000000 0.000000 0.000000 0.000000 0.000000 0.000000 0.000000 0.000000 0.000000 0.000000 0.000000 0.000000 0.000000 0.000000 0.000000 0.000000 0.000000 0.000000 0.000000 0.000000 0.000000 0.000000 0.000000 0.000000 0.000000 0.000000 0.000000 0.000000 0.000000 0.000000 0.000000 0.000000 0.000000 0.000000 0.000000 0.000000 0.000000 0.000000 0.000000 0.000000 0.000000 0.000000 0.000000 0.000000 0.000000 0.000000 0.000000 0.000000 0.000000 0.000000 0.000000 0.000000 0.000000 0.000000 0.000000 0.000000 0.000000 0.000000 0.000000 0.000000 0.000000 0.000000 0.000000 0.000000 0.000000 0.000000 0.000000 0.000000 0.000000 0.000000 0.000000 0.000000 0.000000 0.000000 0.000000 0.000000 0.000000 0.000000 0.000000 0.000000 0.000000 0.000000 0.000000 0.000000 0.000000 0.000000 0.000000 0.000000 0.000000 0.000000 0.000000 0.000000 0.000000 0.000000 0.000000 0.000000 0.000000 0.000000 0.000000 0.000000 0.000000 0.000000 0.000000 0.000000 0.000000 0.000000 0.000000 0.000000 0.000000 0.000000 0.000000 0.000000 0.000000 0.000000 0.000000 0.000000 0.000000 0.000000 0.000000 0.000000 0.000000 0.000000 0.000000 0.000000 0.000000 0.000000 0.000000 0.000000 0.000000 0.000000 0.000000 0.000000 0.000000 0.000000 0.000000 0.000000 0.000000 0.000000 0.000000 0.000000 0.000000 0.000000 0.000000 0.000000 0.000000 0.000000 0.000000 0.000000 0.000000 0.000000 0.000000 0.000000 0.000000 0.000000 0.000000 0.000000 0.000000 0.000000 0.000000 0.000000 0.000000 0.000000 0.000000 0.000000 0.000000 0.000000 0.750000 4.000000 5.250000 6.250000 7.000000 7.750000 8.250000 8.250000 8.500000 8.000000
8.750000 6.500000 5.500000 5.500000 5.250000 4.750000 4.000000 2.750000 0.000000 0.000000 0.000000 0.000000 0.000000 0.000000 0.000000 0.000000 0.000000 0.000000 0.000000 0.000000 0.000000 0.000000 0.000000 0.000000 0.000000 0.000000 0.000000 0.000000 0.000000 0.000000 0.000000 0.000000 0.000000 0.000000 0.000000 0.000000 0.000000 0.000000 0.000000 0.000000 0.000000 0.000000 0.000000 0.000000 0.000000 0.000000 0.000000 0.000000 0.000000 0.000000 0.000000 0.000000 0.000000 0.000000 0.000000 0.000000 0.000000 0.000000 0.000000 0.000000 0.000000 0.000000 0.000000 0.000000 0.000000 0.000000 0.000000 0.000000 0.000000 0.000000 0.000000 0.000000 0.000000 0.000000 0.000000 0.000000 0.000000 0.000000 0.000000 0.000000 0.000000 0.000000 0.000000 0.000000 0.000000 0.000000 0.000000 0.000000 0.000000 0.000000 0.000000 0.000000 0.000000 0.000000 0.000000 0.000000 0.000000 0.000000 0.000000 0.000000 0.000000 0.000000 0.000000 0.000000 0.000000 0.000000 0.000000 0.000000 0.000000 0.000000 0.000000 0.000000 0.000000 0.000000 0.000000 0.000000 0.000000 0.000000 0.000000 0.000000 0.000000 0.000000 0.000000 0.000000 0.000000 0.000000 0.000000 0.000000 0.000000 0.000000 0.000000 0.000000 0.000000 0.000000 0.000000 0.000000 0.000000 0.000000 0.000000 0.000000 0.000000 0.000000 0.000000 0.000000 0.000000 0.000000 0.000000 0.000000 0.000000 0.000000 0.000000 0.000000 0.000000 0.000000 0.000000 0.000000 0.000000 0.000000 0.000000 0.000000 0.000000 0.000000 0.000000 0.000000 0.000000 0.000000 0.000000 0.000000 0.000000 0.000000 0.000000 0.000000 0.000000 0.000000 0.000000 0.000000 0.000000 0.000000 0.000000 0.000000 0.000000 0.000000 0.000000 0.000000 0.000000 0.000000 0.000000 0.000000 0.000000 0.000000 0.000000 0.000000 2.250000 4.500000 5.750000 6.750000 7.500000 8.000000 8.250000 8.500000
5.250000 5.500000 5.250000 5.250000 4.250000 3.250000 1.000000 0.000000 0.000000 0.000000 0.000000 0.000000 0.000000 0.000000 0.000000 0.000000 0.000000 0.000000 0.000000 0.000000 0.000000 0.000000 0.000000 0.000000 0.000000 0.000000 0.000000 0.000000 0.000000 0.000000 0.000000 0.000000 0.000000 0.000000 0.000000 0.000000 0.000000 0.000000 0.000000 0.000000 0.000000 0.000000 0.000000 0.000000 0.000000 0.000000 0.000000 0.000000 0.000000 0.000000 0.000000 0.000000 0.000000 0.000000 0.000000 0.000000 0.000000 0.000000 0.000000 0.000000 0.000000 0.000000 0.000000 0.000000 0.000000 0.000000 0.000000 0.000000 0.000000 0.000000 0.000000 0.000000 0.000000 0.000000 0.000000 0.000000 0.000000 0.000000 0.000000 0.000000 0.000000 0.000000 0.000000 0.000000 0.000000 0.000000 0.000000 0.000000 0.000000 0.000000 0.000000 0.000000 0.000000 0.000000 0.000000 0.000000 0.000000 0.000000 0.000000 0.000000 0.000000 0.000000 0.000000 0.000000 0.000000 0.000000 0.000000 0.000000 0.000000 0.000000 0.000000 0.000000 0.000000 0.000000 0.000000 0.000000 0.000000 0.000000 0.000000 0.000000 0.000000 0.000000 0.000000 0.000000 0.000000 0.000000 0.000000 0.000000 0.000000 0.000000 0.000000 0.000000 0.000000 0.000000 0.000000 0.000000 0.000000 0.000000 0.000000 0.000000 0.000000 0.000000 0.000000 0.000000 0.000000 0.000000 0.000000 0.000000 0.000000 0.000000 0.000000 0.000000 0.000000 0.000000 0.000000 0.000000 0.000000 0.000000 0.000000 0.000000 0.000000 0.000000 0.000000 0.000000 0.000000 0.000000 0.000000 0.000000 0.000000 0.000000 0.000000 0.000000 0.000000 0.000000 0.000000 0.000000 0.000000 0.000000 0.000000 0.000000 0.000000 0.000000 0.000000 0.000000 0.000000 0.000000 0.000000 0.000000 0.000000 0.000000 0.000000 0.000000 0.000000 0.000000 3.250000 5.000000 6.000000 6.750000 7.500000 8.000000
5.500000 5.250000 4.750000 4.000000 2.500000 0.000000 0.000000 0.000000 0.000000 0.000000 0.000000 0.000000 0.000000 0.000000 0.000000 0.000000 0.000000 0.000000 0.000000 0.000000 0.000000 0.000000 0.000000 0.000000 0.000000 0.000000 0.000000 0.000000 0.000000 0.000000 0.000000 0.000000 0.000000 0.000000 0.000000 0.000000 0.000000 0.000000 0.000000 0.000000 0.000000 0.000000 0.000000 0.000000 0.000000 0.000000 0.000000 0.000000 0.000000 0.000000 0.000000 0.000000 0.000000 0.000000 0.000000 0.000000 0.000000 0.000000 0.000000 0.000000 0.000000 0.000000 0.000000 0.000000 0.000000 0.000000 0.000000 0.000000 0.000000 0.000000 0.000000 0.000000 0.000000 0.000000 0.000000 0.000000 0.000000 0.000000 0.000000 0.000000 0.000000 0.000000 0.000000 0.000000 0.000000 0.000000 0.000000 0.000000 0.000000 0.000000 0.000000 0.000000 0.000000 0.000000 0.000000 0.000000 0.000000 0.000000 0.000000 0.000000 0.000000 0.000000 0.000000 0.000000 0.000000 0.000000 0.000000 0.000000 0.000000 0.000000 0.000000 0.000000 0.000000 0.000000 0.000000 0.000000 0.000000 0.000000 0.000000 0.000000 0.000000 0.000000 0.000000 0.000000 0.000000 0.000000 0.000000 0.000000 0.000000 0.000000 0.000000 0.000000 0.000000 0.000000 0.000000 0.000000 0.000000 0.000000 0.000000 0.000000 0.000000 0.000000 0.000000 0.000000 0.000000 0.000000 0.000000 0.000000 0.000000 0.000000 0.000000 0.000000 0.000000 0.000000 0.000000 0.000000 0.000000 0.000000 0.000000 0.000000 0.000000 0.000000 0.000000 0.000000 0.000000 0.000000 0.000000 0.000000 0.000000 0.000000 0.000000 0.000000 0.000000 0.000000 0.000000 0.000000 0.000000 0.000000 0.000000 0.000000 0.000000 0.000000 0.000000 0.000000 0.000000 0.000000 0.000000 0.000000 0.000000 0.000000 0.000000 0.000000 0.000000 0.000000 0.000000 1.500000 4.000000 5.250000 6.500000 7.250000
5.000000 4.250000 3.250000 0.000000 0.000000 0.000000 0.000000 0.000000 0.000000 0.000000 0.000000 0.000000 0.000000 0.000000 0.000000 0.000000 0.000000 0.000000 0.000000 0.000000 0.000000 0.000000 0.000000 0.000000 0.000000 0.000000 0.000000 0.000000 0.000000 0.000000 0.000000 0.000000 0.000000 0.000000 0.000000 0.000000 0.000000 0.000000 0.000000 0.000000 0.000000 0.000000 0.000000 0.000000 0.000000 0.000000 0.000000 0.000000 0.000000 0.000000 0.000000 0.000000 0.000000 0.000000 0.000000 0.000000 0.000000 0.000000 0.000000 0.000000 0.000000 0.000000 0.000000 0.000000 0.000000 0.000000 0.000000 0.000000 0.000000 0.000000 0.000000 0.000000 0.000000 0.000000 0.000000 0.000000 0.000000 0.000000 0.000000 0.000000 0.000000 0.000000 0.000000 0.000000 0.000000 0.000000 0.000000 0.000000 0.000000 0.000000 0.000000 0.000000 0.000000 0.000000 0.000000 0.000000 0.000000 0.000000 0.000000 0.000000 0.000000 0.000000 0.000000 0.000000 0.000000 0.000000 0.000000 0.000000 0.000000 0.000000 0.000000 0.000000 0.000000 0.000000 0.000000 0.000000 0.000000 0.000000 0.000000 0.000000 0.000000 0.000000 0.000000 0.000000 0.000000 0.000000 0.000000 0.000000 0.000000 0.000000 0.000000 0.000000 0.000000 0.000000 0.000000 0.000000 0.000000 0.000000 0.000000 0.000000 0.000000 0.000000 0.000000 0.000000 0.000000 0.000000 0.000000 0.000000 0.000000 0.000000 0.000000 0.000000 0.000000 0.000000 0.000000 0.000000 0.000000 0.000000 0.000000 0.000000 0.000000 0.000000 0.000000 0.000000 0.000000 0.000000 0.000000 0.000000 0.000000 0.000000 0.000000 0.000000 0.000000 0.000000 0.000000 0.000000 0.000000 0.000000 0.000000 0.000000 0.000000 0.000000 0.000000 0.000000 0.000000 0.000000 0.000000 0.000000 0.000000 0.000000 0.000000 0.000000 0.000000 0.000000 0.000000 0.000000 0.000000 2.750000 4.500000 5.750000
3.750000 2.000000 0.000000 0.000000 0.000000 0.000000 0.000000 0.000000 0.000000 0.000000 0.000000 0.000000 0.000000 0.000000 0.000000 0.000000 0.000000 0.000000 0.000000 0.000000 0.000000 0.000000 0.000000 0.000000 0.000000 0.000000 0.000000 0.000000 0.000000 0.000000 0.000000 0.000000 0.000000 0.000000 0.000000 0.000000 0.000000 0.000000 0.000000 0.000000 0.000000 0.000000 0.000000 0.000000 0.000000 0.000000 0.000000 0.000000 0.000000 0.000000 0.000000 0.000000 0.000000 0.000000 0.000000 0.000000 0.000000 0.000000 0.000000 0.000000 0.000000 0.000000 0.000000 0.000000 0.000000 0.000000 0.000000 0.000000 0.000000 0.000000 0.000000 0.000000 0.000000 0.000000 0.000000 0.000000 0.000000 0.000000 0.000000 0.000000 0.000000 0.000000 0.000000 0.000000 0.000000 0.000000 0.000000 0.000000 0.000000 0.000000 0.000000 0.000000 0.000000 0.000000 0.000000 0.000000 0.000000 0.000000 0.000000 0.000000 0.000000 0.000000 0.000000 0.000000 0.000000 0.000000 0.000000 0.000000 0.000000 0.000000 0.000000 0.000000 0.000000 0.000000 0.000000 0.000000 0.000000 0.000000 0.000000 0.000000 0.000000 0.000000 0.000000 0.000000 0.000000 0.000000 0.000000 0.000000 0.000000 0.000000 0.000000 0.000000 0.000000 0.000000 0.000000 0.000000 0.000000 0.000000 0.000000 0.000000 0.000000 0.000000 0.000000 0.000000 0.000000 0.000000 0.000000 0.000000 0.000000 0.000000 0.000000 0.000000 0.000000 0.000000 0.000000 0.000000 0.000000 0.000000 0.000000 0.000000 0.000000 0.000000 0.000000 0.000000 0.000000 0.000000 0.000000 0.000000 0.000000 0.000000 0.000000 0.000000 0.000000 0.000000 0.000000 0.000000 0.000000 0.000000 0.000000 0.000000 0.000000 0.000000 0.000000 0.000000 0.000000 0.000000 0.000000 0.000000 0.000000 0.000000 0.000000 0.000000 0.000000 0.000000 0.000000 0.000000 0.000000 0.000000 0.000000 3.500000
0.000000 0.000000 0.000000 0.000000 0.000000 0.000000 0.000000 0.000000 0.000000 0.000000 0.000000 0.000000 0.000000 0.000000 0.000000 0.000000 0.000000 0.000000 0.000000 0.000000 0.000000 0.000000 0.000000 0.000000 0.000000 0.000000 0.000000 0.000000 0.000000 0.000000 0.000000 0.000000 0.000000 0.000000 0.000000 0.000000 0.000000 0.000000 0.000000 0.000000 0.000000 0.000000 0.000000 0.000000 0.000000 0.000000 0.000000 0.000000 0.000000 0.000000 0.000000 0.000000 0.000000 0.000000 0.000000 0.000000 0.000000 0.000000 0.000000 0.000000 0.000000 0.000000 0.000000 0.000000 0.000000 0.000000 0.000000 0.000000 0.000000 0.000000 0.000000 0.000000 0.000000 0.000000 0.000000 0.000000 0.000000 0.000000 0.000000 0.000000 0.000000 0.000000 0.000000 0.000000 0.000000 0.000000 0.000000 0.000000 0.000000 0.000000 0.000000 0.000000 0.000000 0.000000 0.000000 0.000000 0.000000 0.000000 0.000000 0.000000 0.000000 0.000000 0.000000 0.000000 0.000000 0.000000 0.000000 0.000000 0.000000 0.000000 0.000000 0.000000 0.000000 0.000000 0.000000 0.000000 0.000000 0.000000 0.000000 0.000000 0.000000 0.000000 0.000000 0.000000 0.000000 0.000000 0.000000 0.000000 0.000000 0.000000 0.000000 0.000000 0.000000 0.000000 0.000000 0.000000 0.000000 0.000000 0.000000 0.000000 0.000000 0.000000 0.000000 0.000000 0.000000 0.000000 0.000000 0.000000 0.000000 0.000000 0.000000 0.000000 0.000000 0.000000 0.000000 0.000000 0.000000 0.000000 0.000000 0.000000 0.000000 0.000000 0.000000 0.000000 0.000000 0.000000 0.000000 0.000000 0.000000 0.000000 0.000000 0.000000 0.000000 0.000000 0.000000 0.000000 0.000000 0.000000 0.000000 0.000000 0.000000 0.000000 0.000000 0.000000 0.000000 0.000000 0.000000 0.000000 0.000000 0.000000 0.000000 0.000000 0.000000 0.000000 0.000000 0.000000 0.000000 0.000000 0.000000 0.000000
0.000000 0.000000 0.000000 0.000000 0.000000 0.000000 0.000000 0.000000 0.000000 0.000000 0.000000 0.000000 0.000000 0.000000 0.000000 0.000000 0.000000 0.000000 0.000000 0.000000 0.000000 0.000000 0.000000 0.000000 0.000000 0.000000 0.000000 0.000000 0.000000 0.000000 0.000000 0.000000 0.000000 0.000000 0.000000 0.000000 0.000000 0.000000 0.000000 0.000000 0.000000 0.000000 0.000000 0.000000 0.000000 0.000000 0.000000 0.000000 0.000000 0.000000 0.000000 0.000000 0.000000 0.000000 0.000000 0.000000 0.000000 0.000000 0.000000 0.000000 0.000000 0.000000 0.000000 0.000000 0.000000 0.000000 0.000000 0.000000 0.000000 0.000000 0.000000 0.000000 0.000000 0.000000 0.000000 0.000000 0.000000 0.000000 0.000000 0.000000 0.000000 0.000000 0.000000 0.000000 0.000000 0.000000 0.000000 0.000000 0.000000 0.000000 0.000000 0.000000 0.000000 0.000000 0.000000 0.000000 0.000000 0.000000 0.000000 0.000000 0.000000 0.000000 0.000000 0.000000 0.000000 0.000000 0.000000 0.000000 0.000000 0.000000 0.000000 0.000000 0.000000 0.000000 0.000000 0.000000 0.000000 0.000000 0.000000 0.000000 0.000000 0.000000 0.000000 0.000000 0.000000 0.000000 0.000000 0.000000 0.000000 0.000000 0.000000 0.000000 0.000000 0.000000 0.000000 0.000000 0.000000 0.000000 0.000000 0.000000 0.000000 0.000000 0.000000 0.000000 0.000000 0.000000 0.000000 0.000000 0.000000 0.000000 0.000000 0.000000 0.000000 0.000000 0.000000 0.000000 0.000000 0.000000 0.000000 0.000000 0.000000 0.000000 0.000000 0.000000 0.000000 0.000000 0.000000 0.000000 0.000000 0.000000 0.000000 0.000000 0.000000 0.000000 0.000000 0.000000 0.000000 0.000000 0.000000 0.000000 0.000000 0.000000 0.000000 0.000000 0.000000 0.000000 0.000000 0.000000 0.000000 0.000000 0.000000 0.000000 0.000000 0.000000 0.000000 0.000000 0.000000 0.000000 0.000000 0.000000
0.000000 0.000000 0.000000 0.000000 0.000000 0.000000 0.000000 0.000000 0.000000 0.000000 0.000000 0.000000 0.000000 0.000000 0.000000 0.000000 0.000000 0.000000 0.000000 0.000000 0.000000 0.000000 0.000000 0.000000 0.000000 0.000000 0.000000 0.000000 0.000000 0.000000 0.000000 0.000000 0.000000 0.000000 0.000000 0.000000 0.000000 0.000000 0.000000 0.000000 0.000000 0.000000 0.000000 0.000000 0.000000 0.000000 0.000000 0.000000 0.000000 0.000000 0.000000 0.000000 0.000000 0.000000 0.000000 0.000000 0.000000 0.000000 0.000000 0.000000 0.000000 0.000000 0.000000 0.000000 0.000000 0.000000 0.000000 0.000000 0.000000 0.000000 0.000000 0.000000 0.000000 0.000000 0.000000 0.000000 0.000000 0.000000 0.000000 0.000000 0.000000 0.000000 0.000000 0.000000 0.000000 0.000000 0.000000 0.000000 0.000000 0.000000 0.000000 0.000000 0.000000 0.000000 0.000000 0.000000 0.000000 0.000000 0.000000 0.000000 0.000000 0.000000 0.000000 0.000000 0.000000 0.000000 0.000000 0.000000 0.000000 0.000000 0.000000 0.000000 0.000000 0.000000 0.000000 0.000000 0.000000 0.000000 0.000000 0.000000 0.000000 0.000000 0.000000 0.000000 0.000000 0.000000 0.000000 0.000000 0.000000 0.000000 0.000000 0.000000 0.000000 0.000000 0.000000 0.000000 0.000000 0.000000 0.000000 0.000000 0.000000 0.000000 0.000000 0.000000 0.000000 0.000000 0.000000 0.000000 0.000000 0.000000 0.000000 0.000000 0.000000 0.000000 0.000000 0.000000 0.000000 0.000000 0.000000 0.000000 0.000000 0.000000 0.000000 0.000000 0.000000 0.000000 0.000000 0.000000 0.000000 0.000000 0.000000 0.000000 0.000000 0.000000 0.000000 0.000000 0.000000 0.000000 0.000000 0.000000 0.000000 0.000000 0.000000 0.000000 0.000000 0.000000 0.000000 0.000000 0.000000 0.000000 0.000000 0.000000 0.000000 0.000000 0.000000 0.000000 0.000000 0.000000 0.000000 0.000000
0.000000 0.000000 0.000000 0.000000 0.000000 0.000000 0.000000 0.000000 0.000000 0.000000 0.000000 0.000000 0.000000 0.000000 0.000000 0.000000 0.000000 0.000000 0.000000 0.000000 0.000000 0.000000 0.000000 0.000000 0.000000 0.000000 0.000000 0.000000 0.000000 0.000000 0.000000 0.000000 0.000000 0.000000 0.000000 0.000000 0.000000 0.000000 0.000000 0.000000 0.000000 0.000000 0.000000 0.000000 0.000000 0.000000 0.000000 0.000000 0.000000 0.000000 0.000000 0.000000 0.000000 0.000000 0.000000 0.000000 0.000000 0.000000 0.000000 0.000000 0.000000 0.000000 0.000000 0.000000 0.000000 0.000000 0.000000 0.000000 0.000000 0.000000 0.000000 0.000000 0.000000 0.000000 0.000000 0.000000 0.000000 0.000000 0.000000 0.000000 0.000000 0.000000 0.000000 0.000000 0.000000 0.000000 0.000000 0.000000 0.000000 0.000000 0.000000 0.000000 0.000000 0.000000 0.000000 0.000000 0.000000 0.000000 0.000000 0.000000 0.000000 0.000000 0.000000 0.000000 0.000000 0.000000 0.000000 0.000000 0.000000 0.000000 0.000000 0.000000 0.000000 0.000000 0.000000 0.000000 0.000000 0.000000 0.000000 0.000000 0.000000 0.000000 0.000000 0.000000 0.000000 0.000000 0.000000 0.000000 0.000000 0.000000 0.000000 0.000000 0.000000 0.000000 0.000000 0.000000 0.000000 0.000000 0.000000 0.000000 0.000000 0.000000 0.000000 0.000000 0.000000 0.000000 0.000000 0.000000 0.000000 0.000000 0.000000 0.000000 0.000000 0.000000 0.000000 0.000000 0.000000 0.000000 0.000000 0.000000 0.000000 0.000000 0.000000 0.000000 0.000000 0.000000 0.000000 0.000000 0.000000 0.000000 0.000000 0.000000 0.000000 0.000000 0.000000 0.000000 0.000000 0.000000 0.000000 0.000000 0.000000 0.000000 0.000000 0.000000 0.000000 0.000000 0.000000 0.000000 0.000000 0.000000 0.000000 0.000000 0.000000 0.000000 0.000000 0.000000 0.000000 0.000000 0.000000 0.000000
0.000000 0.000000 0.000000 0.000000 0.000000 0.000000 0.000000 0.000000 0.000000 0.000000 0.000000 0.000000 0.000000 0.000000 0.000000 0.000000 0.000000 0.000000 0.000000 0.000000 0.000000 0.000000 0.000000 0.000000 0.000000 0.000000 0.000000 0.000000 0.000000 0.000000 0.000000 0.000000 0.000000 0.000000 0.000000 0.000000 0.000000 0.000000 0.000000 0.000000 0.000000 0.000000 0.000000 0.000000 0.000000 0.000000 0.000000 0.000000 0.000000 0.000000 0.000000 0.000000 0.000000 0.000000 0.000000 0.000000 0.000000 0.000000 0.000000 0.000000 0.000000 0.000000 0.000000 0.000000 0.000000 0.000000 0.000000 0.000000 0.000000 0.000000 0.000000 0.000000 0.000000 0.000000 0.000000 0.000000 0.000000 0.000000 0.000000 0.000000 0.000000 0.000000 0.000000 0.000000 0.000000 0.000000 0.000000 0.000000 0.000000 0.000000 0.000000 0.000000 0.000000 0.000000 0.000000 0.000000 0.000000 0.000000 0.000000 0.000000 0.000000 0.000000 0.000000 0.000000 0.000000 0.000000 0.000000 0.000000 0.000000 0.000000 0.000000 0.000000 0.000000 0.000000 0.000000 0.000000 0.000000 0.000000 0.000000 0.000000 0.000000 0.000000 0.000000 0.000000 0.000000 0.000000 0.000000 0.000000 0.000000 0.000000 0.000000 0.000000 0.000000 0.000000 0.000000 0.000000 0.000000 0.000000 0.000000 0.000000 0.000000 0.000000 0.000000 0.000000 0.000000 0.000000 0.000000 0.000000 0.000000 0.000000 0.000000 0.000000 0.000000 0.000000 0.000000 0.000000 0.000000 0.000000 0.000000 0.000000 0.000000 0.000000 0.000000 0.000000 0.000000 0.000000 0.000000 0.000000 0.000000 0.000000 0.000000 0.000000 0.000000 0.000000 0.000000 0.000000 0.000000 0.000000 0.000000 0.000000 0.000000 0.000000 0.000000 0.000000 0.000000 0.000000 0.000000 0.000000 0.000000 0.000000 0.000000 0.000000 0.000000 0.000000 0.000000 0.000000 0.000000 0.000000 0.000000 0.000000
0.000000 0.000000 0.000000 0.000000 0.000000 0.000000 0.000000 0.000000 0.000000 0.000000 0.000000 0.000000 0.000000 0.000000 0.000000 0.000000 0.000000 0.000000 0.000000 0.000000 0.000000 0.000000 0.000000 0.000000 0.000000 0.000000 0.000000 0.000000 0.000000 0.000000 0.000000 0.000000 0.000000 0.000000 0.000000 0.000000 0.000000 0.000000 0.000000 0.000000 0.000000 0.000000 0.000000 0.000000 0.000000 0.000000 0.000000 0.000000 0.000000 0.000000 0.000000 0.000000 0.000000 0.000000 0.000000 0.000000 0.000000 0.000000 0.000000 0.000000 0.000000 0.000000 0.000000 0.000000 0.000000 0.000000 0.000000 0.000000 0.000000 0.000000 0.000000 0.000000 0.000000 0.000000 0.000000 0.000000 0.000000 0.000000 0.000000 0.000000 0.000000 0.000000 0.000000 0.000000 0.000000 0.000000 0.000000 0.000000 0.000000 0.000000 0.000000 0.000000 0.000000 0.000000 0.000000 0.000000 0.000000 0.000000 0.000000 0.000000 0.000000 0.000000 0.000000 0.000000 0.000000 0.000000 0.000000 0.000000 0.000000 0.000000 0.000000 0.000000 0.000000 0.000000 0.000000 0.000000 0.000000 0.000000 0.000000 0.000000 0.000000 0.000000 0.000000 0.000000 0.000000 0.000000 0.000000 0.000000 0.000000 0.000000 0.000000 0.000000 0.000000 0.000000 0.000000 0.000000 0.000000 0.000000 0.000000 0.000000 0.000000 0.000000 0.000000 0.000000 0.000000 0.000000 0.000000 0.000000 0.000000 0.000000 0.000000 0.000000 0.000000 0.000000 0.000000 0.000000 0.000000 0.000000 0.000000 0.000000 0.000000 0.000000 0.000000 0.000000 0.000000 0.000000 0.000000 0.000000 0.000000 0.000000 0.000000 0.000000 0.000000 0.000000 0.000000 0.000000 0.000000 0.000000 0.000000 0.000000 0.000000 0.000000 0.000000 0.000000 0.000000 0.000000 0.000000 0.000000 0.000000 0.000000 0.000000 0.000000 0.000000 0.000000 0.000000 0.000000 0.000000 0.000000 0.000000 0.000000
0.000000 0.000000 0.000000 0.000000 0.000000 0.000000 0.000000 0.000000 0.000000 0.000000 0.000000 0.000000 0.000000 0.000000 0.000000 0.000000 0.000000 0.000000 0.000000 0.000000 0.000000 0.000000 0.000000 0.000000 0.000000 0.000000 0.000000 0.000000 0.000000 0.000000 0.000000 0.000000 0.000000 0.000000 0.000000 0.000000 0.000000 0.000000 0.000000 0.000000 0.000000 0.000000 0.000000 0.000000 0.000000 0.000000 0.000000 0.000000 0.000000 0.000000 0.000000 0.000000 0.000000 0.000000 0.000000 0.000000 0.000000 0.000000 0.000000 0.000000 0.000000 0.000000 0.000000 0.000000 0.000000 0.000000 0.000000 0.000000 0.000000 0.000000 0.000000 0.000000 0.000000 0.000000 0.000000 0.000000 0.000000 0.000000 0.000000 0.000000 0.000000 0.000000 0.000000 0.000000 0.000000 0.000000 0.000000 0.000000 0.000000 0.000000 0.000000 0.000000 0.000000 0.000000 0.000000 0.000000 0.000000 0.000000 0.000000 0.000000 0.000000 0.000000 0.000000 0.000000 0.000000 0.000000 0.000000 0.000000 0.000000 0.000000 0.000000 0.000000 0.000000 0.000000 0.000000 0.000000 0.000000 0.000000 0.000000 0.000000 0.000000 0.000000 0.000000 0.000000 0.000000 0.000000 0.000000 0.000000 0.000000 0.000000 0.000000 0.000000 0.000000 0.000000 0.000000 0.000000 0.000000 0.000000 0.000000 0.000000 0.000000 0.000000 0.000000 0.000000 0.000000 0.000000 0.000000 0.000000 0.000000 0.000000 0.000000 0.000000 0.000000 0.000000 0.000000 0.000000 0.000000 0.000000 0.000000 0.000000 0.000000 0.000000 0.000000 0.000000 0.000000 0.000000 0.000000 0.000000 0.000000 0.000000 0.000000 0.000000 0.000000 0.000000 0.000000 0.000000 0.000000 0.000000 0.000000 0.000000 0.000000 0.000000 0.000000 0.000000 0.000000 0.000000 0.000000 0.000000 0.000000 0.000000 0.000000 0.000000 0.000000 0.000000 0.000000 0.000000 0.000000 0.000000 0.000000 0.000000
0.000000 0.000000 0.000000 0.000000 0.000000 0.000000 0.000000 0.000000 0.000000 0.000000 0.000000 0.000000 0.000000 0.000000 0.000000 0.000000 0.000000 0.000000 0.000000 0.000000 0.000000 0.000000 0.000000 0.000000 0.000000 0.000000 0.000000 0.000000 0.000000 0.000000 0.000000 0.000000 0.000000 0.000000 0.000000 0.000000 0.000000 0.000000 0.000000 0.000000 0.000000 0.000000 0.000000 0.000000 0.000000 0.000000 0.000000 0.000000 0.000000 0.000000 0.000000 0.000000 0.000000 0.000000 0.000000 0.000000 0.000000 0.000000 0.000000 0.000000 0.000000 0.000000 0.000000 0.000000 0.000000 0.000000 0.000000 0.000000 0.000000 0.000000 0.000000 0.000000 0.000000 0.000000 0.000000 0.000000 0.000000 0.000000 0.000000 0.000000 0.000000 0.000000 0.000000 0.000000 0.000000 0.000000 0.000000 0.000000 0.000000 0.000000 0.000000 0.000000 0.000000 0.000000 0.000000 0.000000 0.000000 0.000000 0.000000 0.000000 0.000000 0.000000 0.000000 0.000000 0.000000 0.000000 0.000000 0.000000 0.000000 0.000000 0.000000 0.000000 0.000000 0.000000 0.000000 0.000000 0.000000 0.000000 0.000000 0.000000 0.000000 0.000000 0.000000 0.000000 0.000000 0.000000 0.000000 0.000000 0.000000 0.000000 0.000000 0.000000 0.000000 0.000000 0.000000 0.000000 0.000000 0.000000 0.000000 0.000000 0.000000 0.000000 0.000000 0.000000 0.000000 0.000000 0.000000 0.000000 0.000000 0.000000 0.000000 0.000000 0.000000 0.000000 0.000000 0.000000 0.000000 0.000000 0.000000 0.000000 0.000000 0.000000 0.000000 0.000000 0.000000 0.000000 0.000000 0.000000 0.000000 0.000000 0.000000 0.000000 0.000000 0.000000 0.000000 0.000000 0.000000 0.000000 0.000000 0.000000 0.000000 0.000000 0.000000 0.000000 0.000000 0.000000 0.000000 0.000000 0.000000 0.000000 0.000000 0.000000 0.000000 0.000000 0.000000 0.000000 0.000000 0.000000 0.000000 0.000000
0.000000 0.000000 0.000000 0.000000 0.000000 0.000000 0.000000 0.000000 0.000000 0.000000 0.000000 0.000000 0.000000 0.000000 0.000000 0.000000 0.000000 0.000000 0.000000 0.000000 0.000000 0.000000 0.000000 0.000000 0.000000 0.000000 0.000000 0.000000 0.000000 0.000000 0.000000 0.000000 0.000000 0.000000 0.000000 0.000000 0.000000 0.000000 0.000000 0.000000 0.000000 0.000000 0.000000 0.000000 0.000000 0.000000 0.000000 0.000000 0.000000 0.000000 0.000000 0.000000 0.000000 0.000000 0.000000 0.000000 0.000000 0.000000 0.000000 0.000000 0.000000 0.000000 0.000000 0.000000 0.000000 0.000000 0.000000 0.000000 0.000000 0.000000 0.000000 0.000000 0.000000 0.000000 0.000000 0.000000 0.000000 0.000000 0.000000 0.000000 0.000000 0.000000 0.000000 0.000000 0.000000 0.000000 0.000000 0.000000 0.000000 0.000000 0.000000 0.000000 0.000000 0.000000 0.000000 0.000000 0.000000 0.000000 0.000000 0.000000 0.000000 0.000000 0.000000 0.000000 0.000000 0.000000 0.000000 0.000000 0.000000 0.000000 0.000000 0.000000 0.000000 0.000000 0.000000 0.000000 0.000000 0.000000 0.000000 0.000000 0.000000 0.000000 0.000000 0.000000 0.000000 0.000000 0.000000 0.000000 0.000000 0.000000 0.000000 0.000000 0.000000 0.000000 0.000000 0.000000 0.000000 0.000000 0.000000 0.000000 0.000000 0.000000 0.000000 0.000000 0.000000 0.000000 0.000000 0.000000 0.000000 0.000000 0.000000 0.000000 0.000000 0.000000 0.000000 0.000000 0.000000 0.000000 0.000000 0.000000 0.000000 0.000000 0.000000 0.000000 0.000000 0.000000 0.000000 0.000000 0.000000 0.000000 0.000000 0.000000 0.000000 0.000000 0.000000 0.000000 0.000000 0.000000 0.000000 0.000000 0.000000 0.000000 0.000000 0.000000 0.000000 0.000000 0.000000 0.000000 0.000000 0.000000 0.000000 0.000000 0.000000 0.000000 0.000000 0.000000 0.000000 0.000000 0.000000 0.000000
0.000000 0.000000 0.000000 0.000000 0.000000 0.000000 0.000000 0.000000 0.000000 0.000000 0.000000 0.000000 0.000000 0.000000 0.000000 0.000000 0.000000 0.000000 0.000000 0.000000 0.000000 0.000000 0.000000 0.000000 0.000000 0.000000 0.000000 0.000000 0.000000 0.000000 0.000000 0.000000 0.000000 0.000000 0.000000 0.000000 0.000000 0.000000 0.000000 0.000000 0.000000 0.000000 0.000000 0.000000 0.000000 0.000000 0.000000 0.000000 0.000000 0.000000 0.000000 0.000000 0.000000 0.000000 0.000000 0.000000 0.000000 0.000000 0.000000 0.000000 0.000000 0.000000 0.000000 0.000000 0.000000 0.000000 0.000000 0.000000 0.000000 0.000000 0.000000 0.000000 0.000000 0.000000 0.000000 0.000000 0.000000 0.000000 0.000000 0.000000 0.000000 0.000000 0.000000 0.000000 0.000000 0.000000 0.000000 0.000000 0.000000 0.000000 0.000000 0.000000 0.000000 0.000000 0.000000 0.000000 0.000000 0.000000 0.000000 0.000000 0.000000 0.000000 0.000000 0.000000 0.000000 0.000000 0.000000 0.000000 0.000000 0.000000 0.000000 0.000000 0.000000 0.000000 0.000000 0.000000 0.000000 0.000000 0.000000 0.000000 0.000000 0.000000 0.000000 0.000000 0.000000 0.000000 0.000000 0.000000 0.000000 0.000000 0.000000 0.000000 0.000000 0.000000 0.000000 0.000000 0.000000 0.000000 0.000000 0.000000 0.000000 0.000000 0.000000 0.000000 0.000000 0.000000 0.000000 0.000000 0.000000 0.000000 0.000000 0.000000 0.000000 0.000000 0.000000 0.000000 0.000000 0.000000 0.000000 0.000000 0.000000 0.000000 0.000000 0.000000 0.000000 0.000000 0.000000 0.000000 0.000000 0.000000 0.000000 0.000000 0.000000 0.000000 0.000000 0.000000 0.000000 0.000000 0.000000 0.000000 0.000000 0.000000 0.000000 0.000000 0.000000 0.000000 0.000000 0.000000 0.000000 0.000000 0.000000 0.000000 0.000000 0.000000 0.000000 0.000000 0.000000 0.000000 0.000000 0.000000
0.000000 0.000000 0.000000 0.000000 0.000000 0.000000 0.000000 0.000000 0.000000 0.000000 0.000000 0.000000 0.000000 0.000000 0.000000 0.000000 0.000000 0.000000 0.000000 0.000000 0.000000 0.000000 0.000000 0.000000 0.000000 0.000000 0.000000 0.000000 0.000000 0.000000 0.000000 0.000000 0.000000 0.000000 0.000000 0.000000 0.000000 0.000000 0.000000 0.000000 0.000000 0.000000 0.000000 0.000000 0.000000 0.000000 0.000000 0.000000 0.000000 0.000000 0.000000 0.000000 0.000000 0.000000 0.000000 0.000000 0.000000 0.000000 0.000000 0.000000 0.000000 0.000000 0.000000 0.000000 0.000000 0.000000 0.000000 0.000000 0.000000 0.000000 0.000000 0.000000 0.000000 0.000000 0.000000 0.000000 0.000000 0.000000 0.000000 0.000000 0.000000 0.000000 0.000000 0.000000 0.000000 0.000000 0.000000 0.000000 0.000000 0.000000 0.000000 0.000000 0.000000 0.000000 0.000000 0.000000 0.000000 0.000000 0.000000 0.000000 0.000000 0.000000 0.000000 0.000000 0.000000 0.000000 0.000000 0.000000 0.000000 0.000000 0.000000 0.000000 0.000000 0.000000 0.000000 0.000000 0.000000 0.000000 0.000000 0.000000 0.000000 0.000000 0.000000 0.000000 0.000000 0.000000 0.000000 0.000000 0.000000 0.000000 0.000000 0.000000 0.000000 0.000000 0.000000 0.000000 0.000000 0.000000 0.000000 0.000000 0.000000 0.000000 0.000000 0.000000 0.000000 0.000000 0.000000 0.000000 0.000000 0.000000 0.000000 0.000000 0.000000 0.000000 0.000000 0.000000 0.000000 0.000000 0.000000 0.000000 0.000000 0.000000 0.000000 0.000000 0.000000 0.000000 0.000000 0.000000 0.000000 0.000000 0.000000 0.000000 0.000000 0.000000 0.000000 0.000000 0.000000 0.000000 0.000000 0.000000 0.000000 0.000000 0.000000 0.000000 0.000000 0.000000 0.000000 0.000000 0.000000 0.000000 0.000000 0.000000 0.000000 0.000000 0.000000 0.000000 0.000000 0.000000 0.000000 0.000000
0.000000 0.000000 0.000000 0.000000 0.000000 0.000000 0.000000 0.000000 0.000000 0.000000 0.000000 0.000000 0.000000 0.000000 0.000000 0.000000 0.000000 0.000000 0.000000 0.000000 0.000000 0.000000 0.000000 0.000000 0.000000 0.000000 0.000000 0.000000 0.000000 0.000000 0.000000 0.000000 0.000000 0.000000 0.000000 0.000000 0.000000 0.000000 0.000000 0.000000 0.000000 0.000000 0.000000 0.000000 0.000000 0.000000 0.000000 0.000000 0.000000 0.000000 0.000000 0.000000 0.000000 0.000000 0.000000 0.000000 0.000000 0.000000 0.000000 0.000000 0.000000 0.000000 0.000000 0.000000 0.000000 0.000000 0.000000 0.000000 0.000000 0.000000 0.000000 0.000000 0.000000 0.000000 0.000000 0.000000 0.000000 0.000000 0.000000 0.000000 0.000000 0.000000 0.000000 0.000000 0.000000 0.000000 0.000000 0.000000 0.000000 0.000000 0.000000 0.000000 0.000000 0.000000 0.000000 0.000000 0.000000 0.000000 0.000000 0.000000 0.000000 0.000000 0.000000 0.000000 0.000000 0.000000 0.000000 0.000000 0.000000 0.000000 0.000000 0.000000 0.000000 0.000000 0.000000 0.000000 0.000000 0.000000 0.000000 0.000000 0.000000 0.000000 0.000000 0.000000 0.000000 0.000000 0.000000 0.000000 0.000000 0.000000 0.000000 0.000000 0.000000 0.000000 0.000000 0.000000 0.000000 0.000000 0.000000 0.000000 0.000000 0.000000 0.000000 0.000000 0.000000 0.000000 0.000000 0.000000 0.000000 0.000000 0.000000 0.000000 0.000000 0.000000 0.000000 0.000000 0.000000 0.000000 0.000000 0.000000 0.000000 0.000000 0.000000 0.000000 0.000000 0.000000 0.000000 0.000000 0.000000 0.000000 0.000000 0.000000 0.000000 0.000000 0.000000 0.000000 0.000000 0.000000 0.000000 0.000000 0.000000 0.000000 0.000000 0.000000 0.000000 0.000000 0.000000 0.000000 0.000000 0.000000 0.000000 0.000000 0.000000 0.000000 0.000000 0.000000 0.000000 0.000000 0.000000 0.000000
0.000000 0.000000 0.000000 0.000000 0.000000 0.000000 0.000000 0.000000 0.000000 0.000000 0.000000 0.000000 0.000000 0.000000 0.000000 0.000000 0.000000 0.000000 0.000000 0.000000 0.000000 0.000000 0.000000 0.000000 0.000000 0.000000 0.000000 0.000000 0.000000 0.000000 0.000000 0.000000 0.000000 0.000000 0.000000 0.000000 0.000000 0.000000 0.000000 0.000000 0.000000 0.000000 0.000000 0.000000 0.000000 0.000000 0.000000 0.000000 0.000000 0.000000 0.000000 0.000000 0.000000 0.000000 0.000000 0.000000 0.000000 0.000000 0.000000 0.000000 0.000000 0.000000 0.000000 0.000000 0.000000 0.000000 0.000000 0.000000 0.000000 0.000000 0.000000 0.000000 0.000000 0.000000 0.000000 0.000000 0.000000 0.000000 0.000000 0.000000 0.000000 0.000000 0.000000 0.000000 0.000000 0.000000 0.000000 0.000000 0.000000 0.000000 0.000000 0.000000 0.000000 0.000000 0.000000 0.000000 0.000000 0.000000 0.000000 0.000000 0.000000 0.000000 0.000000 0.000000 0.000000 0.000000 0.000000 0.000000 0.000000 0.000000 0.000000 0.000000 0.000000 0.000000 0.000000 0.000000 0.000000 0.000000 0.000000 0.000000 0.000000 0.000000 0.000000 0.000000 0.000000 0.000000 0.000000 0.000000 0.000000 0.000000 0.000000 0.000000 0.000000 0.000000 0.000000 0.000000 0.000000 0.000000 0.000000 0.000000 0.000000 0.000000 0.000000 0.000000 0.000000 0.000000 0.000000 0.000000 0.000000 0.000000 0.000000 0.000000 0.000000 0.000000 0.000000 0.000000 0.000000 0.000000 0.000000 0.000000 0.000000 0.000000 0.000000 0.000000 0.000000 0.000000 0.000000 0.000000 0.000000 0.000000 0.000000 0.000000 0.000000 0.000000 0.000000 0.000000 0.000000 0.000000 0.000000 0.000000 0.000000 0.000000 0.000000 0.000000 0.000000 0.000000 0.000000 0.000000 0.000000 0.000000 0.000000 0.000000 0.000000 0.000000 0.000000 0.000000 0.000000 0.000000 0.000000 0.000000
0.000000 0.000000 0.000000 0.000000 0.000000 0.000000 0.000000 0.000000 0.000000 0.000000 0.000000 0.000000 0.000000 0.000000 0.000000 0.000000 0.000000 0.000000 0.000000 0.000000 0.000000 0.000000 0.000000 0.000000 0.000000 0.000000 0.000000 0.000000 0.000000 0.000000 0.000000 0.000000 0.000000 0.000000 0.000000 0.000000 0.000000 0.000000 0.000000 0.000000 0.000000 0.000000 0.000000 0.000000 0.000000 0.000000 0.000000 0.000000 0.000000 0.000000 0.000000 0.000000 0.000000 0.000000 0.000000 0.000000 0.000000 0.000000 0.000000 0.000000 0.000000 0.000000 0.000000 0.000000 0.000000 0.000000 0.000000 0.000000 0.000000 0.000000 0.000000 0.000000 0.000000 0.000000 0.000000 0.000000 0.000000 0.000000 0.000000 0.000000 0.000000 0.000000 0.000000 0.000000 0.000000 0.000000 0.000000 0.000000 0.000000 0.000000 0.000000 0.000000 0.000000 0.000000 0.000000 0.000000 0.000000 0.000000 0.000000 0.000000 0.000000 0.000000 0.000000 0.000000 0.000000 0.000000 0.000000 0.000000 0.000000 0.000000 0.000000 0.000000 0.000000 0.000000 0.000000 0.000000 0.000000 0.000000 0.000000 0.000000 0.000000 0.000000 0.000000 0.000000 0.000000 0.000000 0.000000 0.000000 0.000000 0.000000 0.000000 0.000000 0.000000 0.000000 0.000000 0.000000 0.000000 0.000000 0.000000 0.000000 0.000000 0.000000 0.000000 0.000000 0.000000 0.000000 0.000000 0.000000 0.000000 0.000000 0.000000 0.000000 0.000000 0.000000 0.000000 0.000000 0.000000 0.000000 0.000000 0.000000 0.000000 0.000000 0.000000 0.000000 0.000000 0.000000 0.000000 0.000000 0.000000 0.000000 0.000000 0.000000 0.000000 0.000000 0.000000 0.000000 0.000000 0.000000 0.000000 0.000000 0.000000 0.000000 0.000000 0.000000 0.000000 0.000000 0.000000 0.000000 0.000000 0.000000 0.000000 0.000000 0.000000 0.000000 0.000000 0.000000 0.000000 0.000000 0.000000 0.000000
0.000000 0.000000 0.000000 0.000000 0.000000 0.000000 0.000000 0.000000 0.000000 0.000000 0.000000 0.000000 0.000000 0.000000 0.000000 0.000000 0.000000 0.000000 0.000000 0.000000 0.000000 0.000000 0.000000 0.000000 0.000000 0.000000 0.000000 0.000000 0.000000 0.000000 0.000000 0.000000 0.000000 0.000000 0.000000 0.000000 0.000000 0.000000 0.000000 0.000000 0.000000 0.000000 0.000000 0.000000 0.000000 0.000000 0.000000 0.000000 0.000000 0.000000 0.000000 0.000000 0.000000 0.000000 0.000000 0.000000 0.000000 0.000000 0.000000 0.000000 0.000000 0.000000 0.000000 0.000000 0.000000 0.000000 0.000000 0.000000 0.000000 0.000000 0.000000 0.000000 0.000000 0.000000 0.000000 0.000000 0.000000 0.000000 0.000000 0.000000 0.000000 0.000000 0.000000 0.000000 0.000000 0.000000 0.000000 0.000000 0.000000 0.000000 0.000000 0.000000 0.000000 0.000000 0.000000 0.000000 0.000000 0.000000 0.000000 0.000000 0.000000 0.000000 0.000000 0.000000 0.000000 0.000000 0.000000 0.000000 0.000000 0.000000 0.000000 0.000000 0.000000 0.000000 0.000000 0.000000 0.000000 0.000000 0.000000 0.000000 0.000000 0.000000 0.000000 0.000000 0.000000 0.000000 0.000000 0.000000 0.000000 0.000000 0.000000 0.000000 0.000000 0.000000 0.000000 0.000000 0.000000 0.000000 0.000000 0.000000 0.000000 0.000000 0.000000 0.000000 0.000000 0.000000 0.000000 0.000000 0.000000 0.000000 0.000000 0.000000 0.000000 0.000000 0.000000 0.000000 0.000000 0.000000 0.000000 0.000000 0.000000 0.000000 0.000000 0.000000 0.000000 0.000000 0.000000 0.000000 0.000000 0.000000 0.000000 0.000000 0.000000 0.000000 0.000000 0.000000 0.000000 0.000000 0.000000 0.000000 0.000000 0.000000 0.000000 0.000000 0.000000 0.000000 0.000000 0.000000 0.000000 0.000000 0.000000 0.000000 0.000000 0.000000 0.000000 0.000000 0.000000 0.000000 0.000000 0.000000
0.000000 0.000000 0.000000 0.000000 0.000000 0.000000 0.000000 0.000000 0.000000 0.000000 0.000000 0.000000 0.000000 0.000000 0.000000 0.000000 0.000000 0.000000 0.000000 0.000000 0.000000 0.000000 0.000000 0.000000 0.000000 0.000000 0.000000 0.000000 0.000000 0.000000 0.000000 0.000000 0.000000 0.000000 0.000000 0.000000 0.000000 0.000000 0.000000 0.000000 0.000000 0.000000 0.000000 0.000000 0.000000 0.000000 0.000000 0.000000 0.000000 0.000000 0.000000 0.000000 0.000000 0.000000 0.000000 0.000000 0.000000 0.000000 0.000000 0.000000 0.000000 0.000000 0.000000 0.000000 0.000000 0.000000 0.000000 0.000000 0.000000 0.000000 0.000000 0.000000 0.000000 0.000000 0.000000 0.000000 0.000000 0.000000 0.000000 0.000000 0.000000 0.000000 0.000000 0.000000 0.000000 0.000000 0.000000 0.000000 0.000000 0.000000 0.000000 0.000000 0.000000 0.000000 0.000000 0.000000 0.000000 0.000000 0.000000 0.000000 0.000000 0.000000 0.000000 0.000000 0.000000 0.000000 0.000000 0.000000 0.000000 0.000000 0.000000 0.000000 0.000000 0.000000 0.000000 0.000000 0.000000 0.000000 0.000000 0.000000 0.000000 0.000000 0.000000 0.000000 0.000000 0.000000 0.000000 0.000000 0.000000 0.000000 0.000000 0.000000 0.000000 0.000000 0.000000 0.000000 0.000000 0.000000 0.000000 0.000000 0.000000 0.000000 0.000000 0.000000 0.000000 0.000000 0.000000 0.000000 0.000000 0.000000 0.000000 0.000000 0.000000 0.000000 0.000000 0.000000 0.000000 0.000000 0.000000 0.000000 0.000000 0.000000 0.000000 0.000000 0.000000 0.000000 0.000000 0.000000 0.000000 0.000000 0.000000 0.000000 0.000000 0.000000 0.000000 0.000000 0.000000 0.000000 0.000000 0.000000 0.000000 0.000000 0.000000 0.000000 0.000000 0.000000 0.000000 0.000000 0.000000 0.000000 0.000000 0.000000 0.000000 0.000000 0.000000 0.000000 0.000000 0.000000 0.000000 0.000000
0.000000 0.000000 0.000000 0.000000 0.000000 0.000000 0.000000 0.000000 0.000000 0.000000 0.000000 0.000000 0.000000 0.000000 0.000000 0.000000 0.000000 0.000000 0.000000 0.000000 0.000000 0.000000 0.000000 0.000000 0.000000 0.000000 0.000000 0.000000 0.000000 0.000000 0.000000 0.000000 0.000000 0.000000 0.000000 0.000000 0.000000 0.000000 0.000000 0.000000 0.000000 0.000000 0.000000 0.000000 0.000000 0.000000 0.000000 0.000000 0.000000 0.000000 0.000000 0.000000 0.000000 0.000000 0.000000 0.000000 0.000000 0.000000 0.000000 0.000000 0.000000 0.000000 0.000000 0.000000 0.000000 0.000000 0.000000 0.000000 0.000000 0.000000 0.000000 0.000000 0.000000 0.000000 0.000000 0.000000 0.000000 0.000000 0.000000 0.000000 0.000000 0.000000 0.000000 0.000000 0.000000 0.000000 0.000000 0.000000 0.000000 0.000000 0.000000 0.000000 0.000000 0.000000 0.000000 0.000000 0.000000 0.000000 0.000000 0.000000 0.000000 0.000000 0.000000 0.000000 0.000000 0.000000 0.000000 0.000000 0.000000 0.000000 0.000000 0.000000 0.000000 0.000000 0.000000 0.000000 0.000000 0.000000 0.000000 0.000000 0.000000 0.000000 0.000000 0.000000 0.000000 0.000000 0.000000 0.000000 0.000000 0.000000 0.000000 0.000000 0.000000 0.000000 0.000000 0.000000 0.000000 0.000000 0.000000 0.000000 0.000000 0.000000 0.000000 0.000000 0.000000 0.000000 0.000000 0.000000 0.000000 0.000000 0.000000 0.000000 0.000000 0.000000 0.000000 0.000000 0.000000 0.000000 0.000000 0.000000 0.000000 0.000000 0.000000 0.000000 0.000000 0.000000 0.000000 0.000000 0.000000 0.000000 0.000000 0.000000 0.000000 0.000000 0.000000 0.000000 0.000000 0.000000 0.000000 0.000000 0.000000 0.000000 0.000000 0.000000 0.000000 0.000000 0.000000 0.000000 0.000000 0.000000 0.000000 0.000000 0.000000 0.000000 0.000000 0.000000 0.000000 0.000000 0.000000 0.000000
0.000000 0.000000 0.000000 0.000000 0.000000 0.000000 0.000000 0.000000 0.000000 0.000000 0.000000 0.000000 0.000000 0.000000 0.000000 0.000000 0.000000 0.000000 0.000000 0.000000 0.000000 0.000000 0.000000 0.000000 0.000000 0.000000 0.000000 0.000000 0.000000 0.000000 0.000000 0.000000 0.000000 0.000000 0.000000 0.000000 0.000000 0.000000 0.000000 0.000000 0.000000 0.000000 0.000000 0.000000 0.000000 0.000000 0.000000 0.000000 0.000000 0.000000 0.000000 0.000000 0.000000 0.000000 0.000000 0.000000 0.000000 0.000000 0.000000 0.000000 0.000000 0.000000 0.000000 0.000000 0.000000 0.000000 0.000000 0.000000 0.000000 0.000000 0.000000 0.000000 0.000000 0.000000 0.000000 0.000000 0.000000 0.000000 0.000000 0.000000 0.000000 0.000000 0.000000 0.000000 0.000000 0.000000 0.000000 0.000000 0.000000 0.000000 0.000000 0.000000 0.000000 0.000000 0.000000 0.000000 0.000000 0.000000 0.000000 0.000000 0.000000 0.000000 0.000000 0.000000 0.000000 0.000000 0.000000 0.000000 0.000000 0.000000 0.000000 0.000000 0.000000 0.000000 0.000000 0.000000 0.000000 0.000000 0.000000 0.000000 0.000000 0.000000 0.000000 0.000000 0.000000 0.000000 0.000000 0.000000 0.000000 0.000000 0.000000 0.000000 0.000000 0.000000 0.000000 0.000000 0.000000 0.000000 0.000000 0.000000 0.000000 0.000000 0.000000 0.000000 0.000000 0.000000 0.000000 0.000000 0.000000 0.000000 0.000000 0.000000 0.000000 0.000000 0.000000 0.000000 0.000000 0.000000 0.000000 0.000000 0.000000 0.000000 0.000000 0.000000 0.000000 0.000000 0.000000 0.000000 0.000000 0.000000 0.000000 0.000000 0.000000 0.000000 0.000000 0.000000 0.000000 0.000000 0.000000 0.000000 0.000000 0.000000 0.000000 0.000000 0.000000 0.000000 0.000000 0.000000 0.000000 0.000000 0.000000 0.000000 0.000000 0.000000 0.000000 0.000000 0.000000 0.000000 0.000000 0.000000
0.000000 0.000000 0.000000 0.000000 0.000000 0.000000 0.000000 0.000000 0.000000 0.000000 0.000000 0.000000 0.000000 0.000000 0.000000 0.000000 0.000000 0.000000 0.000000 0.000000 0.000000 0.000000 0.000000 0.000000 0.000000 0.000000 0.000000 0.000000 0.000000 0.000000 0.000000 0.000000 0.000000 0.000000 0.000000 0.000000 0.000000 0.000000 0.000000 0.000000 0.000000 0.000000 0.000000 0.000000 0.000000 0.000000 0.000000 0.000000 0.000000 0.000000 0.000000 0.000000 0.000000 0.000000 0.000000 0.000000 0.000000 0.000000 0.000000 0.000000 0.000000 0.000000 0.000000 0.000000 0.000000 0.000000 0.000000 0.000000 0.000000 0.000000 0.000000 0.000000 0.000000 0.000000 0.000000 0.000000 0.000000 0.000000 0.000000 0.000000 0.000000 0.000000 0.000000 0.000000 0.000000 0.000000 0.000000 0.000000 0.000000 0.000000 0.000000 0.000000 0.000000 0.000000 0.000000 0.000000 0.000000 0.000000 0.000000 0.000000 0.000000 0.000000 0.000000 0.000000 0.000000 0.000000 0.000000 0.000000 0.000000 0.000000 0.000000 0.000000 0.000000 0.000000 0.000000 0.000000 0.000000 0.000000 0.000000 0.000000 0.000000 0.000000 0.000000 0.000000 0.000000 0.000000 0.000000 0.000000 0.000000 0.000000 0.000000 0.000000 0.000000 0.000000 0.000000 0.000000 0.000000 0.000000 0.000000 0.000000 0.000000 0.000000 0.000000 0.000000 0.000000 0.000000 0.000000 0.000000 0.000000 0.000000 0.000000 0.000000 0.000000 0.000000 0.000000 0.000000 0.000000 0.000000 0.000000 0.000000 0.000000 0.000000 0.000000 0.000000 0.000000 0.000000 0.000000 0.000000 0.000000 0.000000 0.000000 0.000000 0.000000 0.000000 0.000000 0.000000 0.000000 0.000000 0.000000 0.000000 0.000000 0.000000 0.000000 0.000000 0.000000 0.000000 0.000000 0.000000 0.000000 0.000000 0.000000 0.000000 0.000000 0.000000 0.000000 0.000000 0.000000 0.000000 0.000000 0.000000
0.000000 0.000000 0.000000 0.000000 0.000000 0.000000 0.000000 0.000000 0.000000 0.000000 0.000000 0.000000 0.000000 0.000000 0.000000 0.000000 0.000000 0.000000 0.000000 0.000000 0.000000 0.000000 0.000000 0.000000 0.000000 0.000000 0.000000 0.000000 0.000000 0.000000 0.000000 0.000000 0.000000 0.000000 0.000000 0.000000 0.000000 0.000000 0.000000 0.000000 0.000000 0.000000 0.000000 0.000000 0.000000 0.000000 0.000000 0.000000 0.000000 0.000000 0.000000 0.000000 0.000000 0.000000 0.000000 0.000000 0.000000 0.000000 0.000000 0.000000 0.000000 0.000000 0.000000 0.000000 0.000000 0.000000 0.000000 0.000000 0.000000 0.000000 0.000000 0.000000 0.000000 0.000000 0.000000 0.000000 0.000000 0.000000 0.000000 0.000000 0.000000 0.000000 0.000000 0.000000 0.000000 0.000000 0.000000 0.000000 0.000000 0.000000 0.000000 0.000000 0.000000 0.000000 0.000000 0.000000 0.000000 0.000000 0.000000 0.000000 0.000000 0.000000 0.000000 0.000000 0.000000 0.000000 0.000000 0.000000 0.000000 0.000000 0.000000 0.000000 0.000000 0.000000 0.000000 0.000000 0.000000 0.000000 0.000000 0.000000 0.000000 0.000000 0.000000 0.000000 0.000000 0.000000 0.000000 0.000000 0.000000 0.000000 0.000000 0.000000 0.000000 0.000000 0.000000 0.000000 0.000000 0.000000 0.000000 0.000000 0.000000 0.000000 0.000000 0.000000 0.000000 0.000000 0.000000 0.000000 0.000000 0.000000 0.000000 0.000000 0.000000 0.000000 0.000000 0.000000 0.000000 0.000000 0.000000 0.000000 0.000000 0.000000 0.000000 0.000000 0.000000 0.000000 0.000000 0.000000 0.000000 0.000000 0.000000 0.000000 0.000000 0.000000 0.000000 0.000000 0.000000 0.000000 0.000000 0.000000 0.000000 0.000000 0.000000 0.000000 0.000000 0.000000 0.000000 0.000000 0.000000 0.000000 0.000000 0.000000 0.000000 0.000000 0.000000 0.000000 0.000000 0.000000 0.000000 0.000000
0.000000 0.000000 0.000000 0.000000 0.000000 0.000000 0.000000 0.000000 0.000000 0.000000 0.000000 0.000000 0.000000 0.000000 0.000000 0.000000 0.000000 0.000000 0.000000 0.000000 0.000000 0.000000 0.000000 0.000000 0.000000 0.000000 0.000000 0.000000 0.000000 0.000000 0.000000 0.000000 0.000000 0.000000 0.000000 0.000000 0.000000 0.000000 0.000000 0.000000 0.000000 0.000000 0.000000 0.000000 0.000000 0.000000 0.000000 0.000000 0.000000 0.000000 0.000000 0.000000 0.000000 0.000000 0.000000 0.000000 0.000000 0.000000 0.000000 0.000000 0.000000 0.000000 0.000000 0.000000 0.000000 0.000000 0.000000 0.000000 0.000000 0.000000 0.000000 0.000000 0.000000 0.000000 0.000000 0.000000 0.000000 0.000000 0.000000 0.000000 0.000000 0.000000 0.000000 0.000000 0.000000 0.000000 0.000000 0.000000 0.000000 0.000000 0.000000 0.000000 0.000000 0.000000 0.000000 0.000000 0.000000 0.000000 0.000000 0.000000 0.000000 0.000000 0.000000 0.000000 0.000000 0.000000 0.000000 0.000000 0.000000 0.000000 0.000000 0.000000 0.000000 0.000000 0.000000 0.000000 0.000000 0.000000 0.000000 0.000000 0.000000 0.000000 0.000000 0.000000 0.000000 0.000000 0.000000 0.000000 0.000000 0.000000 0.000000 0.000000 0.000000 0.000000 0.000000 0.000000 0.000000 0.000000 0.000000 0.000000 0.000000 0.000000 0.000000 0.000000 0.000000 0.000000 0.000000 0.000000 0.000000 0.000000 0.000000 0.000000 0.000000 0.000000 0.000000 0.000000 0.000000 0.000000 0.000000 0.000000 0.000000 0.000000 0.000000 0.000000 0.000000 0.000000 0.000000 0.000000 0.000000 0.000000 0.000000 0.000000 0.000000 0.000000 0.000000 0.000000 0.000000 0.000000 0.000000 0.000000 0.000000 0.000000 0.000000 0.000000 0.000000 0.000000 0.000000 0.000000 0.000000 0.000000 0.000000 0.000000 0.000000 0.000000 0.000000 0.000000 0.000000 0.000000 0.000000 0.000000
0.000000 0.000000 0.000000 0.000000 0.000000 0.000000 0.000000 0.000000 0.000000 0.000000 0.000000 0.000000 0.000000 0.000000 0.000000 0.000000 0.000000 0.000000 0.000000 0.000000 0.000000 0.000000 0.000000 0.000000 0.000000 0.000000 0.000000 0.000000 0.000000 0.000000 0.000000 0.000000 0.000000 0.000000 0.000000 0.000000 0.000000 0.000000 0.000000 0.000000 0.000000 0.000000 0.000000 0.000000 0.000000 0.000000 0.000000 0.000000 0.000000 0.000000 0.000000 0.000000 0.000000 0.000000 0.000000 0.000000 0.000000 0.000000 0.000000 0.000000 0.000000 0.000000 0.000000 0.000000 0.000000 0.000000 0.000000 0.000000 0.000000 0.000000 0.000000 0.000000 0.000000 0.000000 0.000000 0.000000 0.000000 0.000000 0.000000 0.000000 0.000000 0.000000 0.000000 0.000000 0.000000 0.000000 0.000000 0.000000 0.000000 0.000000 0.000000 0.000000 0.000000 0.000000 0.000000 0.000000 0.000000 0.000000 0.000000 0.000000 0.000000 0.000000 0.000000 0.000000 0.000000 0.000000 0.000000 0.000000 0.000000 0.000000 0.000000 0.000000 0.000000 0.000000 0.000000 0.000000 0.000000 0.000000 0.000000 0.000000 0.000000 0.000000 0.000000 0.000000 0.000000 0.000000 0.000000 0.000000 0.000000 0.000000 0.000000 0.000000 0.000000 0.000000 0.000000 0.000000 0.000000 0.000000 0.000000 0.000000 0.000000 0.000000 0.000000 0.000000 0.000000 0.000000 0.000000 0.000000 0.000000 0.000000 0.000000 0.000000 0.000000 0.000000 0.000000 0.000000 0.000000 0.000000 0.000000 0.000000 0.000000 0.000000 0.000000 0.000000 0.000000 0.000000 0.000000 0.000000 0.000000 0.000000 0.000000 0.000000 0.000000 0.000000 0.000000 0.000000 0.000000 0.000000 0.000000 0.000000 0.000000 0.000000 0.000000 0.000000 0.000000 0.000000 0.000000 0.000000 0.000000 0.000000 0.000000 0.000000 0.000000 0.000000 0.000000 0.000000 0.000000 0.000000 0.000000 0.000000
0.000000 0.000000 0.000000 0.000000 0.000000 0.000000 0.000000 0.000000 0.000000 0.000000 0.000000 0.000000 0.000000 0.000000 0.000000 0.000000 0.000000 0.000000 0.000000 0.000000 0.000000 0.000000 0.000000 0.000000 0.000000 0.000000 0.000000 0.000000 0.000000 0.000000 0.000000 0.000000 0.000000 0.000000 0.000000 0.000000 0.000000 0.000000 0.000000 0.000000 0.000000 0.000000 0.000000 0.000000 0.000000 0.000000 0.000000 0.000000 0.000000 0.000000 0.000000 0.000000 0.000000 0.000000 0.000000 0.000000 0.000000 0.000000 0.000000 0.000000 0.000000 0.000000 0.000000 0.000000 0.000000 0.000000 0.000000 0.000000 0.000000 0.000000 0.000000 0.000000 0.000000 0.000000 0.000000 0.000000 0.000000 0.000000 0.000000 0.000000 0.000000 0.000000 0.000000 0.000000 0.000000 0.000000 0.000000 0.000000 0.000000 0.000000 0.000000 0.000000 0.000000 0.000000 0.000000 0.000000 0.000000 0.000000 0.000000 0.000000 0.000000 0.000000 0.000000 0.000000 0.000000 0.000000 0.000000 0.000000 0.000000 0.000000 0.000000 0.000000 0.000000 0.000000 0.000000 0.000000 0.000000 0.000000 0.000000 0.000000 0.000000 0.000000 0.000000 0.000000 0.000000 0.000000 0.000000 0.000000 0.000000 0.000000 0.000000 0.000000 0.000000 0.000000 0.000000 0.000000 0.000000 0.000000 0.000000 0.000000 0.000000 0.000000 0.000000 0.000000 0.000000 0.000000 0.000000 0.000000 0.000000 0.000000 0.000000 0.000000 0.000000 0.000000 0.000000 0.000000 0.000000 0.000000 0.000000 0.000000 0.000000 0.000000 0.000000 0.000000 0.000000 0.000000 0.000000 0.000000 0.000000 0.000000 0.000000 0.000000 0.000000 0.000000 0.000000 0.000000 0.000000 0.000000 0.000000 0.000000 0.000000 0.000000 0.000000 0.000000 0.000000 0.000000 0.000000 0.000000 0.000000 0.000000 0.000000 0.000000 0.000000 0.000000 0.000000 0.000000 0.000000 0.000000 0.000000 0.000000
0.000000 0.000000 0.000000 0.000000 0.000000 0.000000 0.000000 0.000000 0.000000 0.000000 0.000000 0.000000 0.000000 0.000000 0.000000 0.000000 0.000000 0.000000 0.000000 0.000000 0.000000 0.000000 0.000000 0.000000 0.000000 0.000000 0.000000 0.000000 0.000000 0.000000 0.000000 0.000000 0.000000 0.000000 0.000000 0.000000 0.000000 0.000000 0.000000 0.000000 0.000000 0.000000 0.000000 0.000000 0.000000 0.000000 0.000000 0.000000 0.000000 0.000000 0.000000 0.000000 0.000000 0.000000 0.000000 0.000000 0.000000 0.000000 0.000000 0.000000 0.000000 0.000000 0.000000 0.000000 0.000000 0.000000 0.000000 0.000000 0.000000 0.000000 0.000000 0.000000 0.000000 0.000000 0.000000 0.000000 0.000000 0.000000 0.000000 0.000000 0.000000 0.000000 0.000000 0.000000 0.000000 0.000000 0.000000 0.000000 0.000000 0.000000 0.000000 0.000000 0.000000 0.000000 0.000000 0.000000 0.000000 0.000000 0.000000 0.000000 0.000000 0.000000 0.000000 0.000000 0.000000 0.000000 0.000000 0.000000 0.000000 0.000000 0.000000 0.000000 0.000000 0.000000 0.000000 0.000000 0.000000 0.000000 0.000000 0.000000 0.000000 0.000000 0.000000 0.000000 0.000000 0.000000 0.000000 0.000000 0.000000 0.000000 0.000000 0.000000 0.000000 0.000000 0.000000 0.000000 0.000000 0.000000 0.000000 0.000000 0.000000 0.000000 0.000000 0.000000 0.000000 0.000000 0.000000 0.000000 0.000000 0.000000 0.000000 0.000000 0.000000 0.000000 0.000000 0.000000 0.000000 0.000000 0.000000 0.000000 0.000000 0.000000 0.000000 0.000000 0.000000 0.000000 0.000000 0.000000 0.000000 0.000000 0.000000 0.000000 0.000000 0.000000 0.000000 0.000000 0.000000 0.000000 0.000000 0.000000 0.000000 0.000000 0.000000 0.000000 0.000000 0.000000 0.000000 0.000000 0.000000 0.000000 0.000000 0.000000 0.000000 0.000000 0.000000 0.000000 0.000000 0.000000 0.000000 0.000000
0.000000 0.000000 0.000000 0.000000 0.000000 0.000000 0.000000 0.000000 0.000000 0.000000 0.000000 0.000000 0.000000 0.000000 0.000000 0.000000 0.000000 0.000000 0.000000 0.000000 0.000000 0.000000 0.000000 0.000000 0.000000 0.000000 0.000000 0.000000 0.000000 0.000000 0.000000 0.000000 0.000000 0.000000 0.000000 0.000000 0.000000 0.000000 0.000000 0.000000 0.000000 0.000000 0.000000 0.000000 0.000000 0.000000 0.000000 0.000000 0.000000 0.000000 0.000000 0.000000 0.000000 0.000000 0.000000 0.000000 0.000000 0.000000 0.000000 0.000000 0.000000 0.000000 0.000000 0.000000 0.000000 0.000000 0.000000 0.000000 0.000000 0.000000 0.000000 0.000000 0.000000 0.000000 0.000000 0.000000 0.000000 0.000000 0.000000 0.000000 0.000000 0.000000 0.000000 0.000000 0.000000 0.000000 0.000000 0.000000 0.000000 0.000000 0.000000 0.000000 0.000000 0.000000 0.000000 0.000000 0.000000 0.000000 0.000000 0.000000 0.000000 0.000000 0.000000 0.000000 0.000000 0.000000 0.000000 0.000000 0.000000 0.000000 0.000000 0.000000 0.000000 0.000000 0.000000 0.000000 0.000000 0.000000 0.000000 0.000000 0.000000 0.000000 0.000000 0.000000 0.000000 0.000000 0.000000 0.000000 0.000000 0.000000 0.000000 0.000000 0.000000 0.000000 0.000000 0.000000 0.000000 0.000000 0.000000 0.000000 0.000000 0.000000 0.000000 0.000000 0.000000 0.000000 0.000000 0.000000 0.000000 0.000000 0.000000 0.000000 0.000000 0.000000 0.000000 0.000000 0.000000 0.000000 0.000000 0.000000 0.000000 0.000000 0.000000 0.000000 0.000000 0.000000 0.000000 0.000000 0.000000 0.000000 0.000000 0.000000 0.000000 0.000000 0.000000 0.000000 0.000000 0.000000 0.000000 0.000000 0.000000 0.000000 0.000000 0.000000 0.000000 0.000000 0.000000 0.000000 0.000000 0.000000 0.000000 0.000000 0.000000 0.000000 0.000000 0.000000 0.000000 0.000000 0.000000 0.000000
0.000000 0.000000 0.000000 0.000000 0.000000 0.000000 0.000000 0.000000 0.000000 0.000000 0.000000 0.000000 0.000000 0.000000 0.000000 0.000000 0.000000 0.000000 0.000000 0.000000 0.000000 0.000000 0.000000 0.000000 0.000000 0.000000 0.000000 0.000000 0.000000 0.000000 0.000000 0.000000 0.000000 0.000000 0.000000 0.000000 0.000000 0.000000 0.000000 0.000000 0.000000 0.000000 0.000000 0.000000 0.000000 0.000000 0.000000 0.000000 0.000000 0.000000 0.000000 0.000000 0.000000 0.000000 0.000000 0.000000 0.000000 0.000000 0.000000 0.000000 0.000000 0.000000 0.000000 0.000000 0.000000 0.000000 0.000000 0.000000 0.000000 0.000000 0.000000 0.000000 0.000000 0.000000 0.000000 0.000000 0.000000 0.000000 0.000000 0.000000 0.000000 0.000000 0.000000 0.000000 0.000000 0.000000 0.000000 0.000000 0.000000 0.000000 0.000000 0.000000 0.000000 0.000000 0.000000 0.000000 0.000000 0.000000 0.000000 0.000000 0.000000 0.000000 0.000000 0.000000 0.000000 0.000000 0.000000 0.000000 0.000000 0.000000 0.000000 0.000000 0.000000 0.000000 0.000000 0.000000 0.000000 0.000000 0.000000 0.000000 0.000000 0.000000 0.000000 0.000000 0.000000 0.000000 0.000000 0.000000 0.000000 0.000000 0.000000 0.000000 0.000000 0.000000 0.000000 0.000000 0.000000 0.000000 0.000000 0.000000 0.000000 0.000000 0.000000 0.000000 0.000000 0.000000 0.000000 0.000000 0.000000 0.000000 0.000000 0.000000 0.000000 0.000000 0.000000 0.000000 0.000000 0.000000 0.000000 0.000000 0.000000 0.000000 0.000000 0.000000 0.000000 0.000000 0.000000 0.000000 0.000000 0.000000 0.000000 0.000000 0.000000 0.000000 0.000000 0.000000 0.000000 0.000000 0.000000 0.000000 0.000000 0.000000 0.000000 0.000000 0.000000 0.000000 0.000000 0.000000 0.000000 0.000000 0.000000 0.000000 0.000000 0.000000 0.000000 0.000000 0.000000 0.000000 0.000000 0.000000
0.000000 0.000000 0.000000 0.000000 0.000000 0.000000 0.000000 0.000000 0.000000 0.000000 0.000000 0.000000 0.000000 0.000000 0.000000 0.000000 0.000000 0.000000 0.000000 0.000000 0.000000 0.000000 0.000000 0.000000 0.000000 0.000000 0.000000 0.000000 0.000000 0.000000 0.000000 0.000000 0.000000 0.000000 0.000000 0.000000 0.000000 0.000000 0.000000 0.000000 0.000000 0.000000 0.000000 0.000000 0.000000 0.000000 0.000000 0.000000 0.000000 0.000000 0.000000 0.000000 0.000000 0.000000 0.000000 0.000000 0.000000 0.000000 0.000000 0.000000 0.000000 0.000000 0.000000 0.000000 0.000000 0.000000 0.000000 0.000000 0.000000 0.000000 0.000000 0.000000 0.000000 0.000000 0.000000 0.000000 0.000000 0.000000 0.000000 0.000000 0.000000 0.000000 0.000000 0.000000 0.000000 0.000000 0.000000 0.000000 0.000000 0.000000 0.000000 0.000000 0.000000 0.000000 0.000000 0.000000 0.000000 0.000000 0.000000 0.000000 0.000000 0.000000 0.000000 0.000000 0.000000 0.000000 0.000000 0.000000 0.000000 0.000000 0.000000 0.000000 0.000000 0.000000 0.000000 0.000000 0.000000 0.000000 0.000000 0.000000 0.000000 0.000000 0.000000 0.000000 0.000000 0.000000 0.000000 0.000000 0.000000 0.000000 0.000000 0.000000 0.000000 0.000000 0.000000 0.000000 0.000000 0.000000 0.000000 0.000000 0.000000 0.000000 0.000000 0.000000 0.000000 0.000000 0.000000 0.000000 0.000000 0.000000 0.000000 0.000000 0.000000 0.000000 0.000000 0.000000 0.000000 0.000000 0.000000 0.000000 0.000000 0.000000 0.000000 0.000000 0.000000 0.000000 0.000000 0.000000 0.000000 0.000000 0.000000 0.000000 0.000000 0.000000 0.000000 0.000000 0.000000 0.000000 0.000000 0.000000 0.000000 0.000000 0.000000 0.000000 0.000000 0.000000 0.000000 0.000000 0.000000 0.000000 0.000000 0.000000 0.000000 0.000000 0.000000 0.000000 0.000000 0.000000 0.000000 0.000000
0.000000 0.000000 0.000000 0.000000 0.000000 0.000000 0.000000 0.000000 0.000000 0.000000 0.000000 0.000000 0.000000 0.000000 0.000000 0.000000 0.000000 0.000000 0.000000 0.000000 0.000000 0.000000 0.000000 0.000000 0.000000 0.000000 0.000000 0.000000 0.000000 0.000000 0.000000 0.000000 0.000000 0.000000 0.000000 0.000000 0.000000 0.000000 0.000000 0.000000 0.000000 0.000000 0.000000 0.000000 0.000000 0.000000 0.000000 0.000000 0.000000 0.000000 0.000000 0.000000 0.000000 0.000000 0.000000 0.000000 0.000000 0.000000 0.000000 0.000000 0.000000 0.000000 0.000000 0.000000 0.000000 0.000000 0.000000 0.000000 0.000000 0.000000 0.000000 0.000000 0.000000 0.000000 0.000000 0.000000 0.000000 0.000000 0.000000 0.000000 0.000000 0.000000 0.000000 0.000000 0.000000 0.000000 0.000000 0.000000 0.000000 0.000000 0.000000 0.000000 0.000000 0.000000 0.000000 0.000000 0.000000 0.000000 0.000000 0.000000 0.000000 0.000000 0.000000 0.000000 0.000000 0.000000 0.000000 0.000000 0.000000 0.000000 0.000000 0.000000 0.000000 0.000000 0.000000 0.000000 0.000000 0.000000 0.000000 0.000000 0.000000 0.000000 0.000000 0.000000 0.000000 0.000000 0.000000 0.000000 0.000000 0.000000 0.000000 0.000000 0.000000 0.000000 0.000000 0.000000 0.000000 0.000000 0.000000 0.000000 0.000000 0.000000 0.000000 0.000000 0.000000 0.000000 0.000000 0.000000 0.000000 0.000000 0.000000 0.000000 0.000000 0.000000 0.000000 0.000000 0.000000 0.000000 0.000000 0.000000 0.000000 0.000000 0.000000 0.000000 0.000000 0.000000 0.000000 0.000000 0.000000 0.000000 0.000000 0.000000 0.000000 0.000000 0.000000 0.000000 0.000000 0.000000 0.000000 0.000000 0.000000 0.000000 0.000000 0.000000 0.000000 0.000000 0.000000 0.000000 0.000000 0.000000 0.000000 0.000000 0.000000 0.000000 0.000000 0.000000 0.000000 0.000000 0.000000 0.000000
0.000000 0.000000 0.000000 0.000000 0.000000 0.000000 0.000000 0.000000 0.000000 0.000000 0.000000 0.000000 0.000000 0.000000 0.000000 0.000000 0.000000 0.000000 0.000000 0.000000 0.000000 0.000000 0.000000 0.000000 0.000000 0.000000 0.000000 0.000000 0.000000 0.000000 0.000000 0.000000 0.000000 0.000000 0.000000 0.000000 0.000000 0.000000 0.000000 0.000000 0.000000 0.000000 0.000000 0.000000 0.000000 0.000000 0.000000 0.000000 0.000000 0.000000 0.000000 0.000000 0.000000 0.000000 0.000000 0.000000 0.000000 0.000000 0.000000 0.000000 0.000000 0.000000 0.000000 0.000000 0.000000 0.000000 0.000000 0.000000 0.000000 0.000000 0.000000 0.000000 0.000000 0.000000 0.000000 0.000000 0.000000 0.000000 0.000000 0.000000 0.000000 0.000000 0.000000 0.000000 0.000000 0.000000 0.000000 0.000000 0.000000 0.000000 0.000000 0.000000 0.000000 0.000000 0.000000 0.000000 0.000000 0.000000 0.000000 0.000000 0.000000 0.000000 0.000000 0.000000 0.000000 0.000000 0.000000 0.000000 0.000000 0.000000 0.000000 0.000000 0.000000 0.000000 0.000000 0.000000 0.000000 0.000000 0.000000 0.000000 0.000000 0.000000 0.000000 0.000000 0.000000 0.000000 0.000000 0.000000 0.000000 0.000000 0.000000 0.000000 0.000000 0.000000 0.000000 0.000000 0.000000 0.000000 0.000000 0.000000 0.000000 0.000000 0.000000 0.000000 0.000000 0.000000 0.000000 0.000000 0.000000 0.000000 0.000000 0.000000 0.000000 0.000000 0.000000 0.000000 0.000000 0.000000 0.000000 0.000000 0.000000 0.000000 0.000000 0.000000 0.000000 0.000000 0.000000 0.000000 0.000000 0.000000 0.000000 0.000000 0.000000 0.000000 0.000000 0.000000 0.000000 0.000000 0.000000 0.000000 0.000000 0.000000 0.000000 0.000000 0.000000 0.000000 0.000000 0.000000 0.000000 0.000000 0.000000 0.000000 0.000000 0.000000 0.000000 0.000000 0.000000 0.000000 0.000000 0.000000
0.000000 0.000000 0.000000 0.000000 0.000000 0.000000 0.000000 0.000000 0.000000 0.000000 0.000000 0.000000 0.000000 0.000000 0.000000 0.000000 0.000000 0.000000 0.000000 0.000000 0.000000 0.000000 0.000000 0.000000 0.000000 0.000000 0.000000 0.000000 0.000000 0.000000 0.000000 0.000000 0.000000 0.000000 0.000000 0.000000 0.000000 0.000000 0.000000 0.000000 0.000000 0.000000 0.000000 0.000000 0.000000 0.000000 0.000000 0.000000 0.000000 0.000000 0.000000 0.000000 0.000000 0.000000 0.000000 0.000000 0.000000 0.000000 0.000000 0.000000 0.000000 0.000000 0.000000 0.000000 0.000000 0.000000 0.000000 0.000000 0.000000 0.000000 0.000000 0.000000 0.000000 0.000000 0.000000 0.000000 0.000000 0.000000 0.000000 0.000000 0.000000 0.000000 0.000000 0.000000 0.000000 0.000000 0.000000 0.000000 0.000000 0.000000 0.000000 0.000000 0.000000 0.000000 0.000000 0.000000 0.000000 0.000000 0.000000 0.000000 0.000000 0.000000 0.000000 0.000000 0.000000 0.000000 0.000000 0.000000 0.000000 0.000000 0.000000 0.000000 0.000000 0.000000 0.000000 0.000000 0.000000 0.000000 0.000000 0.000000 0.000000 0.000000 0.000000 0.000000 0.000000 0.000000 0.000000 0.000000 0.000000 0.000000 0.000000 0.000000 0.000000 0.000000 0.000000 0.000000 0.000000 0.000000 0.000000 0.000000 0.000000 0.000000 0.000000 0.000000 0.000000 0.000000 0.000000 0.000000 0.000000 0.000000 0.000000 0.000000 0.000000 0.000000 0.000000 0.000000 0.000000 0.000000 0.000000 0.000000 0.000000 0.000000 0.000000 0.000000 0.000000 0.000000 0.000000 0.000000 0.000000 0.000000 0.000000 0.000000 0.000000 0.000000 0.000000 0.000000 0.000000 0.000000 0.000000 0.000000 0.000000 0.000000 0.000000 0.000000 0.000000 0.000000 0.000000 0.000000 0.000000 0.000000 0.000000 0.000000 0.000000 0.000000 0.000000 0.000000 0.000000 0.000000 0.000000 0.000000
0.000000 0.000000 0.000000 0.000000 0.000000 0.000000 0.000000 0.000000 0.000000 0.000000 0.000000 0.000000 0.000000 0.000000 0.000000 0.000000 0.000000 0.000000 0.000000 0.000000 0.000000 0.000000 0.000000 0.000000 0.000000 0.000000 0.000000 0.000000 0.000000 0.000000 0.000000 0.000000 0.000000 0.000000 0.000000 0.000000 0.000000 0.000000 0.000000 0.000000 0.000000 0.000000 0.000000 0.000000 0.000000 0.000000 0.000000 0.000000 0.000000 0.000000 0.000000 0.000000 0.000000 0.000000 0.000000 0.000000 0.000000 0.000000 0.000000 0.000000 0.000000 0.000000 0.000000 0.000000 0.000000 0.000000 0.000000 0.000000 0.000000 0.000000 0.000000 0.000000 0.000000 0.000000 0.000000 0.000000 0.000000 0.000000 0.000000 0.000000 0.000000 0.000000 0.000000 0.000000 0.000000 0.000000 0.000000 0.000000 0.000000 0.000000 0.000000 0.000000 0.000000 0.000000 0.000000 0.000000 0.000000 0.000000 0.000000 0.000000 0.000000 0.000000 0.000000 0.000000 0.000000 0.000000 0.000000 0.000000 0.000000 0.000000 0.000000 0.000000 0.000000 0.000000 0.000000 0.000000 0.000000 0.000000 0.000000 0.000000 0.000000 0.000000 0.000000 0.000000 0.000000 0.000000 0.000000 0.000000 0.000000 0.000000 0.000000 0.000000 0.000000 0.000000 0.000000 0.000000 0.000000 0.000000 0.000000 0.000000 0.000000 0.000000 0.000000 0.000000 0.000000 0.000000 0.000000 0.000000 0.000000 0.000000 0.000000 0.000000 0.000000 0.000000 0.000000 0.000000 0.000000 0.000000 0.000000 0.000000 0.000000 0.000000 0.000000 0.000000 0.000000 0.000000 0.000000 0.000000 0.000000 0.000000 0.000000 0.000000 0.000000 0.000000 0.000000 0.000000 0.000000 0.000000 0.000000 0.000000 0.000000 0.000000 0.000000 0.000000 0.000000 0.000000 0.000000 0.000000 0.000000 0.000000 0.000000 0.000000 0.000000 0.000000 0.000000 0.000000 0.000000 0.000000 0.000000 0.000000
0.000000 0.000000 0.000000 0.000000 0.000000 0.000000 0.000000 0.000000 0.000000 0.000000 0.000000 0.000000 0.000000 0.000000 0.000000 0.000000 0.000000 0.000000 0.000000 0.000000 0.000000 0.000000 0.000000 0.000000 0.000000 0.000000 0.000000 0.000000 0.000000 0.000000 0.000000 0.000000 0.000000 0.000000 0.000000 0.000000 0.000000 0.000000 0.000000 0.000000 0.000000 0.000000 0.000000 0.000000 0.000000 0.000000 0.000000 0.000000 0.000000 0.000000 0.000000 0.000000 0.000000 0.000000 0.000000 0.000000 0.000000 0.000000 0.000000 0.000000 0.000000 0.000000 0.000000 0.000000 0.000000 0.000000 0.000000 0.000000 0.000000 0.000000 0.000000 0.000000 0.000000 0.000000 0.000000 0.000000 0.000000 0.000000 0.000000 0.000000 0.000000 0.000000 0.000000 0.000000 0.000000 0.000000 0.000000 0.000000 0.000000 0.000000 0.000000 0.000000 0.000000 0.000000 0.000000 0.000000 0.000000 0.000000 0.000000 0.000000 0.000000 0.000000 0.000000 0.000000 0.000000 0.000000 0.000000 0.000000 0.000000 0.000000 0.000000 0.000000 0.000000 0.000000 0.000000 0.000000 0.000000 0.000000 0.000000 0.000000 0.000000 0.000000 0.000000 0.000000 0.000000 0.000000 0.000000 0.000000 0.000000 0.000000 0.000000 0.000000 0.000000 0.000000 0.000000 0.000000 0.000000 0.000000 0.000000 0.000000 0.000000 0.000000 0.000000 0.000000 0.000000 0.000000 0.000000 0.000000 0.000000 0.000000 0.000000 0.000000 0.000000 0.000000 0.000000 0.000000 0.000000 0.000000 0.000000 0.000000 0.000000 0.000000 0.000000 0.000000 0.000000 0.000000 0.000000 0.000000 0.000000 0.000000 0.000000 0.000000 0.000000 0.000000 0.000000 0.000000 0.000000 0.000000 0.000000 0.000000 0.000000 0.000000 0.000000 0.000000 0.000000 0.000000 0.000000 0.000000 0.000000 0.000000 0.000000 0.000000 0.000000 0.000000 0.000000 0.000000 0.000000 0.000000 0.000000 0.000000
0.000000 0.000000 0.000000 0.000000 0.000000 0.000000 0.000000 0.000000 0.000000 0.000000 0.000000 0.000000 0.000000 0.000000 0.000000 0.000000 0.000000 0.000000 0.000000 0.000000 0.000000 0.000000 0.000000 0.000000 0.000000 0.000000 0.000000 0.000000 0.000000 0.000000 0.000000 0.000000 0.000000 0.000000 0.000000 0.000000 0.000000 0.000000 0.000000 0.000000 0.000000 0.000000 0.000000 0.000000 0.000000 0.000000 0.000000 0.000000 0.000000 0.000000 0.000000 0.000000 0.000000 0.000000 0.000000 0.000000 0.000000 0.000000 0.000000 0.000000 0.000000 0.000000 0.000000 0.000000 0.000000 0.000000 0.000000 0.000000 0.000000 0.000000 0.000000 0.000000 0.000000 0.000000 0.000000 0.000000 0.000000 0.000000 0.000000 0.000000 0.000000 0.000000 0.000000 0.000000 0.000000 0.000000 0.000000 0.000000 0.000000 0.000000 0.000000 0.000000 0.000000 0.000000 0.000000 0.000000 0.000000 0.000000 0.000000 0.000000 0.000000 0.000000 0.000000 0.000000 0.000000 0.000000 0.000000 0.000000 0.000000 0.000000 0.000000 0.000000 0.000000 0.000000 0.000000 0.000000 0.000000 0.000000 0.000000 0.000000 0.000000 0.000000 0.000000 0.000000 0.000000 0.000000 0.000000 0.000000 0.000000 0.000000 0.000000 0.000000 0.000000 0.000000 0.000000 0.000000 0.000000 0.000000 0.000000 0.000000 0.000000 0.000000 0.000000 0.000000 0.000000 0.000000 0.000000 0.000000 0.000000 0.000000 0.000000 0.000000 0.000000 0.000000 0.000000 0.000000 0.000000 0.000000 0.000000 0.000000 0.000000 0.000000 0.000000 0.000000 0.000000 0.000000 0.000000 0.000000 0.000000 0.000000 0.000000 0.000000 0.000000 0.000000 0.000000 0.000000 0.000000 0.000000 0.000000 0.000000 0.000000 0.000000 0.000000 0.000000 0.000000 0.000000 0.000000 0.000000 0.000000 0.000000 0.000000 0.000000 0.000000 0.000000 0.000000 0.000000 0.000000 0.000000 0.000000 0.000000
0.000000 0.000000 0.000000 0.000000 0.000000 0.000000 0.000000 0.000000 0.000000 0.000000 0.000000 0.000000 0.000000 0.000000 0.000000 0.000000 0.000000 0.000000 0.000000 0.000000 0.000000 0.000000 0.000000 0.000000 0.000000 0.000000 0.000000 0.000000 0.000000 0.000000 0.000000 0.000000 0.000000 0.000000 0.000000 0.000000 0.000000 0.000000 0.000000 0.000000 0.000000 0.000000 0.000000 0.000000 0.000000 0.000000 0.000000 0.000000 0.000000 0.000000 0.000000 0.000000 0.000000 0.000000 0.000000 0.000000 0.000000 0.000000 0.000000 0.000000 0.000000 0.000000 0.000000 0.000000 0.000000 0.000000 0.000000 0.000000 0.000000 0.000000 0.000000 0.000000 0.000000 0.000000 0.000000 0.000000 0.000000 0.000000 0.000000 0.000000 0.000000 0.000000 0.000000 0.000000 0.000000 0.000000 0.000000 0.000000 0.000000 0.000000 0.000000 0.000000 0.000000 0.000000 0.000000 0.000000 0.000000 0.000000 0.000000 0.000000 0.000000 0.000000 0.000000 0.000000 0.000000 0.000000 0.000000 0.000000 0.000000 0.000000 0.000000 0.000000 0.000000 0.000000 0.000000 0.000000 0.000000 0.000000 0.000000 0.000000 0.000000 0.000000 0.000000 0.000000 0.000000 0.000000 0.000000 0.000000 0.000000 0.000000 0.000000 0.000000 0.000000 0.000000 0.000000 0.000000 0.000000 0.000000 0.000000 0.000000 0.000000 0.000000 0.000000 0.000000 0.000000 0.000000 0.000000 0.000000 0.000000 0.000000 0.000000 0.000000 0.000000 0.000000 0.000000 0.000000 0.000000 0.000000 0.000000 0.000000 0.000000 0.000000 0.000000 0.000000 0.000000 0.000000 0.000000 0.000000 0.000000 0.000000 0.000000 0.000000 0.000000 0.000000 0.000000 0.000000 0.000000 0.000000 0.000000 0.000000 0.000000 0.000000 0.000000 0.000000 0.000000 0.000000 0.000000 0.000000 0.000000 0.000000 0.000000 0.000000 0.000000 0.000000 0.000000 0.000000 0.000000 0.000000 0.000000 0.000000
0.000000 0.000000 0.000000 0.000000 0.000000 0.000000 0.000000 0.000000 0.000000 0.000000 0.000000 0.000000 0.000000 0.000000 0.000000 0.000000 0.000000 0.000000 0.000000 0.000000 0.000000 0.000000 0.000000 0.000000 0.000000 0.000000 0.000000 0.000000 0.000000 0.000000 0.000000 0.000000 0.000000 0.000000 0.000000 0.000000 0.000000 0.000000 0.000000 0.000000 0.000000 0.000000 0.000000 0.000000 0.000000 0.000000 0.000000 0.000000 0.000000 0.000000 0.000000 0.000000 0.000000 0.000000 0.000000 0.000000 0.000000 0.000000 0.000000 0.000000 0.000000 0.000000 0.000000 0.000000 0.000000 0.000000 0.000000 0.000000 0.000000 0.000000 0.000000 0.000000 0.000000 0.000000 0.000000 0.000000 0.000000 0.000000 0.000000 0.000000 0.000000 0.000000 0.000000 0.000000 0.000000 0.000000 0.000000 0.000000 0.000000 0.000000 0.000000 0.000000 0.000000 0.000000 0.000000 0.000000 0.000000 0.000000 0.000000 0.000000 0.000000 0.000000 0.000000 0.000000 0.000000 0.000000 0.000000 0.000000 0.000000 0.000000 0.000000 0.000000 0.000000 0.000000 0.000000 0.000000 0.000000 0.000000 0.000000 0.000000 0.000000 0.000000 0.000000 0.000000 0.000000 0.000000 0.000000 0.000000 0.000000 0.000000 0.000000 0.000000 0.000000 0.000000 0.000000 0.000000 0.000000 0.000000 0.000000 0.000000 0.000000 0.000000 0.000000 0.000000 0.000000 0.000000 0.000000 0.000000 0.000000 0.000000 0.000000 0.000000 0.000000 0.000000 0.000000 0.000000 0.000000 0.000000 0.000000 0.000000 0.000000 0.000000 0.000000 0.000000 0.000000 0.000000 0.000000 0.000000 0.000000 0.000000 0.000000 0.000000 0.000000 0.000000 0.000000 0.000000 0.000000 0.000000 0.000000 0.000000 0.000000 0.000000 0.000000 0.000000 0.000000 0.000000 0.000000 0.000000 0.000000 0.000000 0.000000 0.000000 0.000000 0.000000 0.000000 0.000000 0.000000 0.000000 0.000000 0.000000
0.000000 0.000000 0.000000 0.000000 0.000000 0.000000 0.000000 0.000000 0.000000 0.000000 0.000000 0.000000 0.000000 0.000000 0.000000 0.000000 0.000000 0.000000 0.000000 0.000000 0.000000 0.000000 0.000000 0.000000 0.000000 0.000000 0.000000 0.000000 0.000000 0.000000 0.000000 0.000000 0.000000 0.000000 0.000000 0.000000 0.000000 0.000000 0.000000 0.000000 0.000000 0.000000 0.000000 0.000000 0.000000 0.000000 0.000000 0.000000 0.000000 0.000000 0.000000 0.000000 0.000000 0.000000 0.000000 0.000000 0.000000 0.000000 0.000000 0.000000 0.000000 0.000000 0.000000 0.000000 0.000000 0.000000 0.000000 0.000000 0.000000 0.000000 0.000000 0.000000 0.000000 0.000000 0.000000 0.000000 0.000000 0.000000 0.000000 0.000000 0.000000 0.000000 0.000000 0.000000 0.000000 0.000000 0.000000 0.000000 0.000000 0.000000 0.000000 0.000000 0.000000 0.000000 0.000000 0.000000 0.000000 0.000000 0.000000 0.000000 0.000000 0.000000 0.000000 0.000000 0.000000 0.000000 0.000000 0.000000 0.000000 0.000000 0.000000 0.000000 0.000000 0.000000 0.000000 0.000000 0.000000 0.000000 0.000000 0.000000 0.000000 0.000000 0.000000 0.000000 0.000000 0.000000 0.000000 0.000000 0.000000 0.000000 0.000000 0.000000 0.000000 0.000000 0.000000 0.000000 0.000000 0.000000 0.000000 0.000000 0.000000 0.000000 0.000000 0.000000 0.000000 0.000000 0.000000 0.000000 0.000000 0.000000 0.000000 0.000000 0.000000 0.000000 0.000000 0.000000 0.000000 0.000000 0.000000 0.000000 0.000000 0.000000 0.000000 0.000000 0.000000 0.000000 0.000000 0.000000 0.000000 0.000000 0.000000 0.000000 0.000000 0.000000 0.000000 0.000000 0.000000 0.000000 0.000000 0.000000 0.000000 0.000000 0.000000 0.000000 0.000000 0.000000 0.000000 0.000000 0.000000 0.000000 0.000000 0.000000 0.000000 0.000000 0.000000 0.000000 0.000000 0.000000 0.000000 0.000000
0.000000 0.000000 0.000000 0.000000 0.000000 0.000000 0.000000 0.000000 0.000000 0.000000 0.000000 0.000000 0.000000 0.000000 0.000000 0.000000 0.000000 0.000000 0.000000 0.000000 0.000000 0.000000 0.000000 0.000000 0.000000 0.000000 0.000000 0.000000 0.000000 0.000000 0.000000 0.000000 0.000000 0.000000 0.000000 0.000000 0.000000 0.000000 0.000000 0.000000 0.000000 0.000000 0.000000 0.000000 0.000000 0.000000 0.000000 0.000000 0.000000 0.000000 0.000000 0.000000 0.000000 0.000000 0.000000 0.000000 0.000000 0.000000 0.000000 0.000000 0.000000 0.000000 0.000000 0.000000 0.000000 0.000000 0.000000 0.000000 0.000000 0.000000 0.000000 0.000000 0.000000 0.000000 0.000000 0.000000 0.000000 0.000000 0.000000 0.000000 0.000000 0.000000 0.000000 0.000000 0.000000 0.000000 0.000000 0.000000 0.000000 0.000000 0.000000 0.000000 0.000000 0.000000 0.000000 0.000000 0.000000 0.000000 0.000000 0.000000 0.000000 0.000000 0.000000 0.000000 0.000000 0.000000 0.000000 0.000000 0.000000 0.000000 0.000000 0.000000 0.000000 0.000000 0.000000 0.000000 0.000000 0.000000 0.000000 0.000000 0.000000 0.000000 0.000000 0.000000 0.000000 0.000000 0.000000 0.000000 0.000000 0.000000 0.000000 0.000000 0.000000 0.000000 0.000000 0.000000 0.000000 0.000000 0.000000 0.000000 0.000000 0.000000 0.000000 0.000000 0.000000 0.000000 0.000000 0.000000 0.000000 0.000000 0.000000 0.000000 0.000000 0.000000 0.000000 0.000000 0.000000 0.000000 0.000000 0.000000 0.000000 0.000000 0.000000 0.000000 0.000000 0.000000 0.000000 0.000000 0.000000 0.000000 0.000000 0.000000 0.000000 0.000000 0.000000 0.000000 0.000000 0.000000 0.000000 0.000000 0.000000 0.000000 0.000000 0.000000 0.000000 0.000000 0.000000 0.000000 0.000000 0.000000 0.000000 0.000000 0.000000 0.000000 0.000000 0.000000 0.000000 0.000000 0.000000 0.000000
0.000000 0.000000 0.000000 0.000000 0.000000 0.000000 0.000000 0.000000 0.000000 0.000000 0.000000 0.000000 0.000000 0.000000 0.000000 0.000000 0.000000 0.000000 0.000000 0.000000 0.000000 0.000000 0.000000 0.000000 0.000000 0.000000 0.000000 0.000000 0.000000 0.000000 0.000000 0.000000 0.000000 0.000000 0.000000 0.000000 0.000000 0.000000 0.000000 0.000000 0.000000 0.000000 0.000000 0.000000 0.000000 0.000000 0.000000 0.000000 0.000000 0.000000 0.000000 0.000000 0.000000 0.000000 0.000000 0.000000 0.000000 0.000000 0.000000 0.000000 0.000000 0.000000 0.000000 0.000000 0.000000 0.000000 0.000000 0.000000 0.000000 0.000000 0.000000 0.000000 0.000000 0.000000 0.000000 0.000000 0.000000 0.000000 0.000000 0.000000 0.000000 0.000000 0.000000 0.000000 0.000000 0.000000 0.000000 0.000000 0.000000 0.000000 0.000000 0.000000 0.000000 0.000000 0.000000 0.000000 0.000000 0.000000 0.000000 0.000000 0.000000 0.000000 0.000000 0.000000 0.000000 0.000000 0.000000 0.000000 0.000000 0.000000 0.000000 0.000000 0.000000 0.000000 0.000000 0.000000 0.000000 0.000000 0.000000 0.000000 0.000000 0.000000 0.000000 0.000000 0.000000 0.000000 0.000000 0.000000 0.000000 0.000000 0.000000 0.000000 0.000000 0.000000 0.000000 0.000000 0.000000 0.000000 0.000000 0.000000 0.000000 0.000000 0.000000 0.000000 0.000000 0.000000 0.000000 0.000000 0.000000 0.000000 0.000000 0.000000 0.000000 0.000000 0.000000 0.000000 0.000000 0.000000 0.000000 0.000000 0.000000 0.000000 0.000000 0.000000 0.000000 0.000000 0.000000 0.000000 0.000000 0.000000 0.000000 0.000000 0.000000 0.000000 0.000000 0.000000 0.000000 0.000000 0.000000 0.000000 0.000000 0.000000 0.000000 0.000000 0.000000 0.000000 0.000000 0.000000 0.000000 0.000000 0.000000 0.000000 0.000000 0.000000 0.000000 0.000000 0.000000 0.000000 0.000000 0.000000
